; generated by PrusaSlicer 2.3.3+x64 on 2021-09-02 at 14:19:50 UTC

; 

; external perimeters extrusion width = 0.60mm
; perimeters extrusion width = 0.50mm
; infill extrusion width = 0.50mm
; solid infill extrusion width = 0.50mm
; top infill extrusion width = 0.45mm
; support material extrusion width = 0.38mm
; first layer extrusion width = 0.42mm

M73 P0 R127
M73 Q0 S127
M201 X1000 Y1000 Z200 E5000 ; sets maximum accelerations, mm/sec^2
M203 X200 Y200 Z12 E120 ; sets maximum feedrates, mm/sec
M204 P1250 R1250 T1250 ; sets acceleration (P, T) and retract acceleration (R), mm/sec^2
M205 X8.00 Y8.00 Z0.40 E4.50 ; sets the jerk limits, mm/sec
M205 S0 T0 ; sets the minimum extruding and travel feed rate, mm/sec
M107
;TYPE:Custom
M862.3 P "MK3S" ; printer model check
M862.1 P0.4 ; nozzle diameter check
M115 U3.10.0 ; tell printer latest fw version
G90 ; use absolute coordinates
M83 ; extruder relative mode
M104 S215 ; set extruder temp
M140 S65 ; set bed temp
M190 S65 ; wait for bed temp
M109 S215 ; wait for extruder temp
G28 W ; home all without mesh bed level
G80 ; mesh bed leveling
G1 Y-3.0 F1000.0 ; go outside print area
G92 E0.0
G1 X60.0 E9.0 F1000.0 ; intro line
G1 X100.0 E12.5 F1000.0 ; intro line
G92 E0.0
M221 S95

; Don't change E values below. Excessive value can damage the printer.

M907 E538 ; set extruder motor current
G21 ; set units to millimeters
G90 ; use absolute coordinates
M83 ; use relative distances for extrusion
M900 K0.05 ; Filament gcode LA 1.5
M900 K30 ; Filament gcode LA 1.0
;LAYER_CHANGE
;Z:0.2
;HEIGHT:0.2
;BEFORE_LAYER_CHANGE
G92 E0.0
;0.2


G1 E-0.80000 F2100.000
G1 Z0.400 F10800.000
;AFTER_LAYER_CHANGE
;0.2
G1 X67.005 Y19.884
G1 Z0.200
G1 E0.80000 F2100.000
M204 S1000
;TYPE:Skirt
;WIDTH:0.42
G1 F1200.000
G1 X67.522 Y19.123 E0.02884
G1 X68.292 Y18.614 E0.02896
G1 X69.196 Y18.437 E0.02887
G1 X180.834 Y18.607 E3.50035
G1 X181.410 Y18.685 E0.01823
G1 X181.950 Y18.900 E0.01823
G1 X182.422 Y19.239 E0.01823
G1 X182.797 Y19.683 E0.01823
G1 X183.085 Y20.303 E0.02142
G1 X183.185 Y20.979 E0.02142
G1 X183.185 Y189.197 E5.27435
G1 X183.110 Y189.777 E0.01835
G1 X182.896 Y190.322 E0.01835
G1 X182.555 Y190.797 E0.01835
G1 X182.108 Y191.175 E0.01835
G1 X181.489 Y191.463 E0.02142
G1 X180.816 Y191.563 E0.02130
G1 X73.698 Y191.563 E3.35862
M73 P0 R126
G1 X68.744 Y191.350 E0.15548
G1 X67.866 Y190.989 E0.02977
G1 X67.202 Y190.315 E0.02966
G1 X66.914 Y189.695 E0.02142
G1 X66.815 Y189.019 E0.02142
G1 X66.815 Y20.788 E5.27478
G1 X66.993 Y19.943 E0.02707
; printing object 2x3 boxes v3.stl id:0 copy 0
;WIPE_START
G1 F8640.000
G1 X67.522 Y19.123 E-0.22525
G1 X68.292 Y18.614 E-0.21324
G1 X69.196 Y18.437 E-0.21257
G1 X69.668 Y18.438 E-0.10894
;WIPE_END
G1 E-0.04000 F2100.000
G1 Z0.600 F10800.000
G1 X69.192 Y20.814
G1 Z0.200
G1 E0.80000 F2100.000
;TYPE:Support material
G1 F1200.000
G1 X69.192 Y189.016 E5.27384
G1 X69.946 Y189.016 E0.02365
G1 X69.946 Y20.984 E5.26852
M73 Q0 S126
G1 X70.701 Y20.984 E0.02365
G1 X70.701 Y189.016 E5.26852
G1 X71.455 Y189.016 E0.02365
G1 X71.455 Y20.984 E5.26852
G1 X72.209 Y20.984 E0.02365
G1 X72.209 Y189.016 E5.26852
M73 P1 R126
M73 Q1 S126
G1 X72.963 Y189.016 E0.02365
G1 X72.963 Y20.984 E5.26852
M73 P1 R125
G1 X73.717 Y20.984 E0.02365
G1 X73.717 Y189.186 E5.27384
;WIPE_START
G1 F8640.000
G1 X73.717 Y185.894 E-0.76000
;WIPE_END
G1 E-0.04000 F2100.000
G1 Z0.600 F10800.000
G1 X78.996 Y129.319
G1 Z0.200
G1 E0.80000 F2100.000
G1 F1200.000
G1 X78.996 Y133.011 E0.11578
G1 X78.242 Y133.011 E0.02365
G1 X78.242 Y129.489 E0.11046
G1 X77.488 Y129.489 E0.02365
G1 X77.488 Y133.011 E0.11046
G1 X76.734 Y133.011 E0.02365
G1 X76.734 Y129.489 E0.11046
G1 X75.980 Y129.489 E0.02365
G1 X75.980 Y133.011 E0.11046
G1 X75.226 Y133.011 E0.02365
G1 X75.226 Y129.489 E0.11046
G1 X74.548 Y129.489 E0.02125
G1 X74.471 Y129.412 E0.00338
G1 X74.471 Y133.088 E0.11524
G1 X74.261 Y133.298 E0.00931
G1 X74.261 Y181.702 E1.51770
G1 X74.471 Y181.912 E0.00931
G1 X74.471 Y189.016 E0.22273
G1 X75.225 Y189.016 E0.02365
G1 X75.225 Y181.989 E0.22034
G1 X75.980 Y181.989 E0.02365
G1 X75.980 Y189.016 E0.22034
G1 X76.734 Y189.016 E0.02365
G1 X76.734 Y181.989 E0.22034
G1 X77.488 Y181.989 E0.02365
G1 X77.488 Y189.016 E0.22034
G1 X78.242 Y189.016 E0.02365
G1 X78.242 Y181.989 E0.22034
G1 X78.996 Y181.989 E0.02365
G1 X78.996 Y189.016 E0.22034
G1 X79.750 Y189.016 E0.02365
G1 X79.750 Y181.989 E0.22034
G1 X80.505 Y181.989 E0.02365
G1 X80.505 Y189.016 E0.22034
G1 X81.259 Y189.016 E0.02365
G1 X81.259 Y181.989 E0.22034
G1 X82.013 Y181.989 E0.02365
G1 X82.013 Y189.016 E0.22034
G1 X82.767 Y189.016 E0.02365
G1 X82.767 Y181.989 E0.22034
G1 X83.521 Y181.989 E0.02365
G1 X83.521 Y189.016 E0.22034
G1 X84.275 Y189.016 E0.02365
G1 X84.275 Y181.989 E0.22034
G1 X85.030 Y181.989 E0.02365
G1 X85.030 Y189.016 E0.22034
G1 X85.784 Y189.016 E0.02365
G1 X85.784 Y181.989 E0.22034
G1 X86.538 Y181.989 E0.02365
G1 X86.538 Y189.016 E0.22034
G1 X87.292 Y189.016 E0.02365
G1 X87.292 Y181.989 E0.22034
G1 X88.046 Y181.989 E0.02365
G1 X88.046 Y189.016 E0.22034
G1 X88.800 Y189.016 E0.02365
G1 X88.800 Y181.989 E0.22034
G1 X89.555 Y181.989 E0.02365
G1 X89.555 Y189.016 E0.22034
G1 X90.309 Y189.016 E0.02365
G1 X90.309 Y181.989 E0.22034
G1 X91.063 Y181.989 E0.02365
G1 X91.063 Y189.016 E0.22034
G1 X91.817 Y189.016 E0.02365
G1 X91.817 Y181.989 E0.22034
M73 Q1 S125
G1 X92.571 Y181.989 E0.02365
G1 X92.571 Y189.016 E0.22034
G1 X93.325 Y189.016 E0.02365
G1 X93.325 Y181.989 E0.22034
G1 X94.079 Y181.989 E0.02365
G1 X94.079 Y189.016 E0.22034
G1 X94.834 Y189.016 E0.02365
G1 X94.834 Y181.989 E0.22034
G1 X95.588 Y181.989 E0.02365
G1 X95.588 Y189.016 E0.22034
G1 X96.342 Y189.016 E0.02365
G1 X96.342 Y181.989 E0.22034
G1 X97.096 Y181.989 E0.02365
G1 X97.096 Y189.016 E0.22034
G1 X97.850 Y189.016 E0.02365
G1 X97.850 Y181.989 E0.22034
G1 X98.604 Y181.989 E0.02365
G1 X98.604 Y189.016 E0.22034
G1 X99.359 Y189.016 E0.02365
G1 X99.359 Y181.989 E0.22034
G1 X100.113 Y181.989 E0.02365
G1 X100.113 Y189.016 E0.22034
G1 X100.867 Y189.016 E0.02365
G1 X100.867 Y181.989 E0.22034
G1 X101.621 Y181.989 E0.02365
G1 X101.621 Y189.016 E0.22034
G1 X102.375 Y189.016 E0.02365
G1 X102.375 Y181.989 E0.22034
G1 X103.129 Y181.989 E0.02365
G1 X103.129 Y189.016 E0.22034
G1 X103.884 Y189.016 E0.02365
G1 X103.884 Y181.989 E0.22034
G1 X104.638 Y181.989 E0.02365
G1 X104.638 Y189.016 E0.22034
G1 X105.392 Y189.016 E0.02365
G1 X105.392 Y181.989 E0.22034
G1 X106.146 Y181.989 E0.02365
G1 X106.146 Y189.016 E0.22034
G1 X106.900 Y189.016 E0.02365
G1 X106.900 Y181.989 E0.22034
G1 X107.654 Y181.989 E0.02365
G1 X107.654 Y189.016 E0.22034
G1 X108.408 Y189.016 E0.02365
G1 X108.408 Y181.989 E0.22034
G1 X109.163 Y181.989 E0.02365
G1 X109.163 Y189.016 E0.22034
G1 X109.917 Y189.016 E0.02365
G1 X109.917 Y181.989 E0.22034
G1 X110.671 Y181.989 E0.02365
G1 X110.671 Y189.016 E0.22034
G1 X111.425 Y189.016 E0.02365
G1 X111.425 Y181.989 E0.22034
G1 X112.179 Y181.989 E0.02365
G1 X112.179 Y189.016 E0.22034
G1 X112.933 Y189.016 E0.02365
G1 X112.933 Y181.989 E0.22034
G1 X113.688 Y181.989 E0.02365
G1 X113.688 Y189.016 E0.22034
G1 X114.442 Y189.016 E0.02365
G1 X114.442 Y181.989 E0.22034
G1 X115.196 Y181.989 E0.02365
G1 X115.196 Y189.016 E0.22034
G1 X115.950 Y189.016 E0.02365
G1 X115.950 Y181.989 E0.22034
G1 X116.704 Y181.989 E0.02365
G1 X116.704 Y189.016 E0.22034
G1 X117.458 Y189.016 E0.02365
G1 X117.458 Y181.989 E0.22034
G1 X118.213 Y181.989 E0.02365
G1 X118.213 Y189.016 E0.22034
G1 X118.967 Y189.016 E0.02365
G1 X118.967 Y181.989 E0.22034
G1 X119.721 Y181.989 E0.02365
G1 X119.721 Y189.016 E0.22034
G1 X120.475 Y189.016 E0.02365
G1 X120.475 Y181.989 E0.22034
G1 X121.229 Y181.989 E0.02365
G1 X121.229 Y189.016 E0.22034
G1 X121.983 Y189.016 E0.02365
G1 X121.983 Y181.989 E0.22034
G1 X122.738 Y181.989 E0.02365
G1 X122.738 Y189.016 E0.22034
G1 X123.492 Y189.016 E0.02365
G1 X123.492 Y176.131 E0.40401
G1 X124.246 Y176.131 E0.02365
G1 X124.246 Y189.016 E0.40401
G1 X125.000 Y189.016 E0.02365
G1 X125.000 Y176.131 E0.40401
G1 X125.754 Y176.131 E0.02365
G1 X125.754 Y189.016 E0.40401
G1 X126.508 Y189.016 E0.02365
G1 X126.508 Y176.131 E0.40401
G1 X126.761 Y176.131 E0.00794
G1 X126.761 Y181.702 E0.17470
G1 X127.048 Y181.989 E0.01269
G1 X127.262 Y181.989 E0.00674
G1 X127.262 Y189.016 E0.22034
G1 X128.017 Y189.016 E0.02365
G1 X128.017 Y181.989 E0.22034
G1 X128.771 Y181.989 E0.02365
G1 X128.771 Y189.016 E0.22034
G1 X129.525 Y189.016 E0.02365
G1 X129.525 Y181.989 E0.22034
G1 X130.279 Y181.989 E0.02365
G1 X130.279 Y189.016 E0.22034
G1 X131.033 Y189.016 E0.02365
G1 X131.033 Y181.989 E0.22034
G1 X131.787 Y181.989 E0.02365
G1 X131.787 Y189.016 E0.22034
G1 X132.542 Y189.016 E0.02365
G1 X132.542 Y181.989 E0.22034
G1 X133.296 Y181.989 E0.02365
G1 X133.296 Y189.016 E0.22034
G1 X134.050 Y189.016 E0.02365
G1 X134.050 Y181.989 E0.22034
G1 X134.804 Y181.989 E0.02365
G1 X134.804 Y189.016 E0.22034
G1 X135.558 Y189.016 E0.02365
G1 X135.558 Y181.989 E0.22034
G1 X136.312 Y181.989 E0.02365
G1 X136.312 Y189.016 E0.22034
G1 X137.067 Y189.016 E0.02365
G1 X137.067 Y181.989 E0.22034
G1 X137.821 Y181.989 E0.02365
G1 X137.821 Y189.016 E0.22034
G1 X138.575 Y189.016 E0.02365
G1 X138.575 Y181.989 E0.22034
G1 X139.329 Y181.989 E0.02365
G1 X139.329 Y189.016 E0.22034
G1 X140.083 Y189.016 E0.02365
G1 X140.083 Y181.989 E0.22034
G1 X140.837 Y181.989 E0.02365
G1 X140.837 Y189.016 E0.22034
G1 X141.591 Y189.016 E0.02365
G1 X141.591 Y181.989 E0.22034
G1 X142.346 Y181.989 E0.02365
G1 X142.346 Y189.016 E0.22034
G1 X143.100 Y189.016 E0.02365
G1 X143.100 Y181.989 E0.22034
G1 X143.854 Y181.989 E0.02365
G1 X143.854 Y189.016 E0.22034
G1 X144.608 Y189.016 E0.02365
G1 X144.608 Y181.989 E0.22034
G1 X145.362 Y181.989 E0.02365
G1 X145.362 Y189.016 E0.22034
G1 X146.116 Y189.016 E0.02365
G1 X146.116 Y181.989 E0.22034
G1 X146.871 Y181.989 E0.02365
G1 X146.871 Y189.016 E0.22034
G1 X147.625 Y189.016 E0.02365
G1 X147.625 Y181.989 E0.22034
G1 X148.379 Y181.989 E0.02365
G1 X148.379 Y189.016 E0.22034
G1 X149.133 Y189.016 E0.02365
G1 X149.133 Y181.989 E0.22034
G1 X149.887 Y181.989 E0.02365
G1 X149.887 Y189.016 E0.22034
G1 X150.641 Y189.016 E0.02365
G1 X150.641 Y181.989 E0.22034
G1 X151.396 Y181.989 E0.02365
G1 X151.396 Y189.016 E0.22034
G1 X152.150 Y189.016 E0.02365
G1 X152.150 Y181.989 E0.22034
G1 X152.904 Y181.989 E0.02365
G1 X152.904 Y189.016 E0.22034
G1 X153.658 Y189.016 E0.02365
M73 P1 R124
G1 X153.658 Y181.989 E0.22034
G1 X154.412 Y181.989 E0.02365
G1 X154.412 Y189.016 E0.22034
G1 X155.166 Y189.016 E0.02365
G1 X155.166 Y181.989 E0.22034
G1 X155.921 Y181.989 E0.02365
G1 X155.921 Y189.016 E0.22034
G1 X156.675 Y189.016 E0.02365
G1 X156.675 Y181.989 E0.22034
G1 X157.429 Y181.989 E0.02365
G1 X157.429 Y189.016 E0.22034
G1 X158.183 Y189.016 E0.02365
G1 X158.183 Y181.989 E0.22034
G1 X158.937 Y181.989 E0.02365
G1 X158.937 Y189.016 E0.22034
G1 X159.691 Y189.016 E0.02365
G1 X159.691 Y181.989 E0.22034
G1 X160.445 Y181.989 E0.02365
G1 X160.445 Y189.016 E0.22034
G1 X161.200 Y189.016 E0.02365
G1 X161.200 Y181.989 E0.22034
G1 X161.954 Y181.989 E0.02365
G1 X161.954 Y189.016 E0.22034
G1 X162.708 Y189.016 E0.02365
G1 X162.708 Y181.989 E0.22034
G1 X163.462 Y181.989 E0.02365
G1 X163.462 Y189.016 E0.22034
G1 X164.216 Y189.016 E0.02365
G1 X164.216 Y181.989 E0.22034
G1 X164.970 Y181.989 E0.02365
G1 X164.970 Y189.016 E0.22034
G1 X165.725 Y189.016 E0.02365
G1 X165.725 Y181.989 E0.22034
G1 X166.479 Y181.989 E0.02365
G1 X166.479 Y189.016 E0.22034
G1 X167.233 Y189.016 E0.02365
G1 X167.233 Y181.989 E0.22034
G1 X167.987 Y181.989 E0.02365
G1 X167.987 Y189.016 E0.22034
G1 X168.741 Y189.016 E0.02365
G1 X168.741 Y181.989 E0.22034
M73 P2 R124
G1 X169.495 Y181.989 E0.02365
M73 Q2 S125
G1 X169.495 Y189.016 E0.22034
G1 X170.250 Y189.016 E0.02365
G1 X170.250 Y181.989 E0.22034
G1 X171.004 Y181.989 E0.02365
G1 X171.004 Y189.016 E0.22034
G1 X171.758 Y189.016 E0.02365
G1 X171.758 Y181.989 E0.22034
G1 X172.512 Y181.989 E0.02365
G1 X172.512 Y189.016 E0.22034
G1 X173.266 Y189.016 E0.02365
G1 X173.266 Y181.989 E0.22034
G1 X174.020 Y181.989 E0.02365
G1 X174.020 Y189.016 E0.22034
G1 X174.774 Y189.016 E0.02365
G1 X174.774 Y181.989 E0.22034
G1 X175.529 Y181.989 E0.02365
G1 X175.529 Y189.186 E0.22566
G1 X180.808 Y189.186 F10800.000
G1 F1200.000
G1 X180.808 Y20.984 E5.27384
G1 X180.054 Y20.984 E0.02365
G1 X180.054 Y189.016 E5.26852
M73 Q2 S124
G1 X179.299 Y189.016 E0.02365
G1 X179.299 Y20.984 E5.26852
G1 X178.545 Y20.984 E0.02365
G1 X178.545 Y189.016 E5.26852
G1 X177.791 Y189.016 E0.02365
G1 X177.791 Y20.984 E5.26852
G1 X177.037 Y20.984 E0.02365
G1 X177.037 Y189.016 E5.26852
M73 P2 R123
G1 X176.283 Y189.016 E0.02365
G1 X176.283 Y20.984 E5.26852
G1 X175.529 Y20.984 E0.02365
G1 X175.529 Y28.011 E0.22034
G1 X174.775 Y28.011 E0.02365
G1 X174.775 Y20.984 E0.22034
G1 X174.020 Y20.984 E0.02365
G1 X174.020 Y28.011 E0.22034
G1 X173.266 Y28.011 E0.02365
G1 X173.266 Y20.984 E0.22034
G1 X172.512 Y20.984 E0.02365
G1 X172.512 Y28.011 E0.22034
G1 X171.758 Y28.011 E0.02365
G1 X171.758 Y20.984 E0.22034
G1 X171.004 Y20.984 E0.02365
G1 X171.004 Y28.011 E0.22034
G1 X170.250 Y28.011 E0.02365
G1 X170.250 Y20.984 E0.22034
G1 X169.495 Y20.984 E0.02365
G1 X169.495 Y28.011 E0.22034
G1 X168.741 Y28.011 E0.02365
G1 X168.741 Y20.984 E0.22034
G1 X167.987 Y20.984 E0.02365
G1 X167.987 Y28.011 E0.22034
G1 X167.233 Y28.011 E0.02365
G1 X167.233 Y20.984 E0.22034
G1 X166.479 Y20.984 E0.02365
G1 X166.479 Y28.011 E0.22034
G1 X165.725 Y28.011 E0.02365
G1 X165.725 Y20.984 E0.22034
G1 X164.970 Y20.984 E0.02365
G1 X164.970 Y28.011 E0.22034
G1 X164.216 Y28.011 E0.02365
G1 X164.216 Y20.984 E0.22034
G1 X163.462 Y20.984 E0.02365
G1 X163.462 Y28.011 E0.22034
G1 X162.708 Y28.011 E0.02365
G1 X162.708 Y20.984 E0.22034
G1 X161.954 Y20.984 E0.02365
G1 X161.954 Y28.011 E0.22034
G1 X161.200 Y28.011 E0.02365
G1 X161.200 Y20.984 E0.22034
G1 X160.445 Y20.984 E0.02365
G1 X160.445 Y28.011 E0.22034
G1 X159.691 Y28.011 E0.02365
G1 X159.691 Y20.984 E0.22034
G1 X158.937 Y20.984 E0.02365
G1 X158.937 Y28.011 E0.22034
G1 X158.183 Y28.011 E0.02365
G1 X158.183 Y20.984 E0.22034
G1 X157.429 Y20.984 E0.02365
G1 X157.429 Y28.011 E0.22034
G1 X156.675 Y28.011 E0.02365
G1 X156.675 Y20.984 E0.22034
G1 X155.921 Y20.984 E0.02365
G1 X155.921 Y28.011 E0.22034
G1 X155.166 Y28.011 E0.02365
G1 X155.166 Y20.984 E0.22034
G1 X154.412 Y20.984 E0.02365
G1 X154.412 Y28.011 E0.22034
G1 X153.658 Y28.011 E0.02365
G1 X153.658 Y20.984 E0.22034
G1 X152.904 Y20.984 E0.02365
G1 X152.904 Y28.011 E0.22034
G1 X152.150 Y28.011 E0.02365
G1 X152.150 Y20.984 E0.22034
G1 X151.396 Y20.984 E0.02365
G1 X151.396 Y28.011 E0.22034
M73 P3 R123
G1 X150.641 Y28.011 E0.02365
G1 X150.641 Y20.984 E0.22034
M73 Q3 S124
G1 X149.887 Y20.984 E0.02365
G1 X149.887 Y28.011 E0.22034
M73 Q3 S123
G1 X149.133 Y28.011 E0.02365
G1 X149.133 Y20.984 E0.22034
G1 X148.379 Y20.984 E0.02365
G1 X148.379 Y28.011 E0.22034
G1 X147.625 Y28.011 E0.02365
G1 X147.625 Y20.984 E0.22034
G1 X146.871 Y20.984 E0.02365
G1 X146.871 Y28.011 E0.22034
G1 X146.116 Y28.011 E0.02365
G1 X146.116 Y20.984 E0.22034
G1 X145.362 Y20.984 E0.02365
G1 X145.362 Y28.011 E0.22034
G1 X144.608 Y28.011 E0.02365
G1 X144.608 Y20.984 E0.22034
G1 X143.854 Y20.984 E0.02365
G1 X143.854 Y28.011 E0.22034
G1 X143.100 Y28.011 E0.02365
G1 X143.100 Y20.984 E0.22034
G1 X142.346 Y20.984 E0.02365
G1 X142.346 Y28.011 E0.22034
G1 X141.592 Y28.011 E0.02365
G1 X141.592 Y20.984 E0.22034
G1 X140.837 Y20.984 E0.02365
G1 X140.837 Y28.011 E0.22034
G1 X140.083 Y28.011 E0.02365
G1 X140.083 Y20.984 E0.22034
G1 X139.329 Y20.984 E0.02365
G1 X139.329 Y28.011 E0.22034
G1 X138.575 Y28.011 E0.02365
G1 X138.575 Y20.984 E0.22034
G1 X137.821 Y20.984 E0.02365
G1 X137.821 Y28.011 E0.22034
G1 X137.067 Y28.011 E0.02365
G1 X137.067 Y20.984 E0.22034
G1 X136.312 Y20.984 E0.02365
G1 X136.312 Y28.011 E0.22034
G1 X135.558 Y28.011 E0.02365
G1 X135.558 Y20.984 E0.22034
G1 X134.804 Y20.984 E0.02365
G1 X134.804 Y28.011 E0.22034
G1 X134.050 Y28.011 E0.02365
G1 X134.050 Y20.984 E0.22034
G1 X133.296 Y20.984 E0.02365
G1 X133.296 Y28.011 E0.22034
G1 X132.542 Y28.011 E0.02365
G1 X132.542 Y20.984 E0.22034
G1 X131.787 Y20.984 E0.02365
G1 X131.787 Y28.011 E0.22034
G1 X131.033 Y28.011 E0.02365
