; generated by PrusaSlicer 2.3.3+x64 on 2021-09-02 at 04:50:39 UTC

; 

; external perimeters extrusion width = 0.60mm
; perimeters extrusion width = 0.50mm
; infill extrusion width = 0.50mm
; solid infill extrusion width = 0.50mm
; top infill extrusion width = 0.45mm
; support material extrusion width = 0.38mm
; first layer extrusion width = 0.42mm

M73 P0 R252
M73 Q0 S253
M201 X1000 Y1000 Z200 E5000 ; sets maximum accelerations, mm/sec^2
M203 X200 Y200 Z12 E120 ; sets maximum feedrates, mm/sec
M204 P1250 R1250 T1250 ; sets acceleration (P, T) and retract acceleration (R), mm/sec^2
M205 X8.00 Y8.00 Z0.40 E4.50 ; sets the jerk limits, mm/sec
M205 S0 T0 ; sets the minimum extruding and travel feed rate, mm/sec
M107
;TYPE:Custom
M862.3 P "MK3S" ; printer model check
M862.1 P0.4 ; nozzle diameter check
M115 U3.10.0 ; tell printer latest fw version
G90 ; use absolute coordinates
M83 ; extruder relative mode
M104 S215 ; set extruder temp
M140 S65 ; set bed temp
M190 S65 ; wait for bed temp
M109 S215 ; wait for extruder temp
G28 W ; home all without mesh bed level
G80 ; mesh bed leveling
G1 Y-3.0 F1000.0 ; go outside print area
G92 E0.0
G1 X60.0 E9.0 F1000.0 ; intro line
G1 X100.0 E12.5 F1000.0 ; intro line
G92 E0.0
M221 S95

; Don't change E values below. Excessive value can damage the printer.

M907 E538 ; set extruder motor current
G21 ; set units to millimeters
G90 ; use absolute coordinates
M83 ; use relative distances for extrusion
M900 K0.05 ; Filament gcode LA 1.5
M900 K30 ; Filament gcode LA 1.0
;LAYER_CHANGE
;Z:0.2
;HEIGHT:0.2
;BEFORE_LAYER_CHANGE
G92 E0.0
;0.2


G1 E-0.80000 F2100.000
G1 Z0.400 F10800.000
;AFTER_LAYER_CHANGE
;0.2
G1 X14.727 Y22.083
G1 Z0.200
G1 E0.80000 F2100.000
M204 S1000
;TYPE:Skirt
;WIDTH:0.42
G1 F1200.000
G1 X15.021 Y21.454 E0.02178
G1 X15.396 Y21.014 E0.01811
G1 X15.869 Y20.677 E0.01823
G1 X16.407 Y20.465 E0.01811
G1 X16.979 Y20.389 E0.01811
G1 X128.623 Y20.389 E3.50050
M73 P0 R251
G1 X238.677 Y22.671 E3.45141
G1 X239.248 Y22.758 E0.01811
G1 X239.777 Y22.979 E0.01799
G1 X240.241 Y23.323 E0.01811
G1 X240.609 Y23.768 E0.01811
G1 X240.886 Y24.380 E0.02107
G1 X240.982 Y25.042 E0.02095
G1 X240.982 Y192.955 E5.26480
G1 X240.906 Y193.539 E0.01846
G1 X240.687 Y194.090 E0.01858
G1 X240.339 Y194.569 E0.01858
G1 X239.883 Y194.948 E0.01858
G1 X239.271 Y195.225 E0.02107
G1 X238.609 Y195.321 E0.02095
G1 X126.959 Y195.151 E3.50073
G1 X16.935 Y193.039 E3.45036
M73 Q0 S252
G1 X16.364 Y192.952 E0.01811
G1 X15.831 Y192.730 E0.01811
G1 X15.366 Y192.386 E0.01811
G1 X14.999 Y191.941 E0.01811
G1 X14.723 Y191.333 E0.02095
G1 X14.626 Y190.668 E0.02107
G1 X14.626 Y22.766 E5.26444
G1 X14.718 Y22.142 E0.01978
; printing object 3x2_box_champher_bottom.stl id:1 copy 0
;WIPE_START
G1 F8640.000
G1 X15.021 Y21.454 E-0.17369
G1 X15.396 Y21.014 E-0.13336
G1 X15.869 Y20.677 E-0.13423
G1 X16.407 Y20.465 E-0.13336
G1 X16.979 Y20.389 E-0.13336
G1 X17.205 Y20.389 E-0.05202
;WIPE_END
G1 E-0.04000 F2100.000
G1 Z0.600 F10800.000
G1 X17.003 Y33.492
G1 Z0.200
G1 E0.80000 F2100.000
;TYPE:Support material
G1 F1200.000
G1 X17.003 Y22.766 E0.33632
G1 X17.757 Y22.766 E0.02365
G1 X17.757 Y33.323 E0.33100
G1 X18.512 Y33.323 E0.02365
G1 X18.512 Y22.766 E0.33100
G1 X19.266 Y22.766 E0.02365
G1 X19.266 Y33.323 E0.33100
G1 X20.020 Y33.323 E0.02365
G1 X20.020 Y22.766 E0.33100
G1 X20.774 Y22.766 E0.02365
G1 X20.774 Y33.323 E0.33100
G1 X21.528 Y33.323 E0.02365
G1 X21.528 Y22.766 E0.33100
G1 X22.282 Y22.766 E0.02365
G1 X22.282 Y29.391 E0.20772
G1 X23.037 Y29.391 E0.02365
G1 X23.037 Y22.766 E0.20772
G1 X23.791 Y22.766 E0.02365
G1 X23.791 Y29.391 E0.20772
G1 X24.545 Y29.391 E0.02365
G1 X24.545 Y22.766 E0.20772
G1 X24.929 Y22.766 E0.01204
G1 X24.929 Y25.077 E0.07247
G1 X25.299 Y25.077 E0.01161
G1 X25.299 Y29.391 E0.13525
G1 X26.053 Y29.391 E0.02365
G1 X26.053 Y25.077 E0.13525
G1 X26.807 Y25.077 E0.02365
G1 X26.807 Y29.561 E0.14057
;WIPE_START
G1 F8640.000
G1 X26.807 Y26.269 E-0.76000
;WIPE_END
G1 E-0.04000 F2100.000
G1 Z0.600 F10800.000
G1 X68.286 Y24.908
G1 Z0.200
G1 E0.80000 F2100.000
G1 F1200.000
G1 X68.286 Y29.391 E0.14057
G1 X69.040 Y29.391 E0.02365
G1 X69.040 Y25.077 E0.13525
G1 X69.794 Y25.077 E0.02365
G1 X69.794 Y29.391 E0.13525
G1 X70.549 Y29.391 E0.02365
G1 X70.549 Y25.077 E0.13525
G1 X71.303 Y25.077 E0.02365
G1 X71.303 Y29.580 E0.14119
G1 X71.400 Y29.677 E0.00429
G1 X71.400 Y35.634 E0.18678
G1 X72.057 Y35.634 E0.02061
G1 X72.057 Y25.077 E0.33100
G1 X72.811 Y25.077 E0.02365
G1 X72.811 Y35.634 E0.33100
G1 X73.565 Y35.634 E0.02365
G1 X73.565 Y25.077 E0.33100
G1 X74.319 Y25.077 E0.02365
G1 X74.319 Y29.580 E0.14119
G1 X74.509 Y29.391 E0.00839
G1 X75.074 Y29.391 E0.01771
G1 X75.074 Y25.077 E0.13525
G1 X75.828 Y25.077 E0.02365
G1 X75.828 Y29.391 E0.13525
G1 X76.582 Y29.391 E0.02365
G1 X76.582 Y25.077 E0.13525
G1 X77.336 Y25.077 E0.02365
G1 X77.336 Y29.561 E0.14057
;WIPE_START
G1 F8640.000
G1 X77.336 Y26.269 E-0.76000
;WIPE_END
G1 E-0.04000 F2100.000
G1 Z0.600 F10800.000
G1 X118.815 Y29.561
G1 Z0.200
G1 E0.80000 F2100.000
G1 F1200.000
G1 X118.815 Y25.077 E0.14057
G1 X119.569 Y25.077 E0.02365
G1 X119.569 Y29.391 E0.13525
G1 X120.323 Y29.391 E0.02365
G1 X120.323 Y25.077 E0.13525
G1 X120.693 Y25.077 E0.01160
G1 X120.693 Y22.766 E0.07247
G1 X121.077 Y22.766 E0.01204
G1 X121.077 Y29.391 E0.20772
G1 X121.831 Y29.391 E0.02365
G1 X121.831 Y22.766 E0.20772
G1 X122.586 Y22.766 E0.02365
G1 X122.586 Y29.391 E0.20772
G1 X123.340 Y29.391 E0.02365
G1 X123.340 Y22.766 E0.20772
G1 X124.094 Y22.766 E0.02365
G1 X124.094 Y33.323 E0.33100
G1 X124.848 Y33.323 E0.02365
G1 X124.848 Y22.766 E0.33100
G1 X125.602 Y22.766 E0.02365
G1 X125.602 Y33.323 E0.33100
G1 X126.356 Y33.323 E0.02365
G1 X126.356 Y22.766 E0.33100
G1 X127.110 Y22.766 E0.02365
G1 X127.110 Y33.323 E0.33100
G1 X127.865 Y33.323 E0.02365
G1 X127.865 Y22.766 E0.33100
G1 X128.619 Y22.766 E0.02365
G1 X128.619 Y33.492 E0.33632
;WIPE_START
G1 F8640.000
G1 X128.619 Y30.201 E-0.76000
;WIPE_END
G1 E-0.04000 F2100.000
G1 Z0.600 F10800.000
G1 X126.356 Y84.342
G1 Z0.200
G1 E0.80000 F2100.000
G1 F1200.000
G1 X126.356 Y75.926 E0.26385
G1 X125.602 Y75.926 E0.02365
G1 X125.602 Y84.172 E0.25853
G1 X124.848 Y84.172 E0.02365
G1 X124.848 Y75.926 E0.25853
G1 X124.094 Y75.926 E0.02365
G1 X124.094 Y84.172 E0.25853
G1 X123.800 Y84.172 E0.00923
G1 X123.800 Y82.077 E0.06568
G1 X123.513 Y81.791 E0.01269
G1 X123.340 Y81.791 E0.00545
G1 X123.340 Y78.968 E0.08851
G1 X122.586 Y78.968 E0.02365
G1 X122.586 Y81.791 E0.08851
G1 X121.831 Y81.791 E0.02365
G1 X121.831 Y78.968 E0.08851
G1 X121.077 Y78.968 E0.02365
G1 X121.077 Y81.791 E0.08851
G1 X120.323 Y81.791 E0.02365
G1 X120.323 Y78.968 E0.08851
G1 X119.569 Y78.968 E0.02365
G1 X119.569 Y81.791 E0.08851
G1 X118.815 Y81.791 E0.02365
G1 X118.815 Y78.798 E0.09383
;WIPE_START
G1 F8640.000
G1 X118.815 Y81.791 E-0.69100
G1 X119.114 Y81.791 E-0.06900
;WIPE_END
G1 E-0.04000 F2100.000
G1 Z0.600 F10800.000
G1 X74.856 Y81.704
G1 Z0.200
G1 E0.80000 F2100.000
;TYPE:Support material interface
;WIDTH:0.38
G1 F1200.000
G1 X74.856 Y79.195 E0.07032
G1 X74.345 Y79.195 E0.01433
G1 X74.345 Y81.564 E0.06639
G1 X74.262 Y81.564 E0.00232
G1 X73.995 Y81.831 E0.01058
G1 X73.995 Y83.516 E0.04724
G1 X73.834 Y83.516 E0.00453
G1 X73.834 Y76.582 E0.19435
G1 X73.322 Y76.582 E0.01433
G1 X73.322 Y83.516 E0.19435
G1 X72.811 Y83.516 E0.01433
G1 X72.811 Y76.582 E0.19435
M73 P0 R250
G1 X72.300 Y76.582 E0.01433
G1 X72.300 Y83.516 E0.19435
G1 X71.788 Y83.516 E0.01433
G1 X71.788 Y76.582 E0.19435
G1 X71.627 Y76.582 E0.00453
G1 X71.627 Y78.928 E0.06576
G1 X71.360 Y79.195 E0.01058
G1 X71.277 Y79.195 E0.00232
G1 X71.277 Y81.564 E0.06639
G1 X70.766 Y81.564 E0.01433
G1 X70.766 Y79.055 E0.07032
;WIPE_START
G1 F8640.000
G1 X70.766 Y81.564 E-0.57929
G1 X71.277 Y81.564 E-0.11807
G1 X71.277 Y81.293 E-0.06265
;WIPE_END
G1 E-0.04000 F2100.000
G1 Z0.600 F10800.000
G1 X26.807 Y81.961
G1 Z0.200
G1 E0.80000 F2100.000
;TYPE:Support material
;WIDTH:0.42
G1 F1200.000
G1 X26.807 Y78.968 E0.09383
G1 X26.053 Y78.968 E0.02365
G1 X26.053 Y81.791 E0.08851
G1 X25.299 Y81.791 E0.02365
G1 X25.299 Y78.968 E0.08851
G1 X24.545 Y78.968 E0.02365
G1 X24.545 Y81.791 E0.08851
G1 X23.791 Y81.791 E0.02365
G1 X23.791 Y78.968 E0.08851
G1 X23.037 Y78.968 E0.02365
G1 X23.037 Y81.791 E0.08851
G1 X22.282 Y81.791 E0.02365
G1 X22.282 Y78.968 E0.08851
G1 X22.109 Y78.968 E0.00545
G1 X21.822 Y78.682 E0.01269
G1 X21.822 Y75.926 E0.08639
G1 X21.528 Y75.926 E0.00923
G1 X21.528 Y84.172 E0.25853
G1 X20.774 Y84.172 E0.02365
G1 X20.774 Y75.926 E0.25853
G1 X20.020 Y75.926 E0.02365
G1 X20.020 Y84.172 E0.25853
G1 X19.266 Y84.172 E0.02365
G1 X19.266 Y75.757 E0.26385
;WIPE_START
G1 F8640.000
G1 X19.266 Y79.048 E-0.76000
;WIPE_END
G1 E-0.04000 F2100.000
G1 Z0.600 F10800.000
G1 X19.266 Y128.917
G1 Z0.200
G1 E0.80000 F2100.000
G1 F1200.000
G1 X19.266 Y137.332 E0.26385
G1 X20.020 Y137.332 E0.02365
G1 X20.020 Y129.087 E0.25853
G1 X20.774 Y129.087 E0.02365
G1 X20.774 Y137.332 E0.25853
G1 X21.528 Y137.332 E0.02365
G1 X21.528 Y129.087 E0.25853
G1 X21.822 Y129.087 E0.00923
G1 X21.822 Y131.182 E0.06568
G1 X22.109 Y131.468 E0.01269
G1 X22.282 Y131.468 E0.00545
G1 X22.282 Y134.291 E0.08851
G1 X23.037 Y134.291 E0.02365
G1 X23.037 Y131.468 E0.08851
G1 X23.791 Y131.468 E0.02365
G1 X23.791 Y134.291 E0.08851
G1 X24.545 Y134.291 E0.02365
G1 X24.545 Y131.468 E0.08851
G1 X25.299 Y131.468 E0.02365
G1 X25.299 Y134.291 E0.08851
G1 X26.053 Y134.291 E0.02365
G1 X26.053 Y131.468 E0.08851
G1 X26.807 Y131.468 E0.02365
G1 X26.807 Y134.461 E0.09383
;WIPE_START
G1 F8640.000
G1 X26.807 Y131.468 E-0.69100
G1 X26.509 Y131.468 E-0.06900
;WIPE_END
G1 E-0.04000 F2100.000
G1 Z0.600 F10800.000
G1 X70.766 Y131.555
G1 Z0.200
G1 E0.80000 F2100.000
;TYPE:Support material interface
;WIDTH:0.38
G1 F1200.000
G1 X70.766 Y134.064 E0.07032
G1 X71.277 Y134.064 E0.01433
G1 X71.277 Y131.695 E0.06639
G1 X71.360 Y131.695 E0.00232
G1 X71.627 Y131.428 E0.01058
G1 X71.627 Y129.743 E0.04724
G1 X71.788 Y129.743 E0.00453
G1 X71.788 Y136.677 E0.19435
G1 X72.300 Y136.677 E0.01433
G1 X72.300 Y129.743 E0.19435
G1 X72.811 Y129.743 E0.01433
G1 X72.811 Y136.677 E0.19435
G1 X73.322 Y136.677 E0.01433
G1 X73.322 Y129.743 E0.19435
G1 X73.834 Y129.743 E0.01433
G1 X73.834 Y136.677 E0.19435
G1 X73.995 Y136.677 E0.00453
G1 X73.995 Y134.331 E0.06575
G1 X74.262 Y134.064 E0.01058
G1 X74.345 Y134.064 E0.00232
G1 X74.345 Y131.695 E0.06639
G1 X74.856 Y131.695 E0.01433
G1 X74.856 Y134.204 E0.07032
;WIPE_START
G1 F8640.000
G1 X74.856 Y131.695 E-0.57929
G1 X74.345 Y131.695 E-0.11807
G1 X74.345 Y131.966 E-0.06265
;WIPE_END
G1 E-0.04000 F2100.000
G1 Z0.600 F10800.000
G1 X118.815 Y131.298
G1 Z0.200
G1 E0.80000 F2100.000
;TYPE:Support material
;WIDTH:0.42
G1 F1200.000
G1 X118.815 Y134.291 E0.09383
G1 X119.569 Y134.291 E0.02365
G1 X119.569 Y131.468 E0.08851
G1 X120.323 Y131.468 E0.02365
G1 X120.323 Y134.291 E0.08851
G1 X121.077 Y134.291 E0.02365
G1 X121.077 Y131.468 E0.08851
G1 X121.831 Y131.468 E0.02365
G1 X121.831 Y134.291 E0.08851
G1 X122.586 Y134.291 E0.02365
G1 X122.586 Y131.468 E0.08851
G1 X123.340 Y131.468 E0.02365
G1 X123.340 Y134.291 E0.08851
G1 X123.513 Y134.291 E0.00545
G1 X123.800 Y134.577 E0.01269
G1 X123.800 Y137.332 E0.08639
G1 X124.094 Y137.332 E0.00923
G1 X124.094 Y129.087 E0.25853
G1 X124.848 Y129.087 E0.02365
G1 X124.848 Y137.332 E0.25853
G1 X125.602 Y137.332 E0.02365
G1 X125.602 Y129.087 E0.25853
G1 X126.356 Y129.087 E0.02365
G1 X126.356 Y137.502 E0.26385
;WIPE_START
G1 F8640.000
G1 X126.356 Y134.211 E-0.76000
;WIPE_END
G1 E-0.04000 F2100.000
G1 Z0.600 F10800.000
G1 X128.619 Y190.663
G1 Z0.200
G1 E0.80000 F2100.000
G1 F1200.000
G1 X128.619 Y179.936 E0.33632
G1 X127.865 Y179.936 E0.02365
G1 X127.865 Y190.493 E0.33100
M73 Q0 S251
G1 X127.110 Y190.493 E0.02365
G1 X127.110 Y179.936 E0.33100
G1 X126.356 Y179.936 E0.02365
G1 X126.356 Y190.493 E0.33100
G1 X125.602 Y190.493 E0.02365
G1 X125.602 Y179.936 E0.33100
G1 X124.848 Y179.936 E0.02365
G1 X124.848 Y190.493 E0.33100
G1 X124.094 Y190.493 E0.02365
G1 X124.094 Y179.936 E0.33100
G1 X123.800 Y179.936 E0.00923
G1 X123.800 Y183.582 E0.11431
G1 X123.513 Y183.868 E0.01269
G1 X123.340 Y183.868 E0.00545
G1 X123.340 Y190.493 E0.20772
G1 X122.586 Y190.493 E0.02365
G1 X122.586 Y183.868 E0.20772
G1 X121.831 Y183.868 E0.02365
G1 X121.831 Y190.493 E0.20772
G1 X121.077 Y190.493 E0.02365
G1 X121.077 Y183.868 E0.20772
G1 X120.323 Y183.868 E0.02365
G1 X120.323 Y188.182 E0.13525
G1 X119.569 Y188.182 E0.02365
G1 X119.569 Y183.868 E0.13525
G1 X118.815 Y183.868 E0.02365
G1 X118.815 Y188.351 E0.14057
;WIPE_START
G1 F8640.000
G1 X118.815 Y185.060 E-0.76000
;WIPE_END
G1 E-0.04000 F2100.000
G1 Z0.600 F10800.000
G1 X77.336 Y188.351
G1 Z0.200
G1 E0.80000 F2100.000
G1 F1200.000
G1 X77.336 Y183.868 E0.14057
G1 X76.582 Y183.868 E0.02365
G1 X76.582 Y188.182 E0.13525
G1 X75.828 Y188.182 E0.02365
G1 X75.828 Y183.868 E0.13525
G1 X75.073 Y183.868 E0.02365
G1 X75.073 Y188.182 E0.13525
G1 X74.319 Y188.182 E0.02365
G1 X74.319 Y183.679 E0.14119
G1 X74.222 Y183.582 E0.00429
G1 X74.222 Y177.625 E0.18678
G1 X73.565 Y177.625 E0.02061
G1 X73.565 Y188.182 E0.33100
G1 X72.811 Y188.182 E0.02365
G1 X72.811 Y177.625 E0.33100
G1 X72.057 Y177.625 E0.02365
G1 X72.057 Y188.182 E0.33100
G1 X71.303 Y188.182 E0.02365
G1 X71.303 Y183.679 E0.14119
G1 X71.113 Y183.868 E0.00839
G1 X70.549 Y183.868 E0.01771
G1 X70.549 Y188.182 E0.13525
G1 X69.794 Y188.182 E0.02365
G1 X69.794 Y183.868 E0.13525
G1 X69.040 Y183.868 E0.02365
G1 X69.040 Y188.182 E0.13525
G1 X68.286 Y188.182 E0.02365
G1 X68.286 Y183.698 E0.14057
;WIPE_START
G1 F8640.000
G1 X68.286 Y186.990 E-0.76000
;WIPE_END
G1 E-0.04000 F2100.000
G1 Z0.600 F10800.000
G1 X26.807 Y188.351
G1 Z0.200
G1 E0.80000 F2100.000
G1 F1200.000
G1 X26.807 Y183.868 E0.14057
G1 X26.053 Y183.868 E0.02365
G1 X26.053 Y188.182 E0.13525
G1 X25.299 Y188.182 E0.02365
G1 X25.299 Y183.868 E0.13525
G1 X24.545 Y183.868 E0.02365
G1 X24.545 Y190.493 E0.20772
G1 X23.791 Y190.493 E0.02365
G1 X23.791 Y183.868 E0.20772
G1 X23.037 Y183.868 E0.02365
G1 X23.037 Y190.493 E0.20772
G1 X22.282 Y190.493 E0.02365
G1 X22.282 Y183.868 E0.20772
G1 X22.109 Y183.868 E0.00545
G1 X21.822 Y183.582 E0.01269
G1 X21.822 Y179.936 E0.11431
G1 X21.528 Y179.936 E0.00923
G1 X21.528 Y190.493 E0.33100
G1 X20.774 Y190.493 E0.02365
G1 X20.774 Y179.936 E0.33100
G1 X20.020 Y179.936 E0.02365
G1 X20.020 Y190.493 E0.33100
G1 X19.266 Y190.493 E0.02365
G1 X19.266 Y179.936 E0.33100
G1 X18.512 Y179.936 E0.02365
G1 X18.512 Y190.493 E0.33100
G1 X17.757 Y190.493 E0.02365
G1 X17.757 Y179.936 E0.33100
G1 X17.003 Y179.936 E0.02365
G1 X17.003 Y190.663 E0.33632
;WIPE_START
G1 F8640.000
G1 X17.003 Y187.371 E-0.76000
;WIPE_END
G1 E-0.04000 F2100.000
G1 Z0.600 F10800.000
G1 X23.098 Y182.592
G1 Z0.200
G1 E0.80000 F2100.000
;TYPE:Perimeter
G1 F1200.000
G1 X23.098 Y135.567 E1.47446
G1 X70.124 Y135.567 E1.47446
G1 X70.124 Y182.592 E1.47446
G1 X23.158 Y182.592 E1.47258
G1 X22.721 Y182.969 F10800.000
;TYPE:External perimeter
G1 F1200.000
G1 X22.721 Y135.189 E1.49811
G1 X70.501 Y135.189 E1.49811
G1 X70.501 Y182.969 E1.49811
G1 X22.781 Y182.969 E1.49623
G1 X22.825 Y182.583 F10800.000
;WIPE_START
G1 F8640.000
G1 X22.777 Y179.678 E-0.76000
;WIPE_END
G1 E-0.04000 F2100.000
G1 Z0.600 F10800.000
G1 X69.246 Y135.680
G1 Z0.200
G1 E0.80000 F2100.000
;TYPE:Solid infill
;WIDTH:0.421422
G1 F1200.000
G1 X69.841 Y136.275 E0.02651
G1 X69.841 Y136.811 E0.01685
G1 X68.880 Y135.849 E0.04278
G1 X68.345 Y135.849 E0.01685
G1 X69.841 Y137.346 E0.06661
G1 X69.841 Y137.881 E0.01685
G1 X67.809 Y135.849 E0.09043
G1 X67.274 Y135.849 E0.01685
G1 X69.841 Y138.416 E0.11426
G1 X69.841 Y138.952 E0.01685
G1 X66.739 Y135.849 E0.13808
G1 X66.204 Y135.849 E0.01685
G1 X69.841 Y139.487 E0.16191
G1 X69.841 Y140.022 E0.01685
G1 X65.668 Y135.849 E0.18573
G1 X65.133 Y135.849 E0.01685
G1 X69.841 Y140.558 E0.20956
G1 X69.841 Y141.093 E0.01685
G1 X64.598 Y135.849 E0.23338
M73 P0 R249
G1 X64.062 Y135.849 E0.01685
G1 X69.841 Y141.628 E0.25721
G1 X69.841 Y142.163 E0.01685
G1 X63.527 Y135.849 E0.28103
G1 X62.992 Y135.849 E0.01685
G1 X69.841 Y142.699 E0.30486
G1 X69.841 Y143.234 E0.01685
G1 X62.457 Y135.849 E0.32868
G1 X61.921 Y135.849 E0.01685
