; generated by PrusaSlicer 2.3.3+x64 on 2021-08-29 at 15:01:25 UTC

; 

; external perimeters extrusion width = 0.60mm
; perimeters extrusion width = 0.50mm
; infill extrusion width = 0.50mm
; solid infill extrusion width = 0.50mm
; top infill extrusion width = 0.45mm
; first layer extrusion width = 0.42mm

M73 P0 R174
M73 Q0 S174
M201 X1000 Y1000 Z200 E5000 ; sets maximum accelerations, mm/sec^2
M203 X200 Y200 Z12 E120 ; sets maximum feedrates, mm/sec
M204 P1250 R1250 T1250 ; sets acceleration (P, T) and retract acceleration (R), mm/sec^2
M205 X8.00 Y8.00 Z0.40 E4.50 ; sets the jerk limits, mm/sec
M205 S0 T0 ; sets the minimum extruding and travel feed rate, mm/sec
M107
;TYPE:Custom
M862.3 P "MK3S" ; printer model check
M862.1 P0.4 ; nozzle diameter check
M115 U3.10.0 ; tell printer latest fw version
G90 ; use absolute coordinates
M83 ; extruder relative mode
M104 S215 ; set extruder temp
M140 S65 ; set bed temp
M190 S65 ; wait for bed temp
M109 S215 ; wait for extruder temp
G28 W ; home all without mesh bed level
G80 ; mesh bed leveling
G1 Y-3.0 F1000.0 ; go outside print area
G92 E0.0
G1 X60.0 E9.0 F1000.0 ; intro line
G1 X100.0 E12.5 F1000.0 ; intro line
G92 E0.0
M221 S95

; Don't change E values below. Excessive value can damage the printer.

M907 E538 ; set extruder motor current
G21 ; set units to millimeters
G90 ; use absolute coordinates
M83 ; use relative distances for extrusion
M900 K0.05 ; Filament gcode LA 1.5
M900 K30 ; Filament gcode LA 1.0
;LAYER_CHANGE
;Z:0.2
;HEIGHT:0.2
;BEFORE_LAYER_CHANGE
G92 E0.0
;0.2


G1 E-0.80000 F2100.000
G1 Z0.400 F10800.000
;AFTER_LAYER_CHANGE
;0.2
G1 X49.041 Y78.328
G1 Z0.200
G1 E0.80000 F2100.000
M204 S1000
;TYPE:Skirt
;WIDTH:0.42
G1 F1200.000
G1 X49.961 Y78.109 E0.02966
G1 X115.381 Y76.039 E2.05222
G1 X163.934 Y76.039 E1.52232
G1 X164.832 Y76.217 E0.02872
G1 X165.597 Y76.721 E0.02872
G1 X166.114 Y77.477 E0.02872
G1 X166.306 Y78.373 E0.02872
G1 X166.306 Y126.981 E1.52406
G1 X166.198 Y127.628 E0.02060
G1 X165.916 Y128.222 E0.02060
G1 X165.483 Y128.716 E0.02060
G1 X164.931 Y129.072 E0.02060
G1 X164.011 Y129.292 E0.02966
G1 X98.561 Y131.361 E2.05317
M73 P0 R173
G1 X49.978 Y131.360 E1.52328
G1 X49.330 Y131.252 E0.02060
G1 X48.737 Y130.970 E0.02060
G1 X48.243 Y130.537 E0.02060
G1 X47.887 Y129.985 E0.02060
G1 X47.722 Y129.499 E0.01609
G1 X47.665 Y128.993 E0.01597
G1 X47.666 Y80.431 E1.52263
G1 X47.773 Y79.779 E0.02071
G1 X48.054 Y79.181 E0.02071
G1 X48.487 Y78.687 E0.02060
G1 X48.991 Y78.361 E0.01883
; printing object box_2021-08-29_07h59m.stl id:1 copy 0
;WIPE_START
G1 F8640.000
G1 X49.961 Y78.109 E-0.23152
G1 X52.249 Y78.036 E-0.52848
;WIPE_END
G1 E-0.04000 F2100.000
G1 Z0.600 F10800.000
G1 X50.830 Y81.271
G1 Z0.200
G1 E0.80000 F2100.000
;TYPE:Perimeter
G1 F1200.000
G1 X97.755 Y81.271 E1.47133
G1 X97.755 Y128.197 E1.47133
G1 X50.830 Y128.197 E1.47133
G1 X50.830 Y81.331 E1.46945
G1 X50.453 Y80.894 F10800.000
;TYPE:External perimeter
G1 F1200.000
G1 X98.133 Y80.894 E1.49497
G1 X98.133 Y128.574 E1.49497
G1 X50.453 Y128.574 E1.49497
G1 X50.453 Y80.954 E1.49309
M73 Q0 S173
G1 X50.839 Y80.998 F10800.000
;WIPE_START
G1 F8640.000
G1 X53.744 Y80.950 E-0.76000
;WIPE_END
G1 E-0.04000 F2100.000
G1 Z0.600 F10800.000
G1 X96.879 Y81.384
G1 Z0.200
G1 E0.80000 F2100.000
;TYPE:Solid infill
;WIDTH:0.420614
G1 F1200.000
G1 X97.473 Y81.978 E0.02638
G1 X97.473 Y82.513 E0.01677
G1 X96.514 Y81.554 E0.04256
G1 X95.980 Y81.554 E0.01677
G1 X97.473 Y83.047 E0.06629
G1 X97.473 Y83.581 E0.01677
G1 X95.446 Y81.554 E0.09001
G1 X94.912 Y81.554 E0.01677
G1 X97.473 Y84.115 E0.11373
G1 X97.473 Y84.649 E0.01677
G1 X94.378 Y81.554 E0.13746
G1 X93.844 Y81.554 E0.01677
G1 X97.473 Y85.183 E0.16118
G1 X97.473 Y85.717 E0.01677
G1 X93.309 Y81.554 E0.18490
G1 X92.775 Y81.554 E0.01677
G1 X97.473 Y86.251 E0.20863
G1 X97.473 Y86.786 E0.01677
G1 X92.241 Y81.554 E0.23235
G1 X91.707 Y81.554 E0.01677
G1 X97.473 Y87.320 E0.25607
G1 X97.473 Y87.854 E0.01677
G1 X91.173 Y81.554 E0.27980
G1 X90.639 Y81.554 E0.01677
G1 X97.473 Y88.388 E0.30352
G1 X97.473 Y88.922 E0.01677
G1 X90.105 Y81.554 E0.32724
G1 X89.570 Y81.554 E0.01677
G1 X97.473 Y89.456 E0.35097
G1 X97.473 Y89.990 E0.01677
G1 X89.036 Y81.554 E0.37469
G1 X88.502 Y81.554 E0.01677
G1 X97.473 Y90.525 E0.39841
G1 X97.473 Y91.059 E0.01677
G1 X87.968 Y81.554 E0.42214
G1 X87.434 Y81.554 E0.01677
G1 X97.473 Y91.593 E0.44586
G1 X97.473 Y92.127 E0.01677
G1 X86.900 Y81.554 E0.46958
G1 X86.366 Y81.554 E0.01677
G1 X97.473 Y92.661 E0.49331
G1 X97.473 Y93.195 E0.01677
G1 X85.832 Y81.554 E0.51703
G1 X85.297 Y81.554 E0.01677
G1 X97.473 Y93.729 E0.54075
G1 X97.473 Y94.264 E0.01677
G1 X84.763 Y81.554 E0.56448
G1 X84.229 Y81.554 E0.01677
G1 X97.473 Y94.798 E0.58820
G1 X97.473 Y95.332 E0.01677
G1 X83.695 Y81.554 E0.61192
G1 X83.161 Y81.554 E0.01677
G1 X97.473 Y95.866 E0.63565
G1 X97.473 Y96.400 E0.01677
G1 X82.627 Y81.554 E0.65937
G1 X82.093 Y81.554 E0.01677
G1 X97.473 Y96.934 E0.68309
G1 X97.473 Y97.468 E0.01677
G1 X81.558 Y81.554 E0.70681
G1 X81.024 Y81.554 E0.01677
G1 X97.473 Y98.003 E0.73054
G1 X97.473 Y98.537 E0.01677
G1 X80.490 Y81.554 E0.75426
G1 X79.956 Y81.554 E0.01677
G1 X97.473 Y99.071 E0.77798
G1 X97.473 Y99.605 E0.01677
G1 X79.422 Y81.554 E0.80171
G1 X78.888 Y81.554 E0.01677
G1 X97.473 Y100.139 E0.82543
G1 X97.473 Y100.673 E0.01677
G1 X78.354 Y81.554 E0.84915
G1 X77.819 Y81.554 E0.01677
G1 X97.473 Y101.207 E0.87288
G1 X97.473 Y101.742 E0.01677
G1 X77.285 Y81.554 E0.89660
G1 X76.751 Y81.554 E0.01677
G1 X97.473 Y102.276 E0.92032
G1 X97.473 Y102.810 E0.01677
G1 X76.217 Y81.554 E0.94405
G1 X75.683 Y81.554 E0.01677
G1 X97.473 Y103.344 E0.96777
G1 X97.473 Y103.878 E0.01677
G1 X75.149 Y81.554 E0.99149
M73 P0 R172
G1 X74.615 Y81.554 E0.01677
G1 X97.473 Y104.412 E1.01522
G1 X97.473 Y104.946 E0.01677
G1 X74.080 Y81.554 E1.03894
G1 X73.546 Y81.554 E0.01677
G1 X97.473 Y105.481 E1.06266
G1 X97.473 Y106.015 E0.01677
G1 X73.012 Y81.554 E1.08639
G1 X72.478 Y81.554 E0.01677
G1 X97.473 Y106.549 E1.11011
G1 X97.473 Y107.083 E0.01677
G1 X71.944 Y81.554 E1.13383
G1 X71.410 Y81.554 E0.01677
G1 X97.473 Y107.617 E1.15756
G1 X97.473 Y108.151 E0.01677
G1 X70.876 Y81.554 E1.18128
G1 X70.341 Y81.554 E0.01677
G1 X97.473 Y108.685 E1.20500
G1 X97.473 Y109.220 E0.01677
G1 X69.807 Y81.554 E1.22873
G1 X69.273 Y81.554 E0.01677
G1 X97.473 Y109.754 E1.25245
G1 X97.473 Y110.288 E0.01677
G1 X68.739 Y81.554 E1.27617
G1 X68.205 Y81.554 E0.01677
G1 X97.473 Y110.822 E1.29990
M73 Q0 S172
G1 X97.473 Y111.356 E0.01677
G1 X67.671 Y81.554 E1.32362
M73 P1 R172
M73 Q1 S172
G1 X67.137 Y81.554 E0.01677
G1 X97.473 Y111.890 E1.34734
G1 X97.473 Y112.424 E0.01677
G1 X66.602 Y81.554 E1.37107
G1 X66.068 Y81.554 E0.01677
G1 X97.473 Y112.958 E1.39479
G1 X97.473 Y113.493 E0.01677
G1 X65.534 Y81.554 E1.41851
G1 X65.000 Y81.554 E0.01677
G1 X97.473 Y114.027 E1.44224
G1 X97.473 Y114.561 E0.01677
G1 X64.466 Y81.554 E1.46596
G1 X63.932 Y81.554 E0.01677
G1 X97.473 Y115.095 E1.48968
G1 X97.473 Y115.629 E0.01677
G1 X63.398 Y81.554 E1.51341
G1 X62.863 Y81.554 E0.01677
G1 X97.473 Y116.163 E1.53713
G1 X97.473 Y116.697 E0.01677
G1 X62.329 Y81.554 E1.56085
G1 X61.795 Y81.554 E0.01677
G1 X97.473 Y117.232 E1.58458
G1 X97.473 Y117.766 E0.01677
G1 X61.261 Y81.554 E1.60830
G1 X60.727 Y81.554 E0.01677
G1 X97.473 Y118.300 E1.63202
G1 X97.473 Y118.834 E0.01677
G1 X60.193 Y81.554 E1.65574
M73 P1 R171
G1 X59.659 Y81.554 E0.01677
G1 X97.473 Y119.368 E1.67947
G1 X97.473 Y119.902 E0.01677
G1 X59.125 Y81.554 E1.70319
G1 X58.590 Y81.554 E0.01677
G1 X97.473 Y120.436 E1.72691
G1 X97.473 Y120.971 E0.01677
G1 X58.056 Y81.554 E1.75064
G1 X57.522 Y81.554 E0.01677
G1 X97.473 Y121.505 E1.77436
G1 X97.473 Y122.039 E0.01677
G1 X56.988 Y81.554 E1.79808
G1 X56.454 Y81.554 E0.01677
G1 X97.473 Y122.573 E1.82181
G1 X97.473 Y123.107 E0.01677
G1 X55.920 Y81.554 E1.84553
G1 X55.386 Y81.554 E0.01677
G1 X97.473 Y123.641 E1.86925
M73 Q1 S171
G1 X97.473 Y124.175 E0.01677
G1 X54.851 Y81.554 E1.89298
G1 X54.317 Y81.554 E0.01677
G1 X97.473 Y124.710 E1.91670
G1 X97.473 Y125.244 E0.01677
G1 X53.783 Y81.554 E1.94042
G1 X53.249 Y81.554 E0.01677
G1 X97.473 Y125.778 E1.96415
G1 X97.473 Y126.312 E0.01677
G1 X52.715 Y81.554 E1.98787
G1 X52.181 Y81.554 E0.01677
G1 X97.473 Y126.846 E2.01159
G1 X97.473 Y127.380 E0.01677
G1 X51.647 Y81.554 E2.03532
G1 X51.112 Y81.554 E0.01677
G1 X97.473 Y127.914 E2.05904
G1 X96.939 Y127.914 E0.01677
G1 X51.112 Y82.088 E2.03532
G1 X51.112 Y82.622 E0.01677
G1 X96.404 Y127.914 E2.01159
G1 X95.870 Y127.914 E0.01677
G1 X51.112 Y83.157 E1.98787
M73 P1 R170
G1 X51.112 Y83.691 E0.01677
G1 X95.336 Y127.914 E1.96415
G1 X94.802 Y127.914 E0.01677
G1 X51.112 Y84.225 E1.94042
G1 X51.112 Y84.759 E0.01677
G1 X94.268 Y127.914 E1.91670
M73 P2 R170
M73 Q2 S171
G1 X93.734 Y127.914 E0.01677
G1 X51.112 Y85.293 E1.89298
G1 X51.112 Y85.827 E0.01677
G1 X93.200 Y127.914 E1.86925
G1 X92.665 Y127.914 E0.01677
G1 X51.112 Y86.361 E1.84553
G1 X51.112 Y86.896 E0.01677
G1 X92.131 Y127.914 E1.82181
G1 X91.597 Y127.914 E0.01677
G1 X51.112 Y87.430 E1.79808
M73 Q2 S170
G1 X51.112 Y87.964 E0.01677
G1 X91.063 Y127.914 E1.77436
G1 X90.529 Y127.914 E0.01677
G1 X51.112 Y88.498 E1.75064
G1 X51.112 Y89.032 E0.01677
G1 X89.995 Y127.914 E1.72692
G1 X89.461 Y127.914 E0.01677
G1 X51.112 Y89.566 E1.70319
G1 X51.112 Y90.100 E0.01677
G1 X88.926 Y127.914 E1.67947
G1 X88.392 Y127.914 E0.01677
G1 X51.112 Y90.635 E1.65575
G1 X51.112 Y91.169 E0.01677
G1 X87.858 Y127.914 E1.63202
G1 X87.324 Y127.914 E0.01677
G1 X51.112 Y91.703 E1.60830
G1 X51.112 Y92.237 E0.01677
G1 X86.790 Y127.914 E1.58458
G1 X86.256 Y127.914 E0.01677
G1 X51.112 Y92.771 E1.56085
G1 X51.112 Y93.305 E0.01677
G1 X85.722 Y127.914 E1.53713
G1 X85.187 Y127.914 E0.01677
G1 X51.112 Y93.839 E1.51341
G1 X51.112 Y94.374 E0.01677
G1 X84.653 Y127.914 E1.48968
M73 P2 R169
G1 X84.119 Y127.914 E0.01677
G1 X51.112 Y94.908 E1.46596
G1 X51.112 Y95.442 E0.01677
G1 X83.585 Y127.914 E1.44224
G1 X83.051 Y127.914 E0.01677
G1 X51.112 Y95.976 E1.41851
G1 X51.112 Y96.510 E0.01677
G1 X82.517 Y127.914 E1.39479
G1 X81.983 Y127.914 E0.01677
G1 X51.112 Y97.044 E1.37107
G1 X51.112 Y97.578 E0.01677
G1 X81.448 Y127.914 E1.34734
G1 X80.914 Y127.914 E0.01677
G1 X51.112 Y98.113 E1.32362
G1 X51.112 Y98.647 E0.01677
G1 X80.380 Y127.914 E1.29990
G1 X79.846 Y127.914 E0.01677
G1 X51.112 Y99.181 E1.27617
G1 X51.112 Y99.715 E0.01677
G1 X79.312 Y127.914 E1.25245
G1 X78.778 Y127.914 E0.01677
G1 X51.112 Y100.249 E1.22873
M73 Q2 S169
G1 X51.112 Y100.783 E0.01677
G1 X78.244 Y127.914 E1.20500
G1 X77.709 Y127.914 E0.01677
G1 X51.112 Y101.317 E1.18128
G1 X51.112 Y101.851 E0.01677
G1 X77.175 Y127.914 E1.15756
G1 X76.641 Y127.914 E0.01677
G1 X51.112 Y102.386 E1.13383
G1 X51.112 Y102.920 E0.01677
G1 X76.107 Y127.914 E1.11011
G1 X75.573 Y127.914 E0.01677
G1 X51.112 Y103.454 E1.08639
G1 X51.112 Y103.988 E0.01677
G1 X75.039 Y127.914 E1.06266
G1 X74.505 Y127.914 E0.01677
G1 X51.112 Y104.522 E1.03894
G1 X51.112 Y105.056 E0.01677
G1 X73.970 Y127.914 E1.01522
G1 X73.436 Y127.914 E0.01677
G1 X51.112 Y105.590 E0.99149
G1 X51.112 Y106.125 E0.01677
G1 X72.902 Y127.914 E0.96777
G1 X72.368 Y127.914 E0.01677
G1 X51.112 Y106.659 E0.94405
G1 X51.112 Y107.193 E0.01677
G1 X71.834 Y127.914 E0.92032
G1 X71.300 Y127.914 E0.01677
G1 X51.112 Y107.727 E0.89660
G1 X51.112 Y108.261 E0.01677
G1 X70.766 Y127.914 E0.87288
G1 X70.232 Y127.914 E0.01677
G1 X51.112 Y108.795 E0.84915
G1 X51.112 Y109.329 E0.01677
G1 X69.697 Y127.914 E0.82543
G1 X69.163 Y127.914 E0.01677
G1 X51.112 Y109.864 E0.80171
M73 P3 R169
G1 X51.112 Y110.398 E0.01677
G1 X68.629 Y127.914 E0.77798
M73 Q3 S169
G1 X68.095 Y127.914 E0.01677
G1 X51.112 Y110.932 E0.75426
G1 X51.112 Y111.466 E0.01677
G1 X67.561 Y127.914 E0.73054
G1 X67.027 Y127.914 E0.01677
G1 X51.112 Y112.000 E0.70682
G1 X51.112 Y112.534 E0.01677
G1 X66.493 Y127.914 E0.68309
M73 P3 R168
G1 X65.958 Y127.914 E0.01677
G1 X51.112 Y113.068 E0.65937
G1 X51.112 Y113.603 E0.01677
G1 X65.424 Y127.914 E0.63565
G1 X64.890 Y127.914 E0.01677
G1 X51.112 Y114.137 E0.61192
G1 X51.112 Y114.671 E0.01677
G1 X64.356 Y127.914 E0.58820
G1 X63.822 Y127.914 E0.01677
G1 X51.112 Y115.205 E0.56448
G1 X51.112 Y115.739 E0.01677
G1 X63.288 Y127.914 E0.54075
G1 X62.754 Y127.914 E0.01677
G1 X51.112 Y116.273 E0.51703
G1 X51.112 Y116.807 E0.01677
G1 X62.219 Y127.914 E0.49331
G1 X61.685 Y127.914 E0.01677
G1 X51.112 Y117.342 E0.46958
G1 X51.112 Y117.876 E0.01677
G1 X61.151 Y127.914 E0.44586
G1 X60.617 Y127.914 E0.01677
G1 X51.112 Y118.410 E0.42214
G1 X51.112 Y118.944 E0.01677
G1 X60.083 Y127.914 E0.39841
G1 X59.549 Y127.914 E0.01677
G1 X51.112 Y119.478 E0.37469
G1 X51.112 Y120.012 E0.01677
G1 X59.015 Y127.914 E0.35097
G1 X58.480 Y127.914 E0.01677
G1 X51.112 Y120.546 E0.32724
G1 X51.112 Y121.081 E0.01677
G1 X57.946 Y127.914 E0.30352
G1 X57.412 Y127.914 E0.01677
G1 X51.112 Y121.615 E0.27980
G1 X51.112 Y122.149 E0.01677
G1 X56.878 Y127.914 E0.25607
G1 X56.344 Y127.914 E0.01677
G1 X51.112 Y122.683 E0.23235
G1 X51.112 Y123.217 E0.01677
G1 X55.810 Y127.914 E0.20863
G1 X55.276 Y127.914 E0.01677
G1 X51.112 Y123.751 E0.18490
G1 X51.112 Y124.285 E0.01677
G1 X54.741 Y127.914 E0.16118
G1 X54.207 Y127.914 E0.01677
G1 X51.112 Y124.820 E0.13746
G1 X51.112 Y125.354 E0.01677
G1 X53.673 Y127.914 E0.11373
G1 X53.139 Y127.914 E0.01677
G1 X51.112 Y125.888 E0.09001
G1 X51.112 Y126.422 E0.01677
G1 X52.605 Y127.914 E0.06629
G1 X52.071 Y127.914 E0.01677
G1 X51.112 Y126.956 E0.04256
G1 X51.112 Y127.490 E0.01677
G1 X51.706 Y128.084 E0.02638
; stop printing object box_2021-08-29_07h59m.stl id:1 copy 0
; printing object box_2021-08-29_07h59m.stl id:0 copy 0
;WIPE_START
G1 F8640.000
G1 X51.112 Y127.490 E-0.19393
G1 X51.112 Y126.956 E-0.12333
G1 X52.071 Y127.914 E-0.31295
G1 X52.605 Y127.914 E-0.12333
G1 X52.585 Y127.895 E-0.00645
;WIPE_END
G1 E-0.04000 F2100.000
G1 Z0.600 F10800.000
G1 X116.217 Y126.129
G1 Z0.200
G1 E0.80000 F2100.000
;TYPE:Perimeter
;WIDTH:0.42
G1 F1200.000
G1 X116.217 Y79.203 E1.47133
G1 X163.143 Y79.203 E1.47133
G1 X163.143 Y126.129 E1.47133
M73 Q3 S168
G1 X116.277 Y126.129 E1.46945
G1 X115.840 Y126.506 F10800.000
;TYPE:External perimeter
G1 F1200.000
G1 X115.840 Y78.826 E1.49497
G1 X163.520 Y78.826 E1.49497
G1 X163.520 Y126.506 E1.49497
G1 X115.900 Y126.506 E1.49309
G1 X115.943 Y126.120 F10800.000
;WIPE_START
G1 F8640.000
G1 X115.896 Y123.214 E-0.76000
;WIPE_END
G1 E-0.04000 F2100.000
G1 Z0.600 F10800.000
G1 X162.266 Y79.316
G1 Z0.200
G1 E0.80000 F2100.000
;TYPE:Solid infill
;WIDTH:0.420614
G1 F1200.000
G1 X162.860 Y79.910 E0.02638
G1 X162.860 Y80.444 E0.01677
G1 X161.902 Y79.486 E0.04256
G1 X161.367 Y79.486 E0.01677
G1 X162.860 Y80.978 E0.06629
G1 X162.860 Y81.512 E0.01677
G1 X160.833 Y79.486 E0.09001
G1 X160.299 Y79.486 E0.01677
G1 X162.860 Y82.047 E0.11373
G1 X162.860 Y82.581 E0.01677
G1 X159.765 Y79.486 E0.13746
G1 X159.231 Y79.486 E0.01677
G1 X162.860 Y83.115 E0.16118
G1 X162.860 Y83.649 E0.01677
G1 X158.697 Y79.486 E0.18490
G1 X158.163 Y79.486 E0.01677
G1 X162.860 Y84.183 E0.20863
G1 X162.860 Y84.717 E0.01677
G1 X157.628 Y79.486 E0.23235
G1 X157.094 Y79.486 E0.01677
G1 X162.860 Y85.251 E0.25607
G1 X162.860 Y85.785 E0.01677
G1 X156.560 Y79.486 E0.27980
G1 X156.026 Y79.486 E0.01677
G1 X162.860 Y86.320 E0.30352
G1 X162.860 Y86.854 E0.01677
G1 X155.492 Y79.486 E0.32724
G1 X154.958 Y79.486 E0.01677
G1 X162.860 Y87.388 E0.35097
G1 X162.860 Y87.922 E0.01677
G1 X154.424 Y79.486 E0.37469
G1 X153.889 Y79.486 E0.01677
G1 X162.860 Y88.456 E0.39841
G1 X162.860 Y88.990 E0.01677
G1 X153.355 Y79.486 E0.42214
G1 X152.821 Y79.486 E0.01677
G1 X162.860 Y89.524 E0.44586
G1 X162.860 Y90.059 E0.01677
G1 X152.287 Y79.486 E0.46958
G1 X151.753 Y79.486 E0.01677
G1 X162.860 Y90.593 E0.49331
G1 X162.860 Y91.127 E0.01677
G1 X151.219 Y79.486 E0.51703
G1 X150.685 Y79.486 E0.01677
G1 X162.860 Y91.661 E0.54075
G1 X162.860 Y92.195 E0.01677
G1 X150.151 Y79.486 E0.56448
G1 X149.616 Y79.486 E0.01677
G1 X162.860 Y92.729 E0.58820
G1 X162.860 Y93.263 E0.01677
G1 X149.082 Y79.486 E0.61192
G1 X148.548 Y79.486 E0.01677
G1 X162.860 Y93.798 E0.63565
G1 X162.860 Y94.332 E0.01677
G1 X148.014 Y79.486 E0.65937
G1 X147.480 Y79.486 E0.01677
G1 X162.860 Y94.866 E0.68309
