; generated by PrusaSlicer 2.3.3+x64 on 2021-08-31 at 03:48:20 UTC

; 

; external perimeters extrusion width = 0.60mm
; perimeters extrusion width = 0.50mm
; infill extrusion width = 0.50mm
; solid infill extrusion width = 0.50mm
; top infill extrusion width = 0.45mm
; first layer extrusion width = 0.42mm

M73 P0 R48
M73 Q0 S49
M201 X1000 Y1000 Z200 E5000 ; sets maximum accelerations, mm/sec^2
M203 X200 Y200 Z12 E120 ; sets maximum feedrates, mm/sec
M204 P1250 R1250 T1250 ; sets acceleration (P, T) and retract acceleration (R), mm/sec^2
M205 X8.00 Y8.00 Z0.40 E4.50 ; sets the jerk limits, mm/sec
M205 S0 T0 ; sets the minimum extruding and travel feed rate, mm/sec
M107
;TYPE:Custom
M862.3 P "MK3S" ; printer model check
M862.1 P0.4 ; nozzle diameter check
M115 U3.10.0 ; tell printer latest fw version
G90 ; use absolute coordinates
M83 ; extruder relative mode
M104 S215 ; set extruder temp
M140 S65 ; set bed temp
M190 S65 ; wait for bed temp
M109 S215 ; wait for extruder temp
G28 W ; home all without mesh bed level
G80 ; mesh bed leveling
G1 Y-3.0 F1000.0 ; go outside print area
G92 E0.0
G1 X60.0 E9.0 F1000.0 ; intro line
G1 X100.0 E12.5 F1000.0 ; intro line
G92 E0.0
M221 S95

; Don't change E values below. Excessive value can damage the printer.

M907 E538 ; set extruder motor current
G21 ; set units to millimeters
G90 ; use absolute coordinates
M83 ; use relative distances for extrusion
M900 K0.05 ; Filament gcode LA 1.5
M900 K30 ; Filament gcode LA 1.0
;LAYER_CHANGE
;Z:0.2
;HEIGHT:0.2
;BEFORE_LAYER_CHANGE
G92 E0.0
;0.2


G1 E-0.80000 F2100.000
G1 Z0.400 F10800.000
;AFTER_LAYER_CHANGE
;0.2
G1 X10.027 Y32.607
G1 Z0.200
G1 E0.80000 F2100.000
M204 S1000
;TYPE:Skirt
;WIDTH:0.42
G1 F1200.000
G1 X10.328 Y31.977 E0.02190
G1 X10.701 Y31.546 E0.01787
G1 X11.166 Y31.216 E0.01787
G1 X11.696 Y31.006 E0.01787
G1 X12.260 Y30.928 E0.01787
G1 X70.866 Y30.107 E1.83771
G1 X123.388 Y30.107 E1.64679
G1 X180.526 Y30.317 E1.79155
G1 X238.365 Y31.208 E1.81369
G1 X238.922 Y31.285 E0.01763
G1 X239.445 Y31.491 E0.01763
G1 X239.906 Y31.814 E0.01763
G1 X240.277 Y32.236 E0.01763
G1 X240.590 Y32.877 E0.02237
G1 X240.697 Y33.579 E0.02225
G1 X240.697 Y196.593 E5.11119
M73 Q0 S48
G1 X240.627 Y197.158 E0.01787
G1 X240.424 Y197.691 E0.01787
G1 X240.101 Y198.160 E0.01787
G1 X239.671 Y198.541 E0.01799
G1 X239.027 Y198.855 E0.02249
G1 X238.320 Y198.962 E0.02240
G1 X185.816 Y198.962 E1.64622
M73 P1 R48
M73 Q1 S48
G1 X12.292 Y198.682 E5.44075
G1 X11.726 Y198.612 E0.01787
G1 X11.194 Y198.409 E0.01787
G1 X10.722 Y198.083 E0.01799
G1 X10.344 Y197.656 E0.01787
G1 X10.030 Y197.012 E0.02249
G1 X9.923 Y196.305 E0.02240
G1 X9.923 Y33.298 E5.11099
G1 X10.018 Y32.667 E0.02001
; printing object 3x1_grid.stl id:3 copy 0
;WIPE_START
G1 F8640.000
G1 X10.328 Y31.977 E-0.17455
G1 X10.701 Y31.546 E-0.13161
G1 X11.166 Y31.216 E-0.13161
G1 X11.696 Y31.006 E-0.13161
G1 X12.260 Y30.928 E-0.13161
G1 X12.516 Y30.925 E-0.05902
;WIPE_END
G1 E-0.04000 F2100.000
G1 Z0.600 F10800.000
G1 X13.513 Y139.518
G1 Z0.200
G1 E0.80000 F2100.000
;TYPE:Perimeter
G1 F1200.000
G1 X63.587 Y139.518 E1.57004
M73 P1 R47
G1 X63.587 Y189.592 E1.57003
G1 X13.513 Y189.592 E1.57004
G1 X13.513 Y139.578 E1.56815
G1 X13.890 Y139.896 F10800.000
;TYPE:External perimeter
M73 Q2 S48
G1 F1200.000
G1 X63.210 Y139.896 E1.54639
M73 P2 R47
G1 X63.210 Y189.215 E1.54639
G1 X13.890 Y189.215 E1.54639
G1 X13.890 Y139.956 E1.54450
G1 X13.786 Y139.509 F10800.000
;WIPE_START
G1 F8640.000
G1 X17.181 Y139.952 E-0.76000
;WIPE_END
G1 E-0.04000 F2100.000
G1 Z0.600 F10800.000
G1 X13.513 Y87.018
G1 Z0.200
G1 E0.80000 F2100.000
;TYPE:Perimeter
G1 F1200.000
G1 X63.587 Y87.018 E1.57004
G1 X63.587 Y137.093 E1.57004
G1 X13.513 Y137.093 E1.57004
G1 X13.513 Y87.078 E1.56816
G1 X13.890 Y87.395 F10800.000
;TYPE:External perimeter
G1 F1200.000
G1 X63.210 Y87.395 E1.54639
M73 Q2 S47
G1 X63.210 Y136.716 E1.54640
G1 X13.890 Y136.716 E1.54639
G1 X13.890 Y87.455 E1.54451
M73 P3 R47
M73 Q3 S47
G1 X13.786 Y87.009 F10800.000
;WIPE_START
G1 F8640.000
G1 X17.181 Y87.451 E-0.76000
;WIPE_END
G1 E-0.04000 F2100.000
G1 Z0.600 F10800.000
G1 X13.513 Y34.518
G1 Z0.200
G1 E0.80000 F2100.000
;TYPE:Perimeter
G1 F1200.000
G1 X63.587 Y34.518 E1.57004
G1 X63.587 Y84.593 E1.57005
G1 X13.513 Y84.593 E1.57004
G1 X13.513 Y34.578 E1.56817
G1 X13.890 Y34.895 F10800.000
;TYPE:External perimeter
G1 F1200.000
G1 X63.210 Y34.895 E1.54639
G1 X63.210 Y84.215 E1.54640
G1 X13.890 Y84.215 E1.54639
G1 X13.890 Y34.955 E1.54452
M73 P3 R46
G1 X13.786 Y34.509 F10800.000
;WIPE_START
G1 F8640.000
G1 X17.181 Y34.951 E-0.76000
;WIPE_END
G1 E-0.04000 F2100.000
G1 Z0.600 F10800.000
G1 X13.087 Y34.092
G1 Z0.200
G1 E0.80000 F2100.000
;TYPE:Perimeter
G1 F1200.000
G1 X64.013 Y34.092 E1.59674
G1 X64.013 Y195.518 E5.06139
M73 P4 R46
M73 Q4 S47
G1 X13.087 Y195.518 E1.59674
G1 X13.087 Y34.152 E5.05951
G1 X12.710 Y33.715 F10800.000
;TYPE:External perimeter
G1 F1200.000
G1 X64.390 Y33.715 E1.62039
G1 X64.390 Y195.895 E5.08504
M73 Q4 S46
G1 X12.710 Y195.895 E1.62039
G1 X12.710 Y33.775 E5.08316
M73 P5 R46
M73 Q5 S46
G1 X13.075 Y33.879 F10800.000
;WIPE_START
G1 F8640.000
G1 X16.001 Y33.771 E-0.76000
;WIPE_END
G1 E-0.04000 F2100.000
G1 Z0.600 F10800.000
G1 X63.899 Y85.159
G1 Z0.200
G1 E0.80000 F2100.000
;TYPE:Solid infill
;WIDTH:0.420473
G1 F1200.000
G1 X63.616 Y84.875 E0.01260
G1 X63.082 Y84.875 E0.01676
G1 X63.730 Y85.523 E0.02877
G1 X63.730 Y86.057 E0.01676
G1 X62.548 Y84.875 E0.05248
G1 X62.014 Y84.875 E0.01676
G1 X63.730 Y86.591 E0.07618
G1 X63.730 Y86.736 E0.00453
G1 X63.340 Y86.736 E0.01223
G1 X61.480 Y84.875 E0.08259
G1 X60.946 Y84.875 E0.01676
G1 X62.806 Y86.736 E0.08259
G1 X62.272 Y86.736 E0.01676
G1 X60.412 Y84.875 E0.08259
G1 X59.878 Y84.875 E0.01676
G1 X61.738 Y86.736 E0.08259
G1 X61.204 Y86.736 E0.01676
G1 X59.344 Y84.875 E0.08259
G1 X58.810 Y84.875 E0.01676
G1 X60.670 Y86.736 E0.08259
G1 X60.136 Y86.736 E0.01676
G1 X58.276 Y84.875 E0.08259
G1 X57.742 Y84.875 E0.01676
G1 X59.603 Y86.736 E0.08259
G1 X59.069 Y86.736 E0.01676
G1 X57.208 Y84.875 E0.08259
G1 X56.674 Y84.875 E0.01676
G1 X58.535 Y86.736 E0.08259
G1 X58.001 Y86.736 E0.01676
G1 X56.140 Y84.875 E0.08259
G1 X55.607 Y84.875 E0.01676
G1 X57.467 Y86.736 E0.08259
G1 X56.933 Y86.736 E0.01676
G1 X55.073 Y84.875 E0.08259
G1 X54.539 Y84.875 E0.01676
G1 X56.399 Y86.736 E0.08259
G1 X55.865 Y86.736 E0.01676
G1 X54.005 Y84.875 E0.08259
G1 X53.471 Y84.875 E0.01676
G1 X55.331 Y86.736 E0.08259
G1 X54.797 Y86.736 E0.01676
G1 X52.937 Y84.875 E0.08259
G1 X52.403 Y84.875 E0.01676
G1 X54.263 Y86.736 E0.08259
G1 X53.729 Y86.736 E0.01676
G1 X51.869 Y84.875 E0.08259
G1 X51.335 Y84.875 E0.01676
G1 X53.195 Y86.736 E0.08259
G1 X52.661 Y86.736 E0.01676
G1 X50.801 Y84.875 E0.08259
G1 X50.267 Y84.875 E0.01676
G1 X52.127 Y86.736 E0.08259
G1 X51.593 Y86.736 E0.01676
G1 X49.733 Y84.875 E0.08259
G1 X49.199 Y84.875 E0.01676
G1 X51.059 Y86.736 E0.08259
G1 X50.526 Y86.736 E0.01676
G1 X48.665 Y84.875 E0.08259
G1 X48.131 Y84.875 E0.01676
G1 X49.992 Y86.736 E0.08259
G1 X49.458 Y86.736 E0.01676
G1 X47.597 Y84.875 E0.08259
G1 X47.063 Y84.875 E0.01676
G1 X48.924 Y86.736 E0.08259
G1 X48.390 Y86.736 E0.01676
G1 X46.530 Y84.875 E0.08259
G1 X45.996 Y84.875 E0.01676
G1 X47.856 Y86.736 E0.08259
G1 X47.322 Y86.736 E0.01676
G1 X45.462 Y84.875 E0.08259
G1 X44.928 Y84.875 E0.01676
G1 X46.788 Y86.736 E0.08259
G1 X46.254 Y86.736 E0.01676
G1 X44.394 Y84.875 E0.08259
G1 X43.860 Y84.875 E0.01676
G1 X45.720 Y86.736 E0.08259
G1 X45.186 Y86.736 E0.01676
G1 X43.326 Y84.875 E0.08259
G1 X42.792 Y84.875 E0.01676
G1 X44.652 Y86.736 E0.08259
G1 X44.118 Y86.736 E0.01676
G1 X42.258 Y84.875 E0.08259
G1 X41.724 Y84.875 E0.01676
G1 X43.584 Y86.736 E0.08259
G1 X43.050 Y86.736 E0.01676
G1 X41.190 Y84.875 E0.08259
G1 X40.656 Y84.875 E0.01676
G1 X42.516 Y86.736 E0.08259
G1 X41.983 Y86.736 E0.01676
G1 X40.122 Y84.875 E0.08259
G1 X39.588 Y84.875 E0.01676
G1 X41.449 Y86.736 E0.08259
G1 X40.915 Y86.736 E0.01676
G1 X39.054 Y84.875 E0.08259
G1 X38.520 Y84.875 E0.01676
G1 X40.381 Y86.736 E0.08259
G1 X39.847 Y86.736 E0.01676
G1 X37.987 Y84.875 E0.08259
G1 X37.453 Y84.875 E0.01676
G1 X39.313 Y86.736 E0.08259
G1 X38.779 Y86.736 E0.01676
G1 X36.919 Y84.875 E0.08259
G1 X36.385 Y84.875 E0.01676
G1 X38.245 Y86.736 E0.08259
G1 X37.711 Y86.736 E0.01676
G1 X35.851 Y84.875 E0.08259
G1 X35.317 Y84.875 E0.01676
G1 X37.177 Y86.736 E0.08259
G1 X36.643 Y86.736 E0.01676
G1 X34.783 Y84.875 E0.08259
G1 X34.249 Y84.875 E0.01676
G1 X36.109 Y86.736 E0.08259
G1 X35.575 Y86.736 E0.01676
G1 X33.715 Y84.875 E0.08259
G1 X33.181 Y84.875 E0.01676
G1 X35.041 Y86.736 E0.08259
G1 X34.507 Y86.736 E0.01676
G1 X32.647 Y84.875 E0.08259
G1 X32.113 Y84.875 E0.01676
G1 X33.973 Y86.736 E0.08259
G1 X33.439 Y86.736 E0.01676
G1 X31.579 Y84.875 E0.08259
G1 X31.045 Y84.875 E0.01676
G1 X32.906 Y86.736 E0.08259
G1 X32.372 Y86.736 E0.01676
G1 X30.511 Y84.875 E0.08259
G1 X29.977 Y84.875 E0.01676
G1 X31.838 Y86.736 E0.08259
G1 X31.304 Y86.736 E0.01676
G1 X29.443 Y84.875 E0.08259
G1 X28.910 Y84.875 E0.01676
G1 X30.770 Y86.736 E0.08259
G1 X30.236 Y86.736 E0.01676
G1 X28.376 Y84.875 E0.08259
G1 X27.842 Y84.875 E0.01676
G1 X29.702 Y86.736 E0.08259
G1 X29.168 Y86.736 E0.01676
G1 X27.308 Y84.875 E0.08259
G1 X26.774 Y84.875 E0.01676
G1 X28.634 Y86.736 E0.08259
G1 X28.100 Y86.736 E0.01676
G1 X26.240 Y84.875 E0.08259
G1 X25.706 Y84.875 E0.01676
G1 X27.566 Y86.736 E0.08259
G1 X27.032 Y86.736 E0.01676
G1 X25.172 Y84.875 E0.08259
G1 X24.638 Y84.875 E0.01676
G1 X26.498 Y86.736 E0.08259
G1 X25.964 Y86.736 E0.01676
G1 X24.104 Y84.875 E0.08259
G1 X23.570 Y84.875 E0.01676
G1 X25.430 Y86.736 E0.08259
G1 X24.896 Y86.736 E0.01676
G1 X23.036 Y84.875 E0.08259
G1 X22.502 Y84.875 E0.01676
G1 X24.362 Y86.736 E0.08259
G1 X23.829 Y86.736 E0.01676
G1 X21.968 Y84.875 E0.08259
G1 X21.434 Y84.875 E0.01676
G1 X23.295 Y86.736 E0.08259
G1 X22.761 Y86.736 E0.01676
G1 X20.900 Y84.875 E0.08259
G1 X20.366 Y84.875 E0.01676
G1 X22.227 Y86.736 E0.08259
G1 X21.693 Y86.736 E0.01676
G1 X19.833 Y84.875 E0.08259
G1 X19.299 Y84.875 E0.01676
G1 X21.159 Y86.736 E0.08259
G1 X20.625 Y86.736 E0.01676
G1 X18.765 Y84.875 E0.08259
G1 X18.231 Y84.875 E0.01676
G1 X20.091 Y86.736 E0.08259
G1 X19.557 Y86.736 E0.01676
G1 X17.697 Y84.875 E0.08259
G1 X17.163 Y84.875 E0.01676
G1 X19.023 Y86.736 E0.08259
G1 X18.489 Y86.736 E0.01676
G1 X16.629 Y84.875 E0.08259
G1 X16.095 Y84.875 E0.01676
G1 X17.955 Y86.736 E0.08259
G1 X17.421 Y86.736 E0.01676
G1 X15.561 Y84.875 E0.08259
G1 X15.027 Y84.875 E0.01676
G1 X16.887 Y86.736 E0.08259
G1 X16.353 Y86.736 E0.01676
G1 X14.493 Y84.875 E0.08259
G1 X13.959 Y84.875 E0.01676
G1 X15.819 Y86.736 E0.08259
M73 P5 R45
G1 X15.285 Y86.736 E0.01676
G1 X13.425 Y84.875 E0.08259
G1 X13.370 Y84.875 E0.00175
G1 X13.370 Y85.354 E0.01501
G1 X14.752 Y86.736 E0.06136
G1 X14.218 Y86.736 E0.01676
G1 X13.370 Y85.887 E0.03765
G1 X13.370 Y86.421 E0.01676
G1 X13.853 Y86.905 E0.02148
;WIPE_START
G1 F8640.000
G1 X13.370 Y86.421 E-0.15800
G1 X13.370 Y85.887 E-0.12329
G1 X14.218 Y86.736 E-0.27694
G1 X14.752 Y86.736 E-0.12329
G1 X14.511 Y86.495 E-0.07849
;WIPE_END
G1 E-0.04000 F2100.000
G1 Z0.600 F10800.000
G1 X63.086 Y137.206
G1 Z0.200
G1 E0.80000 F2100.000
G1 F1200.000
G1 X63.730 Y137.850 E0.02859
G1 X63.730 Y138.383 E0.01676
G1 X62.722 Y137.375 E0.04476
G1 X62.188 Y137.375 E0.01676
G1 X63.730 Y138.917 E0.06846
G1 X63.730 Y139.236 E0.00999
G1 X63.514 Y139.236 E0.00677
G1 X61.654 Y137.375 E0.08259
G1 X61.120 Y137.375 E0.01676
G1 X62.980 Y139.236 E0.08259
G1 X62.446 Y139.236 E0.01676
G1 X60.586 Y137.375 E0.08259
G1 X60.052 Y137.375 E0.01676
G1 X61.912 Y139.236 E0.08259
G1 X61.378 Y139.236 E0.01676
G1 X59.518 Y137.375 E0.08259
G1 X58.984 Y137.375 E0.01676
G1 X60.844 Y139.236 E0.08259
G1 X60.310 Y139.236 E0.01676
G1 X58.450 Y137.375 E0.08259
G1 X57.916 Y137.375 E0.01676
G1 X59.776 Y139.236 E0.08259
G1 X59.242 Y139.236 E0.01676
G1 X57.382 Y137.375 E0.08259
G1 X56.848 Y137.375 E0.01676
G1 X58.709 Y139.236 E0.08259
G1 X58.175 Y139.236 E0.01676
G1 X56.314 Y137.375 E0.08259
G1 X55.780 Y137.375 E0.01676
G1 X57.641 Y139.236 E0.08259
G1 X57.107 Y139.236 E0.01676
G1 X55.246 Y137.375 E0.08259
G1 X54.713 Y137.375 E0.01676
G1 X56.573 Y139.236 E0.08259
G1 X56.039 Y139.236 E0.01676
G1 X54.179 Y137.375 E0.08259
G1 X53.645 Y137.375 E0.01676
G1 X55.505 Y139.236 E0.08259
G1 X54.971 Y139.236 E0.01676
G1 X53.111 Y137.375 E0.08259
G1 X52.577 Y137.375 E0.01676
G1 X54.437 Y139.236 E0.08259
G1 X53.903 Y139.236 E0.01676
G1 X52.043 Y137.375 E0.08259
G1 X51.509 Y137.375 E0.01676
G1 X53.369 Y139.236 E0.08259
M73 P6 R45
G1 X52.835 Y139.236 E0.01676
G1 X50.975 Y137.375 E0.08259
G1 X50.441 Y137.375 E0.01676
G1 X52.301 Y139.236 E0.08259
G1 X51.767 Y139.236 E0.01676
G1 X49.907 Y137.375 E0.08259
G1 X49.373 Y137.375 E0.01676
G1 X51.233 Y139.236 E0.08259
M73 Q6 S46
G1 X50.699 Y139.236 E0.01676
G1 X48.839 Y137.375 E0.08259
G1 X48.305 Y137.375 E0.01676
G1 X50.166 Y139.236 E0.08259
G1 X49.632 Y139.236 E0.01676
G1 X47.771 Y137.375 E0.08259
G1 X47.237 Y137.375 E0.01676
G1 X49.098 Y139.236 E0.08259
G1 X48.564 Y139.236 E0.01676
G1 X46.703 Y137.375 E0.08259
G1 X46.169 Y137.375 E0.01676
G1 X48.030 Y139.236 E0.08259
G1 X47.496 Y139.236 E0.01676
G1 X45.636 Y137.375 E0.08259
G1 X45.102 Y137.375 E0.01676
G1 X46.962 Y139.236 E0.08259
G1 X46.428 Y139.236 E0.01676
G1 X44.568 Y137.375 E0.08259
G1 X44.034 Y137.375 E0.01676
G1 X45.894 Y139.236 E0.08259
G1 X45.360 Y139.236 E0.01676
G1 X43.500 Y137.375 E0.08259
G1 X42.966 Y137.375 E0.01676
G1 X44.826 Y139.236 E0.08259
G1 X44.292 Y139.236 E0.01676
G1 X42.432 Y137.375 E0.08259
G1 X41.898 Y137.375 E0.01676
G1 X43.758 Y139.236 E0.08259
G1 X43.224 Y139.236 E0.01676
G1 X41.364 Y137.375 E0.08259
G1 X40.830 Y137.375 E0.01676
G1 X42.690 Y139.236 E0.08259
G1 X42.156 Y139.236 E0.01676
G1 X40.296 Y137.375 E0.08259
G1 X39.762 Y137.375 E0.01676
G1 X41.622 Y139.236 E0.08259
G1 X41.089 Y139.236 E0.01676
G1 X39.228 Y137.375 E0.08259
G1 X38.694 Y137.375 E0.01676
G1 X40.555 Y139.236 E0.08259
G1 X40.021 Y139.236 E0.01676
G1 X38.160 Y137.375 E0.08259
G1 X37.626 Y137.375 E0.01676
G1 X39.487 Y139.236 E0.08259
G1 X38.953 Y139.236 E0.01676
G1 X37.093 Y137.375 E0.08259
G1 X36.559 Y137.375 E0.01676
G1 X38.419 Y139.236 E0.08259
G1 X37.885 Y139.236 E0.01676
G1 X36.025 Y137.375 E0.08259
G1 X35.491 Y137.375 E0.01676
G1 X37.351 Y139.236 E0.08259
G1 X36.817 Y139.236 E0.01676
G1 X34.957 Y137.375 E0.08259
G1 X34.423 Y137.375 E0.01676
G1 X36.283 Y139.236 E0.08259
G1 X35.749 Y139.236 E0.01676
G1 X33.889 Y137.375 E0.08259
G1 X33.355 Y137.375 E0.01676
G1 X35.215 Y139.236 E0.08259
G1 X34.681 Y139.236 E0.01676
G1 X32.821 Y137.375 E0.08259
G1 X32.287 Y137.375 E0.01676
G1 X34.147 Y139.236 E0.08259
G1 X33.613 Y139.236 E0.01676
G1 X31.753 Y137.375 E0.08259
G1 X31.219 Y137.375 E0.01676
G1 X33.079 Y139.236 E0.08259
G1 X32.545 Y139.236 E0.01676
G1 X30.685 Y137.375 E0.08259
G1 X30.151 Y137.375 E0.01676
G1 X32.012 Y139.236 E0.08259
G1 X31.478 Y139.236 E0.01676
G1 X29.617 Y137.375 E0.08259
G1 X29.083 Y137.375 E0.01676
G1 X30.944 Y139.236 E0.08259
G1 X30.410 Y139.236 E0.01676
G1 X28.549 Y137.375 E0.08259
G1 X28.016 Y137.375 E0.01676
G1 X29.876 Y139.236 E0.08259
G1 X29.342 Y139.236 E0.01676
G1 X27.482 Y137.375 E0.08259
G1 X26.948 Y137.375 E0.01676
G1 X28.808 Y139.236 E0.08259
G1 X28.274 Y139.236 E0.01676
G1 X26.414 Y137.375 E0.08259
G1 X25.880 Y137.375 E0.01676
G1 X27.740 Y139.236 E0.08259
G1 X27.206 Y139.236 E0.01676
G1 X25.346 Y137.375 E0.08259
G1 X24.812 Y137.375 E0.01676
G1 X26.672 Y139.236 E0.08259
G1 X26.138 Y139.236 E0.01676
G1 X24.278 Y137.375 E0.08259
G1 X23.744 Y137.375 E0.01676
G1 X25.604 Y139.236 E0.08259
G1 X25.070 Y139.236 E0.01676
G1 X23.210 Y137.375 E0.08259
G1 X22.676 Y137.375 E0.01676
G1 X24.536 Y139.236 E0.08259
G1 X24.002 Y139.236 E0.01676
G1 X22.142 Y137.375 E0.08259
G1 X21.608 Y137.375 E0.01676
G1 X23.468 Y139.236 E0.08259
G1 X22.935 Y139.236 E0.01676
G1 X21.074 Y137.375 E0.08259
G1 X20.540 Y137.375 E0.01676
G1 X22.401 Y139.236 E0.08259
G1 X21.867 Y139.236 E0.01676
G1 X20.006 Y137.375 E0.08259
G1 X19.472 Y137.375 E0.01676
G1 X21.333 Y139.236 E0.08259
G1 X20.799 Y139.236 E0.01676
G1 X18.939 Y137.375 E0.08259
