; generated by PrusaSlicer 2.3.3+x64 on 2021-08-29 at 18:06:02 UTC

; 

; external perimeters extrusion width = 0.60mm
; perimeters extrusion width = 0.50mm
; infill extrusion width = 0.50mm
; solid infill extrusion width = 0.50mm
; top infill extrusion width = 0.45mm
; first layer extrusion width = 0.42mm

M73 P0 R54
M73 Q0 S54
M201 X1000 Y1000 Z200 E5000 ; sets maximum accelerations, mm/sec^2
M203 X200 Y200 Z12 E120 ; sets maximum feedrates, mm/sec
M204 P1250 R1250 T1250 ; sets acceleration (P, T) and retract acceleration (R), mm/sec^2
M205 X8.00 Y8.00 Z0.40 E4.50 ; sets the jerk limits, mm/sec
M205 S0 T0 ; sets the minimum extruding and travel feed rate, mm/sec
M107
;TYPE:Custom
M862.3 P "MK3S" ; printer model check
M862.1 P0.4 ; nozzle diameter check
M115 U3.10.0 ; tell printer latest fw version
G90 ; use absolute coordinates
M83 ; extruder relative mode
M104 S215 ; set extruder temp
M140 S65 ; set bed temp
M190 S65 ; wait for bed temp
M109 S215 ; wait for extruder temp
G28 W ; home all without mesh bed level
G80 ; mesh bed leveling
G1 Y-3.0 F1000.0 ; go outside print area
G92 E0.0
G1 X60.0 E9.0 F1000.0 ; intro line
G1 X100.0 E12.5 F1000.0 ; intro line
G92 E0.0
M221 S95

; Don't change E values below. Excessive value can damage the printer.

M907 E538 ; set extruder motor current
G21 ; set units to millimeters
G90 ; use absolute coordinates
M83 ; use relative distances for extrusion
M900 K0.05 ; Filament gcode LA 1.5
M900 K30 ; Filament gcode LA 1.0
;LAYER_CHANGE
;Z:0.2
;HEIGHT:0.2
;BEFORE_LAYER_CHANGE
G92 E0.0
;0.2


G1 E-0.80000 F2100.000
G1 Z0.400 F10800.000
;AFTER_LAYER_CHANGE
;0.2
G1 X18.721 Y21.254
G1 Z0.200
G1 E0.80000 F2100.000
M204 S1000
;TYPE:Skirt
;WIDTH:0.42
G1 F1200.000
G1 X19.495 Y21.123 E0.02461
G1 X230.504 Y21.123 E6.61603
G1 X231.406 Y21.302 E0.02884
G1 X232.175 Y21.813 E0.02896
G1 X232.691 Y22.579 E0.02896
G1 X232.877 Y23.480 E0.02884
G1 X232.877 Y186.511 E5.11174
M73 P0 R53
G1 X232.814 Y187.044 E0.01680
G1 X232.635 Y187.545 E0.01668
G1 X232.349 Y187.994 E0.01668
G1 X231.968 Y188.370 E0.01680
G1 X231.279 Y188.746 E0.02461
G1 X230.505 Y188.877 E0.02461
G1 X19.496 Y188.877 E6.61603
M73 P1 R53
M73 Q1 S54
G1 X18.964 Y188.816 E0.01680
G1 X18.459 Y188.637 E0.01680
G1 X18.006 Y188.349 E0.01680
G1 X17.630 Y187.968 E0.01680
G1 X17.255 Y187.282 E0.02449
G1 X17.123 Y186.509 E0.02461
G1 X17.123 Y23.492 E5.11126
G1 X17.184 Y22.964 E0.01668
G1 X17.363 Y22.459 E0.01680
G1 X17.651 Y22.006 E0.01680
G1 X18.032 Y21.630 E0.01680
G1 X18.669 Y21.283 E0.02273
; printing object 3x4_grid.stl id:0 copy 0
;WIPE_START
G1 F8640.000
G1 X19.495 Y21.123 E-0.19438
G1 X21.945 Y21.123 E-0.56562
;WIPE_END
G1 E-0.04000 F2100.000
G1 Z0.600 F10800.000
G1 X126.713 Y129.713
G1 Z0.200
G1 E0.80000 F2100.000
;TYPE:Perimeter
G1 F1200.000
G1 X176.787 Y129.713 E1.57004
G1 X176.787 Y179.787 E1.57004
G1 X126.713 Y179.787 E1.57004
G1 X126.713 Y129.773 E1.56816
G1 X127.090 Y130.090 F10800.000
;TYPE:External perimeter
G1 F1200.000
G1 X176.410 Y130.090 E1.54639
M73 Q1 S53
G1 X176.410 Y179.410 E1.54639
G1 X127.090 Y179.410 E1.54639
G1 X127.090 Y130.150 E1.54451
M73 P2 R53
M73 Q2 S53
G1 X126.986 Y129.704 F10800.000
;WIPE_START
G1 F8640.000
G1 X130.381 Y130.146 E-0.76000
;WIPE_END
G1 E-0.04000 F2100.000
G1 Z0.600 F10800.000
G1 X74.213 Y129.713
G1 Z0.200
G1 E0.80000 F2100.000
;TYPE:Perimeter
G1 F1200.000
G1 X124.287 Y129.713 E1.57004
G1 X124.287 Y179.787 E1.57004
G1 X74.213 Y179.787 E1.57004
G1 X74.213 Y129.773 E1.56816
G1 X74.590 Y130.090 F10800.000
;TYPE:External perimeter
G1 F1200.000
G1 X123.910 Y130.090 E1.54639
G1 X123.910 Y179.410 E1.54639
M73 P2 R52
G1 X74.590 Y179.410 E1.54639
G1 X74.590 Y130.150 E1.54451
G1 X74.486 Y129.704 F10800.000
;WIPE_START
G1 F8640.000
G1 X77.881 Y130.146 E-0.76000
;WIPE_END
G1 E-0.04000 F2100.000
G1 Z0.600 F10800.000
G1 X74.213 Y77.213
G1 Z0.200
G1 E0.80000 F2100.000
;TYPE:Perimeter
G1 F1200.000
G1 X124.287 Y77.213 E1.57004
G1 X124.287 Y127.287 E1.57004
G1 X74.213 Y127.287 E1.57004
G1 X74.213 Y77.273 E1.56816
M73 P3 R52
M73 Q3 S53
G1 X74.590 Y77.590 F10800.000
;TYPE:External perimeter
G1 F1200.000
G1 X123.910 Y77.590 E1.54639
G1 X123.910 Y126.910 E1.54639
G1 X74.590 Y126.910 E1.54639
G1 X74.590 Y77.650 E1.54451
G1 X74.486 Y77.204 F10800.000
;WIPE_START
G1 F8640.000
G1 X77.881 Y77.646 E-0.76000
;WIPE_END
G1 E-0.04000 F2100.000
G1 Z0.600 F10800.000
G1 X126.713 Y77.213
G1 Z0.200
G1 E0.80000 F2100.000
;TYPE:Perimeter
G1 F1200.000
G1 X176.787 Y77.213 E1.57004
G1 X176.787 Y127.287 E1.57004
G1 X126.713 Y127.287 E1.57004
G1 X126.713 Y77.273 E1.56816
M73 Q3 S52
G1 X127.090 Y77.590 F10800.000
;TYPE:External perimeter
G1 F1200.000
G1 X176.410 Y77.590 E1.54639
G1 X176.410 Y126.910 E1.54639
G1 X127.090 Y126.910 E1.54639
G1 X127.090 Y77.650 E1.54451
G1 X126.986 Y77.204 F10800.000
;WIPE_START
G1 F8640.000
G1 X130.381 Y77.646 E-0.76000
;WIPE_END
G1 E-0.04000 F2100.000
G1 Z0.600 F10800.000
G1 X126.713 Y24.713
M73 P4 R52
G1 Z0.200
G1 E0.80000 F2100.000
;TYPE:Perimeter
G1 F1200.000
G1 X176.787 Y24.713 E1.57004
M73 Q4 S52
G1 X176.787 Y74.787 E1.57004
G1 X126.713 Y74.787 E1.57004
G1 X126.713 Y24.773 E1.56816
G1 X127.090 Y25.090 F10800.000
;TYPE:External perimeter
G1 F1200.000
G1 X176.410 Y25.090 E1.54639
M73 P4 R51
G1 X176.410 Y74.410 E1.54639
G1 X127.090 Y74.410 E1.54639
G1 X127.090 Y25.150 E1.54451
G1 X126.986 Y24.704 F10800.000
;WIPE_START
G1 F8640.000
G1 X130.381 Y25.146 E-0.76000
;WIPE_END
G1 E-0.04000 F2100.000
G1 Z0.600 F10800.000
G1 X74.213 Y24.713
G1 Z0.200
G1 E0.80000 F2100.000
;TYPE:Perimeter
G1 F1200.000
G1 X124.287 Y24.713 E1.57004
G1 X124.287 Y74.787 E1.57004
G1 X74.213 Y74.787 E1.57004
G1 X74.213 Y24.773 E1.56816
G1 X74.590 Y25.090 F10800.000
;TYPE:External perimeter
G1 F1200.000
G1 X123.910 Y25.090 E1.54639
M73 P5 R51
M73 Q5 S52
G1 X123.910 Y74.410 E1.54639
G1 X74.590 Y74.410 E1.54639
G1 X74.590 Y25.150 E1.54451
G1 X74.486 Y24.704 F10800.000
;WIPE_START
G1 F8640.000
G1 X77.881 Y25.146 E-0.76000
;WIPE_END
G1 E-0.04000 F2100.000
G1 Z0.600 F10800.000
G1 X21.713 Y24.713
G1 Z0.200
G1 E0.80000 F2100.000
;TYPE:Perimeter
G1 F1200.000
G1 X71.787 Y24.713 E1.57004
G1 X71.787 Y74.787 E1.57004
G1 X21.713 Y74.787 E1.57004
M73 Q5 S51
G1 X21.713 Y24.773 E1.56816
G1 X22.090 Y25.090 F10800.000
;TYPE:External perimeter
G1 F1200.000
G1 X71.410 Y25.090 E1.54639
G1 X71.410 Y74.410 E1.54639
G1 X22.090 Y74.410 E1.54639
G1 X22.090 Y25.150 E1.54451
G1 X21.986 Y24.704 F10800.000
;WIPE_START
G1 F8640.000
G1 X25.381 Y25.146 E-0.76000
;WIPE_END
G1 E-0.04000 F2100.000
G1 Z0.600 F10800.000
G1 X21.713 Y77.213
G1 Z0.200
G1 E0.80000 F2100.000
;TYPE:Perimeter
G1 F1200.000
G1 X71.787 Y77.213 E1.57004
M73 P6 R51
G1 X71.787 Y127.287 E1.57004
M73 Q6 S51
G1 X21.713 Y127.287 E1.57004
G1 X21.713 Y77.273 E1.56816
M73 P6 R50
G1 X22.090 Y77.590 F10800.000
;TYPE:External perimeter
G1 F1200.000
G1 X71.410 Y77.590 E1.54639
G1 X71.410 Y126.910 E1.54639
G1 X22.090 Y126.910 E1.54639
G1 X22.090 Y77.650 E1.54451
G1 X21.986 Y77.204 F10800.000
;WIPE_START
G1 F8640.000
G1 X25.381 Y77.646 E-0.76000
;WIPE_END
G1 E-0.04000 F2100.000
G1 Z0.600 F10800.000
G1 X21.713 Y129.713
G1 Z0.200
G1 E0.80000 F2100.000
;TYPE:Perimeter
G1 F1200.000
G1 X71.787 Y129.713 E1.57004
G1 X71.787 Y179.787 E1.57004
G1 X21.713 Y179.787 E1.57004
G1 X21.713 Y129.773 E1.56816
G1 X22.090 Y130.090 F10800.000
;TYPE:External perimeter
G1 F1200.000
G1 X71.410 Y130.090 E1.54639
G1 X71.410 Y179.410 E1.54639
M73 P7 R50
M73 Q7 S51
G1 X22.090 Y179.410 E1.54639
G1 X22.090 Y130.150 E1.54451
G1 X21.986 Y129.704 F10800.000
;WIPE_START
G1 F8640.000
G1 X25.381 Y130.146 E-0.76000
;WIPE_END
G1 E-0.04000 F2100.000
G1 Z0.600 F10800.000
G1 X179.213 Y129.713
G1 Z0.200
G1 E0.80000 F2100.000
;TYPE:Perimeter
G1 F1200.000
G1 X229.287 Y129.713 E1.57004
M73 Q7 S50
G1 X229.287 Y179.787 E1.57004
G1 X179.213 Y179.787 E1.57004
G1 X179.213 Y129.773 E1.56816
G1 X179.590 Y130.090 F10800.000
;TYPE:External perimeter
G1 F1200.000
G1 X228.910 Y130.090 E1.54639
G1 X228.910 Y179.410 E1.54639
G1 X179.590 Y179.410 E1.54639
G1 X179.590 Y130.150 E1.54451
G1 X179.486 Y129.704 F10800.000
;WIPE_START
G1 F8640.000
G1 X182.881 Y130.146 E-0.76000
;WIPE_END
G1 E-0.04000 F2100.000
G1 Z0.600 F10800.000
G1 X179.213 Y77.213
G1 Z0.200
G1 E0.80000 F2100.000
;TYPE:Perimeter
G1 F1200.000
G1 X229.287 Y77.213 E1.57004
G1 X229.287 Y127.287 E1.57004
M73 P8 R50
M73 Q8 S50
G1 X179.213 Y127.287 E1.57004
M73 P8 R49
G1 X179.213 Y77.273 E1.56816
G1 X179.590 Y77.590 F10800.000
;TYPE:External perimeter
G1 F1200.000
G1 X228.910 Y77.590 E1.54639
G1 X228.910 Y126.910 E1.54639
G1 X179.590 Y126.910 E1.54639
G1 X179.590 Y77.650 E1.54451
G1 X179.486 Y77.204 F10800.000
;WIPE_START
G1 F8640.000
G1 X182.881 Y77.646 E-0.76000
;WIPE_END
G1 E-0.04000 F2100.000
G1 Z0.600 F10800.000
G1 X179.213 Y24.713
G1 Z0.200
G1 E0.80000 F2100.000
;TYPE:Perimeter
G1 F1200.000
G1 X229.287 Y24.713 E1.57004
G1 X229.287 Y74.787 E1.57004
G1 X179.213 Y74.787 E1.57004
G1 X179.213 Y24.773 E1.56816
G1 X179.590 Y25.090 F10800.000
;TYPE:External perimeter
G1 F1200.000
G1 X228.910 Y25.090 E1.54639
G1 X228.910 Y74.410 E1.54639
G1 X179.590 Y74.410 E1.54639
M73 P9 R49
M73 Q9 S50
G1 X179.590 Y25.150 E1.54451
G1 X179.486 Y24.704 F10800.000
;WIPE_START
G1 F8640.000
G1 X182.881 Y25.146 E-0.76000
;WIPE_END
G1 E-0.04000 F2100.000
G1 Z0.600 F10800.000
G1 X229.713 Y24.287
M73 Q9 S49
G1 Z0.200
G1 E0.80000 F2100.000
;TYPE:Perimeter
G1 F1200.000
G1 X229.713 Y185.713 E5.06139
G1 X20.287 Y185.713 E6.56640
G1 X20.287 Y24.287 E5.06139
M73 P9 R48
G1 X229.653 Y24.287 E6.56452
M73 P10 R48
M73 Q10 S49
G1 X230.090 Y23.910 F10800.000
;TYPE:External perimeter
G1 F1200.000
G1 X230.090 Y186.090 E5.08504
G1 X19.910 Y186.090 E6.59005
G1 X19.910 Y23.910 E5.08504
M73 P11 R48
M73 Q11 S48
G1 X230.030 Y23.910 E6.58816
G1 X229.970 Y24.292 F10800.000
;WIPE_START
G1 F8640.000
G1 X230.031 Y27.201 E-0.76000
;WIPE_END
G1 E-0.04000 F2100.000
G1 Z0.600 F10800.000
G1 X228.994 Y179.900
G1 Z0.200
G1 E0.80000 F2100.000
;TYPE:Solid infill
;WIDTH:0.420391
G1 F1200.000
G1 X229.430 Y180.337 E0.01937
G1 X229.430 Y180.870 E0.01676
G1 X228.630 Y180.070 E0.03553
G1 X228.096 Y180.070 E0.01676
G1 X229.430 Y181.404 E0.05923
G1 X229.430 Y181.938 E0.01676
G1 X227.562 Y180.070 E0.08292
G1 X227.028 Y180.070 E0.01676
G1 X229.430 Y182.472 E0.10662
G1 X229.430 Y183.006 E0.01676
G1 X226.494 Y180.070 E0.13031
G1 X225.960 Y180.070 E0.01676
G1 X229.430 Y183.540 E0.15401
G1 X229.430 Y184.073 E0.01676
G1 X225.427 Y180.070 E0.17770
G1 X224.893 Y180.070 E0.01676
G1 X229.430 Y184.607 E0.20140
G1 X229.430 Y185.141 E0.01676
G1 X224.359 Y180.070 E0.22510
G1 X223.825 Y180.070 E0.01676
G1 X229.185 Y185.430 E0.23793
G1 X228.652 Y185.430 E0.01676
G1 X223.291 Y180.070 E0.23793
G1 X222.758 Y180.070 E0.01676
G1 X228.118 Y185.430 E0.23793
G1 X227.584 Y185.430 E0.01676
G1 X222.224 Y180.070 E0.23793
G1 X221.690 Y180.070 E0.01676
G1 X227.050 Y185.430 E0.23793
G1 X226.516 Y185.430 E0.01676
G1 X221.156 Y180.070 E0.23793
G1 X220.622 Y180.070 E0.01676
G1 X225.982 Y185.430 E0.23793
G1 X225.449 Y185.430 E0.01676
G1 X220.088 Y180.070 E0.23793
G1 X219.555 Y180.070 E0.01676
G1 X224.915 Y185.430 E0.23793
G1 X224.381 Y185.430 E0.01676
G1 X219.021 Y180.070 E0.23793
G1 X218.487 Y180.070 E0.01676
G1 X223.847 Y185.430 E0.23793
G1 X223.313 Y185.430 E0.01676
G1 X217.953 Y180.070 E0.23793
G1 X217.419 Y180.070 E0.01676
G1 X222.780 Y185.430 E0.23793
G1 X222.246 Y185.430 E0.01676
G1 X216.885 Y180.070 E0.23793
G1 X216.352 Y180.070 E0.01676
G1 X221.712 Y185.430 E0.23793
G1 X221.178 Y185.430 E0.01676
G1 X215.818 Y180.070 E0.23793
G1 X215.284 Y180.070 E0.01676
G1 X220.644 Y185.430 E0.23793
G1 X220.110 Y185.430 E0.01676
G1 X214.750 Y180.070 E0.23793
M73 P11 R47
G1 X214.216 Y180.070 E0.01676
G1 X219.577 Y185.430 E0.23793
G1 X219.043 Y185.430 E0.01676
G1 X213.683 Y180.070 E0.23793
G1 X213.149 Y180.070 E0.01676
G1 X218.509 Y185.430 E0.23793
G1 X217.975 Y185.430 E0.01676
G1 X212.615 Y180.070 E0.23793
G1 X212.081 Y180.070 E0.01676
G1 X217.441 Y185.430 E0.23793
G1 X216.907 Y185.430 E0.01676
G1 X211.547 Y180.070 E0.23793
G1 X211.013 Y180.070 E0.01676
G1 X216.374 Y185.430 E0.23793
G1 X215.840 Y185.430 E0.01676
G1 X210.480 Y180.070 E0.23793
G1 X209.946 Y180.070 E0.01676
G1 X215.306 Y185.430 E0.23793
G1 X214.772 Y185.430 E0.01676
G1 X209.412 Y180.070 E0.23793
G1 X208.878 Y180.070 E0.01676
G1 X214.238 Y185.430 E0.23793
G1 X213.704 Y185.430 E0.01676
G1 X208.344 Y180.070 E0.23793
G1 X207.810 Y180.070 E0.01676
G1 X213.171 Y185.430 E0.23793
G1 X212.637 Y185.430 E0.01676
G1 X207.277 Y180.070 E0.23793
G1 X206.743 Y180.070 E0.01676
G1 X212.103 Y185.430 E0.23793
M73 P12 R47
G1 X211.569 Y185.430 E0.01676
G1 X206.209 Y180.070 E0.23793
G1 X205.675 Y180.070 E0.01676
G1 X211.035 Y185.430 E0.23793
G1 X210.502 Y185.430 E0.01676
G1 X205.141 Y180.070 E0.23793
M73 Q12 S48
G1 X204.607 Y180.070 E0.01676
G1 X209.968 Y185.430 E0.23793
G1 X209.434 Y185.430 E0.01676
G1 X204.074 Y180.070 E0.23793
G1 X203.540 Y180.070 E0.01676
G1 X208.900 Y185.430 E0.23793
G1 X208.366 Y185.430 E0.01676
G1 X203.006 Y180.070 E0.23793
G1 X202.472 Y180.070 E0.01676
G1 X207.832 Y185.430 E0.23793
G1 X207.299 Y185.430 E0.01676
G1 X201.938 Y180.070 E0.23793
G1 X201.405 Y180.070 E0.01676
G1 X206.765 Y185.430 E0.23793
G1 X206.231 Y185.430 E0.01676
G1 X200.871 Y180.070 E0.23793
G1 X200.337 Y180.070 E0.01676
G1 X205.697 Y185.430 E0.23793
G1 X205.163 Y185.430 E0.01676
G1 X199.803 Y180.070 E0.23793
G1 X199.269 Y180.070 E0.01676
G1 X204.629 Y185.430 E0.23793
G1 X204.096 Y185.430 E0.01676
G1 X198.735 Y180.070 E0.23793
G1 X198.202 Y180.070 E0.01676
G1 X203.562 Y185.430 E0.23793
G1 X203.028 Y185.430 E0.01676
G1 X197.668 Y180.070 E0.23793
G1 X197.134 Y180.070 E0.01676
G1 X202.494 Y185.430 E0.23793
G1 X201.960 Y185.430 E0.01676
G1 X196.600 Y180.070 E0.23793
G1 X196.066 Y180.070 E0.01676
G1 X201.427 Y185.430 E0.23793
G1 X200.893 Y185.430 E0.01676
G1 X195.532 Y180.070 E0.23793
G1 X194.999 Y180.070 E0.01676
G1 X200.359 Y185.430 E0.23793
G1 X199.825 Y185.430 E0.01676
G1 X194.465 Y180.070 E0.23793
G1 X193.931 Y180.070 E0.01676
G1 X199.291 Y185.430 E0.23793
G1 X198.757 Y185.430 E0.01676
G1 X193.397 Y180.070 E0.23793
G1 X192.863 Y180.070 E0.01676
G1 X198.224 Y185.430 E0.23793
G1 X197.690 Y185.430 E0.01676
G1 X192.330 Y180.070 E0.23793
G1 X191.796 Y180.070 E0.01676
G1 X197.156 Y185.430 E0.23793
G1 X196.622 Y185.430 E0.01676
G1 X191.262 Y180.070 E0.23793
G1 X190.728 Y180.070 E0.01676
G1 X196.088 Y185.430 E0.23793
G1 X195.554 Y185.430 E0.01676
G1 X190.194 Y180.070 E0.23793
G1 X189.660 Y180.070 E0.01676
G1 X195.021 Y185.430 E0.23793
G1 X194.487 Y185.430 E0.01676
G1 X189.127 Y180.070 E0.23793
G1 X188.593 Y180.070 E0.01676
G1 X193.953 Y185.430 E0.23793
G1 X193.419 Y185.430 E0.01676
G1 X188.059 Y180.070 E0.23793
G1 X187.525 Y180.070 E0.01676
G1 X192.885 Y185.430 E0.23793
G1 X192.352 Y185.430 E0.01676
G1 X186.991 Y180.070 E0.23793
G1 X186.457 Y180.070 E0.01676
G1 X191.818 Y185.430 E0.23793
G1 X191.284 Y185.430 E0.01676
G1 X185.924 Y180.070 E0.23793
G1 X185.390 Y180.070 E0.01676
G1 X190.750 Y185.430 E0.23793
G1 X190.216 Y185.430 E0.01676
G1 X184.856 Y180.070 E0.23793
G1 X184.322 Y180.070 E0.01676
G1 X189.682 Y185.430 E0.23793
G1 X189.149 Y185.430 E0.01676
G1 X183.788 Y180.070 E0.23793
G1 X183.254 Y180.070 E0.01676
G1 X188.615 Y185.430 E0.23793
G1 X188.081 Y185.430 E0.01676
G1 X182.721 Y180.070 E0.23793
G1 X182.187 Y180.070 E0.01676
G1 X187.547 Y185.430 E0.23793
G1 X187.013 Y185.430 E0.01676
G1 X181.653 Y180.070 E0.23793
G1 X181.119 Y180.070 E0.01676
G1 X186.479 Y185.430 E0.23793
G1 X185.946 Y185.430 E0.01676
G1 X180.585 Y180.070 E0.23793
G1 X180.052 Y180.070 E0.01676
G1 X185.412 Y185.430 E0.23793
G1 X184.878 Y185.430 E0.01676
G1 X179.348 Y179.900 E0.24546
;WIPE_START
G1 F8640.000
G1 X181.675 Y182.228 E-0.76000
;WIPE_END
G1 E-0.04000 F2100.000
G1 Z0.600 F10800.000
G1 X229.600 Y128.191
G1 Z0.200
G1 E0.80000 F2100.000
G1 F1200.000
G1 X228.978 Y127.570 E0.02759
G1 X228.444 Y127.570 E0.01676
G1 X229.430 Y128.556 E0.04375
G1 X229.430 Y129.089 E0.01676
G1 X227.911 Y127.570 E0.06745
G1 X227.377 Y127.570 E0.01676
G1 X229.237 Y129.430 E0.08257
G1 X228.703 Y129.430 E0.01676
G1 X226.843 Y127.570 E0.08257
