; generated by PrusaSlicer 2.3.3+x64 on 2021-08-29 at 19:04:58 UTC

; 

; external perimeters extrusion width = 0.60mm
; perimeters extrusion width = 0.50mm
; infill extrusion width = 0.50mm
; solid infill extrusion width = 0.50mm
; top infill extrusion width = 0.45mm
; first layer extrusion width = 0.42mm

M73 P0 R51
M73 Q0 S52
M201 X1000 Y1000 Z200 E5000 ; sets maximum accelerations, mm/sec^2
M203 X200 Y200 Z12 E120 ; sets maximum feedrates, mm/sec
M204 P1250 R1250 T1250 ; sets acceleration (P, T) and retract acceleration (R), mm/sec^2
M205 X8.00 Y8.00 Z0.40 E4.50 ; sets the jerk limits, mm/sec
M205 S0 T0 ; sets the minimum extruding and travel feed rate, mm/sec
M107
;TYPE:Custom
M862.3 P "MK3S" ; printer model check
M862.1 P0.4 ; nozzle diameter check
M115 U3.10.0 ; tell printer latest fw version
G90 ; use absolute coordinates
M83 ; extruder relative mode
M104 S215 ; set extruder temp
M140 S65 ; set bed temp
M190 S65 ; wait for bed temp
M109 S215 ; wait for extruder temp
G28 W ; home all without mesh bed level
G80 ; mesh bed leveling
G1 Y-3.0 F1000.0 ; go outside print area
G92 E0.0
G1 X60.0 E9.0 F1000.0 ; intro line
G1 X100.0 E12.5 F1000.0 ; intro line
G92 E0.0
M221 S95

; Don't change E values below. Excessive value can damage the printer.

M907 E538 ; set extruder motor current
G21 ; set units to millimeters
G90 ; use absolute coordinates
M83 ; use relative distances for extrusion
M900 K0.05 ; Filament gcode LA 1.5
M900 K30 ; Filament gcode LA 1.0
;LAYER_CHANGE
;Z:0.2
;HEIGHT:0.2
;BEFORE_LAYER_CHANGE
G92 E0.0
;0.2


G1 E-0.80000 F2100.000
G1 Z0.400 F10800.000
;AFTER_LAYER_CHANGE
;0.2
G1 X19.218 Y21.255
G1 Z0.200
G1 E0.80000 F2100.000
M204 S1000
;TYPE:Skirt
;WIDTH:0.42
G1 F1200.000
G1 X19.995 Y21.123 E0.02473
G1 X230.004 Y21.123 E6.58467
G1 X230.906 Y21.302 E0.02884
G1 X231.675 Y21.813 E0.02896
G1 X232.191 Y22.579 E0.02896
G1 X232.377 Y23.480 E0.02884
G1 X232.377 Y186.511 E5.11174
G1 X232.315 Y187.040 E0.01668
G1 X232.137 Y187.541 E0.01668
G1 X231.852 Y187.991 E0.01668
G1 X231.471 Y188.368 E0.01680
G1 X230.782 Y188.745 E0.02461
G1 X230.005 Y188.877 E0.02473
G1 X19.996 Y188.877 E6.58467
M73 P1 R51
M73 Q1 S51
G1 X19.464 Y188.816 E0.01680
G1 X18.962 Y188.638 E0.01668
G1 X18.509 Y188.352 E0.01680
G1 X18.132 Y187.971 E0.01680
G1 X17.755 Y187.282 E0.02461
G1 X17.623 Y186.509 E0.02461
G1 X17.623 Y23.492 E5.11126
G1 X17.684 Y22.964 E0.01668
G1 X17.863 Y22.459 E0.01680
G1 X18.148 Y22.009 E0.01668
G1 X18.529 Y21.632 E0.01680
G1 X19.165 Y21.284 E0.02273
; printing object 3x4_grid_v2.stl id:0 copy 0
;WIPE_START
G1 F8640.000
G1 X19.995 Y21.123 E-0.19524
G1 X22.441 Y21.123 E-0.56476
;WIPE_END
G1 E-0.04000 F2100.000
G1 Z0.600 F10800.000
G1 X126.213 Y129.713
G1 Z0.200
G1 E0.80000 F2100.000
;TYPE:Perimeter
G1 F1200.000
G1 X176.287 Y129.713 E1.57004
G1 X176.287 Y179.787 E1.57004
G1 X126.213 Y179.787 E1.57004
G1 X126.213 Y129.773 E1.56816
M73 P1 R50
G1 X126.590 Y130.090 F10800.000
;TYPE:External perimeter
G1 F1200.000
G1 X175.910 Y130.090 E1.54639
G1 X175.910 Y179.410 E1.54639
G1 X126.590 Y179.410 E1.54639
M73 P2 R50
M73 Q2 S51
G1 X126.590 Y130.150 E1.54451
G1 X126.486 Y129.704 F10800.000
;WIPE_START
G1 F8640.000
G1 X129.881 Y130.146 E-0.76000
;WIPE_END
G1 E-0.04000 F2100.000
G1 Z0.600 F10800.000
G1 X73.713 Y129.713
G1 Z0.200
G1 E0.80000 F2100.000
;TYPE:Perimeter
G1 F1200.000
G1 X123.787 Y129.713 E1.57004
G1 X123.787 Y179.787 E1.57004
G1 X73.713 Y179.787 E1.57004
G1 X73.713 Y129.773 E1.56816
G1 X74.090 Y130.090 F10800.000
;TYPE:External perimeter
G1 F1200.000
G1 X123.410 Y130.090 E1.54639
G1 X123.410 Y179.410 E1.54639
G1 X74.090 Y179.410 E1.54639
G1 X74.090 Y130.150 E1.54451
G1 X73.986 Y129.704 F10800.000
;WIPE_START
G1 F8640.000
G1 X77.381 Y130.146 E-0.76000
;WIPE_END
G1 E-0.04000 F2100.000
G1 Z0.600 F10800.000
G1 X73.713 Y77.213
G1 Z0.200
G1 E0.80000 F2100.000
;TYPE:Perimeter
G1 F1200.000
G1 X123.787 Y77.213 E1.57004
M73 Q2 S50
G1 X123.787 Y127.287 E1.57004
M73 P3 R50
M73 Q3 S50
G1 X73.713 Y127.287 E1.57004
G1 X73.713 Y77.273 E1.56816
G1 X74.090 Y77.590 F10800.000
;TYPE:External perimeter
G1 F1200.000
G1 X123.410 Y77.590 E1.54639
G1 X123.410 Y126.910 E1.54639
G1 X74.090 Y126.910 E1.54639
G1 X74.090 Y77.650 E1.54451
G1 X73.986 Y77.204 F10800.000
;WIPE_START
G1 F8640.000
G1 X77.381 Y77.646 E-0.76000
;WIPE_END
G1 E-0.04000 F2100.000
G1 Z0.600 F10800.000
G1 X126.213 Y77.213
G1 Z0.200
G1 E0.80000 F2100.000
;TYPE:Perimeter
G1 F1200.000
G1 X176.287 Y77.213 E1.57004
G1 X176.287 Y127.287 E1.57004
G1 X126.213 Y127.287 E1.57004
M73 P3 R49
G1 X126.213 Y77.273 E1.56816
G1 X126.590 Y77.590 F10800.000
;TYPE:External perimeter
G1 F1200.000
G1 X175.910 Y77.590 E1.54639
G1 X175.910 Y126.910 E1.54639
M73 P4 R49
G1 X126.590 Y126.910 E1.54639
M73 Q4 S50
G1 X126.590 Y77.650 E1.54451
G1 X126.486 Y77.204 F10800.000
;WIPE_START
G1 F8640.000
G1 X129.881 Y77.646 E-0.76000
;WIPE_END
G1 E-0.04000 F2100.000
G1 Z0.600 F10800.000
G1 X126.213 Y24.713
G1 Z0.200
G1 E0.80000 F2100.000
;TYPE:Perimeter
G1 F1200.000
G1 X176.287 Y24.713 E1.57004
G1 X176.287 Y74.787 E1.57004
G1 X126.213 Y74.787 E1.57004
G1 X126.213 Y24.773 E1.56816
G1 X126.590 Y25.090 F10800.000
;TYPE:External perimeter
G1 F1200.000
G1 X175.910 Y25.090 E1.54639
G1 X175.910 Y74.410 E1.54639
G1 X126.590 Y74.410 E1.54639
G1 X126.590 Y25.150 E1.54451
G1 X126.486 Y24.704 F10800.000
;WIPE_START
G1 F8640.000
G1 X129.881 Y25.146 E-0.76000
;WIPE_END
G1 E-0.04000 F2100.000
G1 Z0.600 F10800.000
G1 X73.713 Y24.713
M73 Q4 S49
G1 Z0.200
G1 E0.80000 F2100.000
;TYPE:Perimeter
G1 F1200.000
G1 X123.787 Y24.713 E1.57004
G1 X123.787 Y74.787 E1.57004
M73 P5 R49
M73 Q5 S49
G1 X73.713 Y74.787 E1.57004
G1 X73.713 Y24.773 E1.56816
G1 X74.090 Y25.090 F10800.000
;TYPE:External perimeter
G1 F1200.000
G1 X123.410 Y25.090 E1.54639
G1 X123.410 Y74.410 E1.54639
G1 X74.090 Y74.410 E1.54639
G1 X74.090 Y25.150 E1.54451
G1 X73.986 Y24.704 F10800.000
;WIPE_START
G1 F8640.000
G1 X77.381 Y25.146 E-0.76000
;WIPE_END
G1 E-0.04000 F2100.000
G1 Z0.600 F10800.000
G1 X21.213 Y24.713
G1 Z0.200
G1 E0.80000 F2100.000
;TYPE:Perimeter
G1 F1200.000
G1 X71.287 Y24.713 E1.57004
G1 X71.287 Y74.787 E1.57004
M73 P5 R48
G1 X21.213 Y74.787 E1.57004
G1 X21.213 Y24.773 E1.56816
G1 X21.590 Y25.090 F10800.000
;TYPE:External perimeter
G1 F1200.000
G1 X70.910 Y25.090 E1.54639
G1 X70.910 Y74.410 E1.54639
M73 P6 R48
M73 Q6 S49
G1 X21.590 Y74.410 E1.54639
G1 X21.590 Y25.150 E1.54451
G1 X21.486 Y24.704 F10800.000
;WIPE_START
G1 F8640.000
G1 X24.881 Y25.146 E-0.76000
;WIPE_END
G1 E-0.04000 F2100.000
G1 Z0.600 F10800.000
G1 X21.213 Y77.213
G1 Z0.200
G1 E0.80000 F2100.000
;TYPE:Perimeter
G1 F1200.000
G1 X71.287 Y77.213 E1.57004
G1 X71.287 Y127.287 E1.57004
G1 X21.213 Y127.287 E1.57004
G1 X21.213 Y77.273 E1.56816
G1 X21.590 Y77.590 F10800.000
;TYPE:External perimeter
G1 F1200.000
G1 X70.910 Y77.590 E1.54639
G1 X70.910 Y126.910 E1.54639
G1 X21.590 Y126.910 E1.54639
G1 X21.590 Y77.650 E1.54451
M73 Q6 S48
G1 X21.486 Y77.204 F10800.000
;WIPE_START
G1 F8640.000
G1 X24.881 Y77.646 E-0.76000
;WIPE_END
G1 E-0.04000 F2100.000
G1 Z0.600 F10800.000
G1 X21.213 Y129.713
G1 Z0.200
G1 E0.80000 F2100.000
;TYPE:Perimeter
G1 F1200.000
G1 X71.287 Y129.713 E1.57004
G1 X71.287 Y179.787 E1.57004
M73 P7 R48
M73 Q7 S48
G1 X21.213 Y179.787 E1.57004
G1 X21.213 Y129.773 E1.56816
G1 X21.590 Y130.090 F10800.000
;TYPE:External perimeter
G1 F1200.000
G1 X70.910 Y130.090 E1.54639
G1 X70.910 Y179.410 E1.54639
G1 X21.590 Y179.410 E1.54639
G1 X21.590 Y130.150 E1.54451
G1 X21.486 Y129.704 F10800.000
;WIPE_START
G1 F8640.000
G1 X24.881 Y130.146 E-0.76000
;WIPE_END
G1 E-0.04000 F2100.000
G1 Z0.600 F10800.000
G1 X178.713 Y129.713
G1 Z0.200
G1 E0.80000 F2100.000
;TYPE:Perimeter
G1 F1200.000
G1 X228.787 Y129.713 E1.57004
M73 P7 R47
G1 X228.787 Y179.787 E1.57004
G1 X178.713 Y179.787 E1.57004
G1 X178.713 Y129.773 E1.56816
G1 X179.090 Y130.090 F10800.000
;TYPE:External perimeter
G1 F1200.000
G1 X228.410 Y130.090 E1.54639
G1 X228.410 Y179.410 E1.54639
M73 P8 R47
M73 Q8 S48
G1 X179.090 Y179.410 E1.54639
G1 X179.090 Y130.150 E1.54451
G1 X178.986 Y129.704 F10800.000
;WIPE_START
G1 F8640.000
G1 X182.381 Y130.146 E-0.76000
;WIPE_END
G1 E-0.04000 F2100.000
G1 Z0.600 F10800.000
G1 X178.713 Y77.213
G1 Z0.200
G1 E0.80000 F2100.000
;TYPE:Perimeter
G1 F1200.000
G1 X228.787 Y77.213 E1.57004
G1 X228.787 Y127.287 E1.57004
G1 X178.713 Y127.287 E1.57004
G1 X178.713 Y77.273 E1.56816
G1 X179.090 Y77.590 F10800.000
;TYPE:External perimeter
G1 F1200.000
G1 X228.410 Y77.590 E1.54639
G1 X228.410 Y126.910 E1.54639
M73 Q8 S47
G1 X179.090 Y126.910 E1.54639
G1 X179.090 Y77.650 E1.54451
G1 X178.986 Y77.204 F10800.000
;WIPE_START
G1 F8640.000
G1 X182.381 Y77.646 E-0.76000
;WIPE_END
G1 E-0.04000 F2100.000
G1 Z0.600 F10800.000
G1 X178.713 Y24.713
G1 Z0.200
G1 E0.80000 F2100.000
;TYPE:Perimeter
G1 F1200.000
G1 X228.787 Y24.713 E1.57004
M73 P9 R47
G1 X228.787 Y74.787 E1.57004
M73 Q9 S47
G1 X178.713 Y74.787 E1.57004
G1 X178.713 Y24.773 E1.56816
G1 X179.090 Y25.090 F10800.000
;TYPE:External perimeter
G1 F1200.000
G1 X228.410 Y25.090 E1.54639
G1 X228.410 Y74.410 E1.54639
G1 X179.090 Y74.410 E1.54639
G1 X179.090 Y25.150 E1.54451
G1 X178.986 Y24.704 F10800.000
;WIPE_START
G1 F8640.000
G1 X182.381 Y25.146 E-0.76000
;WIPE_END
G1 E-0.04000 F2100.000
G1 Z0.600 F10800.000
G1 X229.213 Y24.287
M73 P9 R46
G1 Z0.200
G1 E0.80000 F2100.000
;TYPE:Perimeter
G1 F1200.000
G1 X229.213 Y185.713 E5.06139
G1 X20.787 Y185.713 E6.53504
M73 P10 R46
M73 Q10 S47
G1 X20.787 Y24.287 E5.06139
G1 X229.153 Y24.287 E6.53316
M73 Q10 S46
G1 X229.590 Y23.910 F10800.000
;TYPE:External perimeter
G1 F1200.000
G1 X229.590 Y186.090 E5.08504
M73 P11 R46
M73 Q11 S46
G1 X20.410 Y186.090 E6.55869
G1 X20.410 Y23.910 E5.08504
M73 P11 R45
G1 X229.530 Y23.910 E6.55681
G1 X229.470 Y24.292 F10800.000
;WIPE_START
G1 F8640.000
G1 X229.531 Y27.201 E-0.76000
;WIPE_END
G1 E-0.04000 F2100.000
G1 Z0.600 F10800.000
M73 P12 R45
G1 X228.648 Y74.900
G1 Z0.200
G1 E0.80000 F2100.000
;TYPE:Solid infill
;WIDTH:0.42046
G1 F1200.000
G1 X228.930 Y75.182 E0.01253
G1 X228.930 Y75.716 E0.01676
G1 X228.284 Y75.070 E0.02870
G1 X227.750 Y75.070 E0.01676
G1 X228.930 Y76.250 E0.05241
G1 X228.930 Y76.784 E0.01676
G1 X227.216 Y75.070 E0.07611
G1 X226.682 Y75.070 E0.01676
G1 X228.542 Y76.930 E0.08259
G1 X228.008 Y76.930 E0.01676
G1 X226.148 Y75.070 E0.08259
M73 Q12 S46
G1 X225.614 Y75.070 E0.01676
G1 X227.474 Y76.930 E0.08259
G1 X226.940 Y76.930 E0.01676
G1 X225.080 Y75.070 E0.08259
G1 X224.546 Y75.070 E0.01676
G1 X226.406 Y76.930 E0.08259
G1 X225.872 Y76.930 E0.01676
G1 X224.012 Y75.070 E0.08259
G1 X223.478 Y75.070 E0.01676
G1 X225.339 Y76.930 E0.08259
G1 X224.805 Y76.930 E0.01676
G1 X222.944 Y75.070 E0.08259
G1 X222.410 Y75.070 E0.01676
G1 X224.271 Y76.930 E0.08259
G1 X223.737 Y76.930 E0.01676
G1 X221.877 Y75.070 E0.08259
G1 X221.343 Y75.070 E0.01676
G1 X223.203 Y76.930 E0.08259
G1 X222.669 Y76.930 E0.01676
G1 X220.809 Y75.070 E0.08259
G1 X220.275 Y75.070 E0.01676
G1 X222.135 Y76.930 E0.08259
G1 X221.601 Y76.930 E0.01676
G1 X219.741 Y75.070 E0.08259
G1 X219.207 Y75.070 E0.01676
G1 X221.067 Y76.930 E0.08259
G1 X220.533 Y76.930 E0.01676
G1 X218.673 Y75.070 E0.08259
G1 X218.139 Y75.070 E0.01676
G1 X219.999 Y76.930 E0.08259
G1 X219.465 Y76.930 E0.01676
G1 X217.605 Y75.070 E0.08259
G1 X217.071 Y75.070 E0.01676
G1 X218.932 Y76.930 E0.08259
G1 X218.398 Y76.930 E0.01676
G1 X216.537 Y75.070 E0.08259
G1 X216.003 Y75.070 E0.01676
G1 X217.864 Y76.930 E0.08259
G1 X217.330 Y76.930 E0.01676
G1 X215.469 Y75.070 E0.08259
G1 X214.936 Y75.070 E0.01676
G1 X216.796 Y76.930 E0.08259
G1 X216.262 Y76.930 E0.01676
G1 X214.402 Y75.070 E0.08259
G1 X213.868 Y75.070 E0.01676
G1 X215.728 Y76.930 E0.08259
G1 X215.194 Y76.930 E0.01676
G1 X213.334 Y75.070 E0.08259
G1 X212.800 Y75.070 E0.01676
G1 X214.660 Y76.930 E0.08259
G1 X214.126 Y76.930 E0.01676
G1 X212.266 Y75.070 E0.08259
G1 X211.732 Y75.070 E0.01676
G1 X213.592 Y76.930 E0.08259
G1 X213.058 Y76.930 E0.01676
G1 X211.198 Y75.070 E0.08259
G1 X210.664 Y75.070 E0.01676
G1 X212.524 Y76.930 E0.08259
G1 X211.991 Y76.930 E0.01676
G1 X210.130 Y75.070 E0.08259
G1 X209.596 Y75.070 E0.01676
G1 X211.457 Y76.930 E0.08259
G1 X210.923 Y76.930 E0.01676
G1 X209.062 Y75.070 E0.08259
G1 X208.529 Y75.070 E0.01676
G1 X210.389 Y76.930 E0.08259
G1 X209.855 Y76.930 E0.01676
G1 X207.995 Y75.070 E0.08259
G1 X207.461 Y75.070 E0.01676
G1 X209.321 Y76.930 E0.08259
G1 X208.787 Y76.930 E0.01676
G1 X206.927 Y75.070 E0.08259
G1 X206.393 Y75.070 E0.01676
G1 X208.253 Y76.930 E0.08259
G1 X207.719 Y76.930 E0.01676
G1 X205.859 Y75.070 E0.08259
G1 X205.325 Y75.070 E0.01676
G1 X207.185 Y76.930 E0.08259
G1 X206.651 Y76.930 E0.01676
G1 X204.791 Y75.070 E0.08259
G1 X204.257 Y75.070 E0.01676
G1 X206.117 Y76.930 E0.08259
G1 X205.583 Y76.930 E0.01676
G1 X203.723 Y75.070 E0.08259
G1 X203.189 Y75.070 E0.01676
G1 X205.050 Y76.930 E0.08259
G1 X204.516 Y76.930 E0.01676
G1 X202.655 Y75.070 E0.08259
G1 X202.121 Y75.070 E0.01676
G1 X203.982 Y76.930 E0.08259
G1 X203.448 Y76.930 E0.01676
G1 X201.588 Y75.070 E0.08259
G1 X201.054 Y75.070 E0.01676
G1 X202.914 Y76.930 E0.08259
G1 X202.380 Y76.930 E0.01676
G1 X200.520 Y75.070 E0.08259
G1 X199.986 Y75.070 E0.01676
G1 X201.846 Y76.930 E0.08259
G1 X201.312 Y76.930 E0.01676
G1 X199.452 Y75.070 E0.08259
G1 X198.918 Y75.070 E0.01676
G1 X200.778 Y76.930 E0.08259
G1 X200.244 Y76.930 E0.01676
G1 X198.384 Y75.070 E0.08259
G1 X197.850 Y75.070 E0.01676
G1 X199.710 Y76.930 E0.08259
G1 X199.176 Y76.930 E0.01676
G1 X197.316 Y75.070 E0.08259
G1 X196.782 Y75.070 E0.01676
G1 X198.642 Y76.930 E0.08259
G1 X198.109 Y76.930 E0.01676
G1 X196.248 Y75.070 E0.08259
G1 X195.714 Y75.070 E0.01676
G1 X197.575 Y76.930 E0.08259
G1 X197.041 Y76.930 E0.01676
G1 X195.180 Y75.070 E0.08259
G1 X194.647 Y75.070 E0.01676
G1 X196.507 Y76.930 E0.08259
G1 X195.973 Y76.930 E0.01676
G1 X194.113 Y75.070 E0.08259
G1 X193.579 Y75.070 E0.01676
G1 X195.439 Y76.930 E0.08259
G1 X194.905 Y76.930 E0.01676
G1 X193.045 Y75.070 E0.08259
G1 X192.511 Y75.070 E0.01676
G1 X194.371 Y76.930 E0.08259
G1 X193.837 Y76.930 E0.01676
G1 X191.977 Y75.070 E0.08259
G1 X191.443 Y75.070 E0.01676
G1 X193.303 Y76.930 E0.08259
G1 X192.769 Y76.930 E0.01676
G1 X190.909 Y75.070 E0.08259
G1 X190.375 Y75.070 E0.01676
G1 X192.235 Y76.930 E0.08259
G1 X191.701 Y76.930 E0.01676
G1 X189.841 Y75.070 E0.08259
G1 X189.307 Y75.070 E0.01676
G1 X191.168 Y76.930 E0.08259
G1 X190.634 Y76.930 E0.01676
G1 X188.773 Y75.070 E0.08259
G1 X188.239 Y75.070 E0.01676
G1 X190.100 Y76.930 E0.08259
G1 X189.566 Y76.930 E0.01676
G1 X187.706 Y75.070 E0.08259
G1 X187.172 Y75.070 E0.01676
G1 X189.032 Y76.930 E0.08259
G1 X188.498 Y76.930 E0.01676
G1 X186.638 Y75.070 E0.08259
G1 X186.104 Y75.070 E0.01676
G1 X187.964 Y76.930 E0.08259
G1 X187.430 Y76.930 E0.01676
G1 X185.570 Y75.070 E0.08259
G1 X185.036 Y75.070 E0.01676
G1 X186.896 Y76.930 E0.08259
G1 X186.362 Y76.930 E0.01676
G1 X184.502 Y75.070 E0.08259
G1 X183.968 Y75.070 E0.01676
G1 X185.828 Y76.930 E0.08259
G1 X185.294 Y76.930 E0.01676
G1 X183.434 Y75.070 E0.08259
G1 X182.900 Y75.070 E0.01676
G1 X184.760 Y76.930 E0.08259
G1 X184.227 Y76.930 E0.01676
G1 X182.366 Y75.070 E0.08259
G1 X181.832 Y75.070 E0.01676
G1 X183.693 Y76.930 E0.08259
G1 X183.159 Y76.930 E0.01676
G1 X181.298 Y75.070 E0.08259
G1 X180.765 Y75.070 E0.01676
G1 X182.625 Y76.930 E0.08259
G1 X182.091 Y76.930 E0.01676
G1 X180.231 Y75.070 E0.08259
G1 X179.697 Y75.070 E0.01676
G1 X181.557 Y76.930 E0.08259
G1 X181.023 Y76.930 E0.01676
G1 X178.993 Y74.900 E0.09012
;WIPE_START
G1 F8640.000
G1 X181.023 Y76.930 E-0.66287
G1 X181.444 Y76.930 E-0.09713
;WIPE_END
G1 E-0.04000 F2100.000
G1 Z0.600 F10800.000
G1 X178.600 Y24.852
G1 Z0.200
G1 E0.80000 F2100.000
G1 F1200.000
G1 X178.318 Y24.570 E0.01253
G1 X177.784 Y24.570 E0.01676
G1 X178.430 Y25.216 E0.02870
G1 X178.430 Y25.750 E0.01676
G1 X177.250 Y24.570 E0.05241
G1 X176.716 Y24.570 E0.01676
G1 X178.430 Y26.284 E0.07611
M73 Q12 S45
G1 X178.430 Y26.818 E0.01676
G1 X176.570 Y24.958 E0.08259
G1 X176.570 Y25.492 E0.01676
G1 X178.430 Y27.352 E0.08259
G1 X178.430 Y27.886 E0.01676
G1 X176.570 Y26.026 E0.08259
G1 X176.570 Y26.560 E0.01676
