; generated by PrusaSlicer 2.4.0-alpha1+x64 on 2021-09-06 at 01:35:35 UTC

; 

; external perimeters extrusion width = 0.60mm
; perimeters extrusion width = 0.50mm
; infill extrusion width = 0.50mm
; solid infill extrusion width = 0.50mm
; top infill extrusion width = 0.45mm
; support material extrusion width = 0.38mm
; first layer extrusion width = 0.42mm

M73 P0 R455
M73 Q0 S457
M201 X1000 Y1000 Z200 E5000 ; sets maximum accelerations, mm/sec^2
M203 X200 Y200 Z12 E120 ; sets maximum feedrates, mm/sec
M204 P1250 R1250 T1250 ; sets acceleration (P, T) and retract acceleration (R), mm/sec^2
M205 X8.00 Y8.00 Z0.40 E4.50 ; sets the jerk limits, mm/sec
M205 S0 T0 ; sets the minimum extruding and travel feed rate, mm/sec
M107
;TYPE:Custom
M862.3 P "MK3SMMU2S" ; printer model check
M862.1 P0.4 ; nozzle diameter check
M115 U3.10.0 ; tell printer latest fw version
G90 ; use absolute coordinates
M83 ; extruder relative mode
M104 S215 ; set extruder temp
M140 S60 ; set bed temp
Tx
M190 S60 ; wait for bed temp
M109 S215 ; wait for extruder temp
G28 W ; home all without mesh bed level
G80 ; mesh bed leveling

;go outside print area
G1 Y-3 F1000
G1 Z0.4 F1000
; select extruder
Tc
; purge line
G1 X55 F2000
G1 Z0.3 F1000
G92 E0
G1 X240 E25 F2200
G1 Y-2 F1000
G1 X55 E25 F1400
G1 Z0.2 F1000
M73 P0 R454
G1 X5 E4 F1000

M221 S95
G92 E0

; Don't change E values below. Excessive value can damage the printer.

M907 E538 ; set extruder motor current
G21 ; set units to millimeters
G90 ; use absolute coordinates
M83 ; use relative distances for extrusion
M900 K0.05 ; Filament gcode LA 1.5
M900 K30 ; Filament gcode LA 1.0
;LAYER_CHANGE
;Z:0.2
;HEIGHT:0.2
;BEFORE_LAYER_CHANGE
G92 E0.0
;0.2


G1 E-0.80000 F2100.000
G1 Z0.400 F720.000
;AFTER_LAYER_CHANGE
;0.2
G1 X16.496 Y22.646 F10800.000
G1 Z0.200 F720.000
G1 E0.80000 F2100.000
M204 S800
;TYPE:Skirt/Brim
;WIDTH:0.42
G1 F1200.000
G1 X17.542 Y21.770 E0.04278
G1 X18.482 Y21.576 E0.03008
G1 X231.519 Y21.576 E6.67963
G1 X232.826 Y21.968 E0.04278
G1 X233.702 Y23.014 E0.04278
G1 X233.896 Y23.953 E0.03008
G1 X233.896 Y186.047 E5.08232
G1 X233.504 Y187.354 E0.04278
G1 X232.458 Y188.230 E0.04278
G1 X231.519 Y188.424 E0.03008
G1 X18.482 Y188.424 E6.67963
G1 X17.174 Y188.032 E0.04278
M73 Q0 S456
G1 X16.298 Y186.986 E0.04278
G1 X16.104 Y186.047 E0.03008
G1 X16.104 Y23.953 E5.08232
G1 X16.479 Y22.704 E0.04090
M204 S1000
; printing object RightMid.stl id:0 copy 0
;WIPE_START
G1 F8640.000
G1 X17.542 Y21.770 E-0.32671
G1 X18.482 Y21.576 E-0.22155
G1 X19.399 Y21.576 E-0.21174
;WIPE_END
G1 E-0.04000 F2100.000
G1 Z0.600 F720.000
G1 X231.466 Y185.995 F10800.000
G1 Z0.200 F720.000
G1 E0.80000 F2100.000
M204 S800
;TYPE:Support material
G1 F1200.000
G1 X18.534 Y185.995 E6.67635
G1 X18.534 Y24.006 E5.07905
G1 X231.466 Y24.006 E6.67635
M73 P0 R453
G1 X231.466 Y185.938 E5.07728
M204 S1000
;WIPE_START
G1 F8640.000
G1 X231.466 Y182.647 E-0.76000
;WIPE_END
G1 E-0.04000 F2100.000
G1 Z0.600 F720.000
G1 X179.264 Y132.680 F10800.000
G1 Z0.200 F720.000
G1 E0.80000 F2100.000
M204 S800
G1 F1200.000
G1 X178.930 Y133.014 E0.01481
G1 X178.930 Y181.986 E1.53549
G1 X179.264 Y182.320 E0.01481
G1 X228.236 Y182.320 E1.53549
G1 X228.570 Y181.986 E0.01481
M73 Q0 S455
G1 X228.570 Y133.014 E1.53549
G1 X228.236 Y132.680 E0.01481
G1 X179.320 Y132.680 E1.53372
M204 S1000
G1 X126.764 Y132.680 F10800.000
M204 S800
G1 F1200.000
G1 X126.430 Y133.014 E0.01481
G1 X126.430 Y181.986 E1.53549
G1 X126.764 Y182.320 E0.01481
G1 X175.736 Y182.320 E1.53549
G1 X176.070 Y181.986 E0.01481
G1 X176.070 Y133.014 E1.53549
G1 X175.736 Y132.680 E0.01481
G1 X126.820 Y132.680 E1.53372
M204 S1000
G1 X74.264 Y132.680 F10800.000
M204 S800
G1 F1200.000
G1 X73.930 Y133.014 E0.01481
G1 X73.930 Y181.986 E1.53549
G1 X74.264 Y182.320 E0.01481
G1 X123.236 Y182.320 E1.53549
G1 X123.570 Y181.986 E0.01481
G1 X123.570 Y133.014 E1.53549
G1 X123.236 Y132.680 E0.01481
G1 X74.320 Y132.680 E1.53372
M204 S1000
G1 X21.764 Y132.680 F10800.000
M204 S800
G1 F1200.000
G1 X21.430 Y133.014 E0.01481
G1 X21.430 Y181.986 E1.53549
G1 X21.764 Y182.320 E0.01481
G1 X70.736 Y182.320 E1.53549
G1 X71.070 Y181.986 E0.01481
M73 P0 R452
G1 X71.070 Y133.014 E1.53549
G1 X70.736 Y132.680 E0.01481
G1 X21.820 Y132.680 E1.53372
M204 S1000
;WIPE_START
G1 F8640.000
G1 X25.112 Y132.680 E-0.76000
;WIPE_END
G1 E-0.04000 F2100.000
G1 Z0.600 F720.000
G1 X179.264 Y80.180 F10800.000
G1 Z0.200 F720.000
G1 E0.80000 F2100.000
M204 S800
G1 F1200.000
G1 X178.930 Y80.514 E0.01481
G1 X178.930 Y129.486 E1.53549
G1 X179.264 Y129.820 E0.01481
G1 X228.236 Y129.820 E1.53549
G1 X228.570 Y129.486 E0.01481
G1 X228.570 Y80.514 E1.53549
G1 X228.236 Y80.180 E0.01481
G1 X179.320 Y80.180 E1.53372
M204 S1000
G1 X126.764 Y80.180 F10800.000
M204 S800
G1 F1200.000
G1 X126.430 Y80.514 E0.01481
G1 X126.430 Y129.486 E1.53549
G1 X126.764 Y129.820 E0.01481
G1 X175.736 Y129.820 E1.53549
G1 X176.070 Y129.486 E0.01481
G1 X176.070 Y80.514 E1.53549
G1 X175.736 Y80.180 E0.01481
G1 X126.820 Y80.180 E1.53372
M204 S1000
G1 X74.264 Y80.180 F10800.000
M204 S800
G1 F1200.000
M73 Q0 S454
G1 X73.930 Y80.514 E0.01481
G1 X73.930 Y129.486 E1.53549
G1 X74.264 Y129.820 E0.01481
G1 X123.236 Y129.820 E1.53549
G1 X123.570 Y129.486 E0.01481
G1 X123.570 Y80.514 E1.53549
G1 X123.236 Y80.180 E0.01481
G1 X74.320 Y80.180 E1.53372
M204 S1000
G1 X21.764 Y80.180 F10800.000
M204 S800
G1 F1200.000
G1 X21.430 Y80.514 E0.01481
G1 X21.430 Y129.486 E1.53549
G1 X21.764 Y129.820 E0.01481
G1 X70.736 Y129.820 E1.53549
G1 X71.070 Y129.486 E0.01481
G1 X71.070 Y80.514 E1.53549
G1 X70.736 Y80.180 E0.01481
G1 X21.820 Y80.180 E1.53372
M204 S1000
;WIPE_START
G1 F8640.000
G1 X25.112 Y80.180 E-0.76000
;WIPE_END
G1 E-0.04000 F2100.000
G1 Z0.600 F720.000
G1 X179.264 Y27.680 F10800.000
G1 Z0.200 F720.000
G1 E0.80000 F2100.000
M204 S800
G1 F1200.000
G1 X178.930 Y28.014 E0.01481
G1 X178.930 Y76.986 E1.53549
G1 X179.264 Y77.320 E0.01481
G1 X228.236 Y77.320 E1.53549
G1 X228.570 Y76.986 E0.01481
G1 X228.570 Y28.014 E1.53549
G1 X228.236 Y27.680 E0.01481
G1 X179.320 Y27.680 E1.53372
M204 S1000
G1 X126.764 Y27.680 F10800.000
M204 S800
M73 P0 R451
G1 F1200.000
G1 X126.430 Y28.014 E0.01481
G1 X126.430 Y76.986 E1.53549
G1 X126.764 Y77.320 E0.01481
G1 X175.736 Y77.320 E1.53549
G1 X176.070 Y76.986 E0.01481
G1 X176.070 Y28.014 E1.53549
G1 X175.736 Y27.680 E0.01481
G1 X126.820 Y27.680 E1.53372
M204 S1000
G1 X74.264 Y27.680 F10800.000
M204 S800
G1 F1200.000
G1 X73.930 Y28.014 E0.01481
G1 X73.930 Y76.986 E1.53549
G1 X74.264 Y77.320 E0.01481
G1 X123.236 Y77.320 E1.53549
G1 X123.570 Y76.986 E0.01481
G1 X123.570 Y28.014 E1.53549
G1 X123.236 Y27.680 E0.01481
G1 X74.320 Y27.680 E1.53372
M204 S1000
G1 X21.764 Y27.680 F10800.000
M204 S800
G1 F1200.000
G1 X21.430 Y28.014 E0.01481
G1 X21.430 Y76.986 E1.53549
G1 X21.764 Y77.320 E0.01481
G1 X70.736 Y77.320 E1.53549
G1 X71.070 Y76.986 E0.01481
G1 X71.070 Y28.014 E1.53549
G1 X70.736 Y27.680 E0.01481
M73 Q0 S453
G1 X21.820 Y27.680 E1.53372
M204 S1000
;WIPE_START
G1 F8640.000
G1 X25.112 Y27.680 E-0.76000
;WIPE_END
G1 E-0.04000 F2100.000
G1 Z0.600 F720.000
G1 X231.001 Y185.825 F10800.000
G1 Z0.200 F720.000
G1 E0.80000 F2100.000
M204 S800
G1 F1200.000
G1 X231.001 Y24.345 E5.06309
G1 X230.582 Y24.345 E0.01314
G1 X230.582 Y185.655 E5.05777
G1 X230.163 Y185.655 E0.01314
G1 X230.163 Y24.345 E5.05777
G1 X229.744 Y24.345 E0.01314
G1 X229.744 Y185.655 E5.05777
G1 X229.325 Y185.655 E0.01314
M73 P0 R450
G1 X229.325 Y24.345 E5.05777
G1 X228.906 Y24.345 E0.01314
G1 X228.906 Y185.655 E5.05777
G1 X228.487 Y185.655 E0.01314
M73 P1 R450
M73 Q1 S453
G1 X228.487 Y182.549 E0.09740
G1 X228.377 Y182.659 E0.00491
G1 X228.068 Y182.659 E0.00967
G1 X228.068 Y185.655 E0.09393
G1 X227.649 Y185.655 E0.01314
G1 X227.649 Y182.659 E0.09393
G1 X227.230 Y182.659 E0.01314
G1 X227.230 Y185.655 E0.09393
G1 X226.811 Y185.655 E0.01314
G1 X226.811 Y182.659 E0.09393
G1 X226.392 Y182.659 E0.01314
G1 X226.392 Y185.655 E0.09393
G1 X225.973 Y185.655 E0.01314
G1 X225.973 Y182.659 E0.09393
G1 X225.554 Y182.659 E0.01314
G1 X225.554 Y185.655 E0.09393
G1 X225.135 Y185.655 E0.01314
G1 X225.135 Y182.659 E0.09393
G1 X224.717 Y182.659 E0.01314
G1 X224.717 Y185.655 E0.09393
G1 X224.298 Y185.655 E0.01314
G1 X224.298 Y182.659 E0.09393
G1 X223.879 Y182.659 E0.01314
G1 X223.879 Y185.655 E0.09393
G1 X223.460 Y185.655 E0.01314
G1 X223.460 Y182.659 E0.09393
G1 X223.041 Y182.659 E0.01314
G1 X223.041 Y185.655 E0.09393
G1 X222.622 Y185.655 E0.01314
G1 X222.622 Y182.659 E0.09393
G1 X222.203 Y182.659 E0.01314
G1 X222.203 Y185.655 E0.09393
G1 X221.784 Y185.655 E0.01314
G1 X221.784 Y182.659 E0.09393
G1 X221.365 Y182.659 E0.01314
G1 X221.365 Y185.655 E0.09393
G1 X220.946 Y185.655 E0.01314
G1 X220.946 Y182.659 E0.09393
G1 X220.527 Y182.659 E0.01314
G1 X220.527 Y185.655 E0.09393
G1 X220.108 Y185.655 E0.01314
G1 X220.108 Y182.659 E0.09393
G1 X219.689 Y182.659 E0.01314
G1 X219.689 Y185.655 E0.09393
G1 X219.270 Y185.655 E0.01314
G1 X219.270 Y182.659 E0.09393
G1 X218.851 Y182.659 E0.01314
G1 X218.851 Y185.655 E0.09393
G1 X218.432 Y185.655 E0.01314
G1 X218.432 Y182.659 E0.09393
G1 X218.013 Y182.659 E0.01314
G1 X218.013 Y185.655 E0.09393
G1 X217.594 Y185.655 E0.01314
M73 Q1 S452
G1 X217.594 Y182.659 E0.09393
G1 X217.175 Y182.659 E0.01314
G1 X217.175 Y185.655 E0.09393
G1 X216.756 Y185.655 E0.01314
G1 X216.756 Y182.659 E0.09393
G1 X216.337 Y182.659 E0.01314
G1 X216.337 Y185.655 E0.09393
G1 X215.918 Y185.655 E0.01314
G1 X215.918 Y182.659 E0.09393
G1 X215.499 Y182.659 E0.01314
G1 X215.499 Y185.655 E0.09393
G1 X215.080 Y185.655 E0.01314
G1 X215.080 Y182.659 E0.09393
G1 X214.661 Y182.659 E0.01314
G1 X214.661 Y185.655 E0.09393
G1 X214.242 Y185.655 E0.01314
G1 X214.242 Y182.659 E0.09393
G1 X213.823 Y182.659 E0.01314
G1 X213.823 Y185.655 E0.09393
G1 X213.404 Y185.655 E0.01314
G1 X213.404 Y182.659 E0.09393
G1 X212.985 Y182.659 E0.01314
G1 X212.985 Y185.655 E0.09393
G1 X212.566 Y185.655 E0.01314
G1 X212.566 Y182.659 E0.09393
G1 X212.147 Y182.659 E0.01314
G1 X212.147 Y185.655 E0.09393
G1 X211.728 Y185.655 E0.01314
G1 X211.728 Y182.659 E0.09393
G1 X211.309 Y182.659 E0.01314
G1 X211.309 Y185.655 E0.09393
G1 X210.890 Y185.655 E0.01314
G1 X210.890 Y182.659 E0.09393
G1 X210.471 Y182.659 E0.01314
G1 X210.471 Y185.655 E0.09393
G1 X210.052 Y185.655 E0.01314
G1 X210.052 Y182.659 E0.09393
G1 X209.633 Y182.659 E0.01314
G1 X209.633 Y185.655 E0.09393
G1 X209.214 Y185.655 E0.01314
G1 X209.214 Y182.659 E0.09393
G1 X208.795 Y182.659 E0.01314
G1 X208.795 Y185.655 E0.09393
G1 X208.376 Y185.655 E0.01314
G1 X208.376 Y182.659 E0.09393
G1 X207.957 Y182.659 E0.01314
G1 X207.957 Y185.655 E0.09393
G1 X207.538 Y185.655 E0.01314
G1 X207.538 Y182.659 E0.09393
G1 X207.119 Y182.659 E0.01314
G1 X207.119 Y185.655 E0.09393
G1 X206.701 Y185.655 E0.01314
G1 X206.701 Y182.659 E0.09393
G1 X206.282 Y182.659 E0.01314
G1 X206.282 Y185.655 E0.09393
G1 X205.863 Y185.655 E0.01314
G1 X205.863 Y182.659 E0.09393
G1 X205.444 Y182.659 E0.01314
G1 X205.444 Y185.655 E0.09393
G1 X205.025 Y185.655 E0.01314
G1 X205.025 Y182.659 E0.09393
G1 X204.606 Y182.659 E0.01314
G1 X204.606 Y185.655 E0.09393
G1 X204.187 Y185.655 E0.01314
G1 X204.187 Y182.659 E0.09393
G1 X203.768 Y182.659 E0.01314
G1 X203.768 Y185.655 E0.09393
G1 X203.349 Y185.655 E0.01314
G1 X203.349 Y182.659 E0.09393
G1 X202.930 Y182.659 E0.01314
G1 X202.930 Y185.655 E0.09393
G1 X202.511 Y185.655 E0.01314
G1 X202.511 Y182.659 E0.09393
G1 X202.092 Y182.659 E0.01314
G1 X202.092 Y185.655 E0.09393
G1 X201.673 Y185.655 E0.01314
G1 X201.673 Y182.659 E0.09393
G1 X201.254 Y182.659 E0.01314
G1 X201.254 Y185.655 E0.09393
G1 X200.835 Y185.655 E0.01314
G1 X200.835 Y182.659 E0.09393
G1 X200.416 Y182.659 E0.01314
G1 X200.416 Y185.655 E0.09393
G1 X199.997 Y185.655 E0.01314
G1 X199.997 Y182.659 E0.09393
G1 X199.578 Y182.659 E0.01314
G1 X199.578 Y185.655 E0.09393
G1 X199.159 Y185.655 E0.01314
G1 X199.159 Y182.659 E0.09393
G1 X198.740 Y182.659 E0.01314
G1 X198.740 Y185.655 E0.09393
G1 X198.321 Y185.655 E0.01314
G1 X198.321 Y182.659 E0.09393
G1 X197.902 Y182.659 E0.01314
G1 X197.902 Y185.655 E0.09393
G1 X197.483 Y185.655 E0.01314
G1 X197.483 Y182.659 E0.09393
G1 X197.064 Y182.659 E0.01314
G1 X197.064 Y185.655 E0.09393
G1 X196.645 Y185.655 E0.01314
G1 X196.645 Y182.659 E0.09393
G1 X196.226 Y182.659 E0.01314
G1 X196.226 Y185.655 E0.09393
G1 X195.807 Y185.655 E0.01314
G1 X195.807 Y182.659 E0.09393
G1 X195.388 Y182.659 E0.01314
G1 X195.388 Y185.655 E0.09393
G1 X194.969 Y185.655 E0.01314
G1 X194.969 Y182.659 E0.09393
G1 X194.550 Y182.659 E0.01314
G1 X194.550 Y185.655 E0.09393
G1 X194.131 Y185.655 E0.01314
G1 X194.131 Y182.659 E0.09393
G1 X193.712 Y182.659 E0.01314
G1 X193.712 Y185.655 E0.09393
G1 X193.293 Y185.655 E0.01314
G1 X193.293 Y182.659 E0.09393
G1 X192.874 Y182.659 E0.01314
G1 X192.874 Y185.655 E0.09393
G1 X192.455 Y185.655 E0.01314
G1 X192.455 Y182.659 E0.09393
G1 X192.036 Y182.659 E0.01314
G1 X192.036 Y185.655 E0.09393
G1 X191.617 Y185.655 E0.01314
G1 X191.617 Y182.659 E0.09393
G1 X191.198 Y182.659 E0.01314
G1 X191.198 Y185.655 E0.09393
G1 X190.779 Y185.655 E0.01314
G1 X190.779 Y182.659 E0.09393
G1 X190.360 Y182.659 E0.01314
G1 X190.360 Y185.655 E0.09393
G1 X189.941 Y185.655 E0.01314
G1 X189.941 Y182.659 E0.09393
G1 X189.522 Y182.659 E0.01314
G1 X189.522 Y185.655 E0.09393
G1 X189.103 Y185.655 E0.01314
G1 X189.103 Y182.659 E0.09393
G1 X188.684 Y182.659 E0.01314
G1 X188.684 Y185.655 E0.09393
G1 X188.266 Y185.655 E0.01314
G1 X188.266 Y182.659 E0.09393
G1 X187.847 Y182.659 E0.01314
G1 X187.847 Y185.655 E0.09393
G1 X187.428 Y185.655 E0.01314
G1 X187.428 Y182.659 E0.09393
G1 X187.009 Y182.659 E0.01314
G1 X187.009 Y185.655 E0.09393
G1 X186.590 Y185.655 E0.01314
G1 X186.590 Y182.659 E0.09393
G1 X186.171 Y182.659 E0.01314
G1 X186.171 Y185.655 E0.09393
G1 X185.752 Y185.655 E0.01314
G1 X185.752 Y182.659 E0.09393
G1 X185.333 Y182.659 E0.01314
G1 X185.333 Y185.655 E0.09393
G1 X184.914 Y185.655 E0.01314
G1 X184.914 Y182.659 E0.09393
G1 X184.495 Y182.659 E0.01314
G1 X184.495 Y185.655 E0.09393
G1 X184.076 Y185.655 E0.01314
G1 X184.076 Y182.659 E0.09393
G1 X183.657 Y182.659 E0.01314
G1 X183.657 Y185.655 E0.09393
G1 X183.238 Y185.655 E0.01314
G1 X183.238 Y182.659 E0.09393
G1 X182.819 Y182.659 E0.01314
G1 X182.819 Y185.655 E0.09393
G1 X182.400 Y185.655 E0.01314
G1 X182.400 Y182.659 E0.09393
G1 X181.981 Y182.659 E0.01314
G1 X181.981 Y185.655 E0.09393
G1 X181.562 Y185.655 E0.01314
G1 X181.562 Y182.659 E0.09393
G1 X181.143 Y182.659 E0.01314
G1 X181.143 Y185.655 E0.09393
G1 X180.724 Y185.655 E0.01314
G1 X180.724 Y182.659 E0.09393
G1 X180.305 Y182.659 E0.01314
G1 X180.305 Y185.655 E0.09393
G1 X179.886 Y185.655 E0.01314
G1 X179.886 Y182.659 E0.09393
G1 X179.467 Y182.659 E0.01314
G1 X179.467 Y185.655 E0.09393
G1 X179.048 Y185.655 E0.01314
G1 X179.048 Y182.344 E0.10382
M204 S1000
;WIPE_START
G1 F8640.000
G1 X179.048 Y185.636 E-0.76000
;WIPE_END
G1 E-0.04000 F2100.000
G1 Z0.600 F720.000
G1 X228.487 Y132.691 F10800.000
G1 Z0.200 F720.000
G1 E0.80000 F2100.000
M204 S800
G1 F1200.000
G1 X228.487 Y130.049 E0.08285
G1 X228.377 Y130.159 E0.00491
G1 X228.068 Y130.159 E0.00967
G1 X228.068 Y132.341 E0.06839
G1 X227.649 Y132.341 E0.01314
G1 X227.649 Y130.159 E0.06839
G1 X227.230 Y130.159 E0.01314
G1 X227.230 Y132.341 E0.06839
G1 X226.811 Y132.341 E0.01314
G1 X226.811 Y130.159 E0.06839
G1 X226.392 Y130.159 E0.01314
G1 X226.392 Y132.341 E0.06839
G1 X225.973 Y132.341 E0.01314
G1 X225.973 Y130.159 E0.06839
G1 X225.554 Y130.159 E0.01314
G1 X225.554 Y132.341 E0.06839
G1 X225.136 Y132.341 E0.01314
G1 X225.136 Y130.159 E0.06839
G1 X224.717 Y130.159 E0.01314
G1 X224.717 Y132.341 E0.06839
G1 X224.298 Y132.341 E0.01314
G1 X224.298 Y130.159 E0.06839
G1 X223.879 Y130.159 E0.01314
G1 X223.879 Y132.341 E0.06839
G1 X223.460 Y132.341 E0.01314
G1 X223.460 Y130.159 E0.06839
G1 X223.041 Y130.159 E0.01314
G1 X223.041 Y132.341 E0.06839
G1 X222.622 Y132.341 E0.01314
G1 X222.622 Y130.159 E0.06839
G1 X222.203 Y130.159 E0.01314
G1 X222.203 Y132.341 E0.06839
G1 X221.784 Y132.341 E0.01314
G1 X221.784 Y130.159 E0.06839
G1 X221.365 Y130.159 E0.01314
G1 X221.365 Y132.341 E0.06839
G1 X220.946 Y132.341 E0.01314
