; generated by PrusaSlicer 2.4.0-alpha1+x64 on 2021-09-06 at 01:34:19 UTC

; 

; external perimeters extrusion width = 0.60mm
; perimeters extrusion width = 0.50mm
; infill extrusion width = 0.50mm
; solid infill extrusion width = 0.50mm
; top infill extrusion width = 0.45mm
; support material extrusion width = 0.38mm
; first layer extrusion width = 0.42mm

M73 P0 R121
M73 Q0 S121
M201 X1000 Y1000 Z200 E5000 ; sets maximum accelerations, mm/sec^2
M203 X200 Y200 Z12 E120 ; sets maximum feedrates, mm/sec
M204 P1250 R1250 T1250 ; sets acceleration (P, T) and retract acceleration (R), mm/sec^2
M205 X8.00 Y8.00 Z0.40 E4.50 ; sets the jerk limits, mm/sec
M205 S0 T0 ; sets the minimum extruding and travel feed rate, mm/sec
M107
;TYPE:Custom
M862.3 P "MK3SMMU2S" ; printer model check
M862.1 P0.4 ; nozzle diameter check
M115 U3.10.0 ; tell printer latest fw version
G90 ; use absolute coordinates
M83 ; extruder relative mode
M104 S215 ; set extruder temp
M140 S60 ; set bed temp
Tx
M190 S60 ; wait for bed temp
M109 S215 ; wait for extruder temp
G28 W ; home all without mesh bed level
G80 ; mesh bed leveling

;go outside print area
G1 Y-3 F1000
G1 Z0.4 F1000
; select extruder
Tc
; purge line
G1 X55 F2000
G1 Z0.3 F1000
G92 E0
G1 X240 E25 F2200
G1 Y-2 F1000
G1 X55 E25 F1400
G1 Z0.2 F1000
M73 P0 R120
G1 X5 E4 F1000

M221 S95
G92 E0

; Don't change E values below. Excessive value can damage the printer.

M907 E538 ; set extruder motor current
G21 ; set units to millimeters
G90 ; use absolute coordinates
M83 ; use relative distances for extrusion
M900 K0.05 ; Filament gcode LA 1.5
M900 K30 ; Filament gcode LA 1.0
;LAYER_CHANGE
;Z:0.2
;HEIGHT:0.2
;BEFORE_LAYER_CHANGE
G92 E0.0
;0.2


G1 E-0.80000 F2100.000
G1 Z0.400 F720.000
;AFTER_LAYER_CHANGE
;0.2
G1 X95.227 Y22.646 F10800.000
G1 Z0.200 F720.000
G1 E0.80000 F2100.000
M204 S800
;TYPE:Skirt/Brim
;WIDTH:0.42
G1 F1200.000
G1 X96.273 Y21.770 E0.04278
G1 X97.213 Y21.576 E0.03008
G1 X152.787 Y21.576 E1.74251
G1 X154.094 Y21.968 E0.04278
G1 X154.971 Y23.014 E0.04278
G1 X155.165 Y23.953 E0.03008
G1 X155.165 Y186.047 E5.08232
G1 X154.773 Y187.354 E0.04278
G1 X153.727 Y188.230 E0.04278
G1 X152.787 Y188.424 E0.03008
G1 X97.213 Y188.424 E1.74251
G1 X95.906 Y188.032 E0.04278
G1 X95.029 Y186.986 E0.04278
G1 X94.835 Y186.047 E0.03008
G1 X94.835 Y23.953 E5.08232
G1 X95.210 Y22.704 E0.04090
M204 S1000
; printing object LeftFront.stl id:0 copy 0
;WIPE_START
G1 F8640.000
G1 X96.273 Y21.770 E-0.32671
G1 X97.213 Y21.576 E-0.22155
G1 X98.130 Y21.576 E-0.21174
;WIPE_END
G1 E-0.04000 F2100.000
G1 Z0.600 F720.000
G1 X152.735 Y185.995 F10800.000
G1 Z0.200 F720.000
G1 E0.80000 F2100.000
M204 S800
;TYPE:Support material
G1 F1200.000
G1 X97.265 Y185.995 E1.73924
G1 X97.265 Y24.006 E5.07905
M73 Q0 S120
G1 X152.735 Y24.006 E1.73924
G1 X152.735 Y185.938 E5.07728
M204 S1000
;WIPE_START
G1 F8640.000
G1 X152.735 Y182.647 E-0.76000
;WIPE_END
G1 E-0.04000 F2100.000
G1 Z0.600 F720.000
G1 X100.514 Y132.680 F10800.000
G1 Z0.200 F720.000
G1 E0.80000 F2100.000
M204 S800
G1 F1200.000
G1 X100.180 Y133.014 E0.01481
G1 X100.180 Y181.986 E1.53549
G1 X100.514 Y182.320 E0.01481
G1 X149.486 Y182.320 E1.53549
G1 X149.820 Y181.986 E0.01481
G1 X149.820 Y133.014 E1.53549
G1 X149.486 Y132.680 E0.01481
M73 P1 R120
M73 Q1 S120
G1 X100.570 Y132.680 E1.53372
M204 S1000
;WIPE_START
G1 F8640.000
M73 P1 R119
G1 X103.862 Y132.680 E-0.76000
;WIPE_END
G1 E-0.04000 F2100.000
G1 Z0.600 F720.000
G1 X100.514 Y80.180 F10800.000
G1 Z0.200 F720.000
G1 E0.80000 F2100.000
M204 S800
G1 F1200.000
G1 X100.180 Y80.514 E0.01481
G1 X100.180 Y129.486 E1.53549
G1 X100.514 Y129.820 E0.01481
G1 X149.486 Y129.820 E1.53549
G1 X149.820 Y129.486 E0.01481
G1 X149.820 Y80.514 E1.53549
G1 X149.486 Y80.180 E0.01481
G1 X100.570 Y80.180 E1.53372
M204 S1000
;WIPE_START
G1 F8640.000
G1 X103.862 Y80.180 E-0.76000
;WIPE_END
G1 E-0.04000 F2100.000
G1 Z0.600 F720.000
G1 X100.514 Y27.680 F10800.000
G1 Z0.200 F720.000
G1 E0.80000 F2100.000
M204 S800
G1 F1200.000
G1 X100.180 Y28.014 E0.01481
G1 X100.180 Y76.986 E1.53549
G1 X100.514 Y77.320 E0.01481
G1 X149.486 Y77.320 E1.53549
G1 X149.820 Y76.986 E0.01481
G1 X149.820 Y28.014 E1.53549
G1 X149.486 Y27.680 E0.01481
G1 X100.570 Y27.680 E1.53372
M204 S1000
;WIPE_START
G1 F8640.000
G1 X103.862 Y27.680 E-0.76000
;WIPE_END
G1 E-0.04000 F2100.000
G1 Z0.600 F720.000
G1 X152.233 Y185.825 F10800.000
G1 Z0.200 F720.000
G1 E0.80000 F2100.000
M204 S800
G1 F1200.000
G1 X152.234 Y24.345 E5.06309
G1 X151.815 Y24.345 E0.01314
M73 Q1 S119
G1 X151.815 Y185.655 E5.05777
G1 X151.396 Y185.655 E0.01314
G1 X151.396 Y24.345 E5.05777
G1 X150.977 Y24.345 E0.01314
G1 X150.977 Y185.655 E5.05777
G1 X150.558 Y185.655 E0.01314
G1 X150.558 Y24.345 E5.05777
G1 X150.139 Y24.345 E0.01314
M73 P1 R118
G1 X150.139 Y185.655 E5.05777
G1 X149.720 Y185.655 E0.01314
M73 P2 R118
M73 Q2 S119
G1 X149.720 Y182.566 E0.09685
G1 X149.627 Y182.659 E0.00412
G1 X149.301 Y182.659 E0.01022
G1 X149.301 Y185.655 E0.09393
G1 X148.882 Y185.655 E0.01314
G1 X148.882 Y182.659 E0.09393
G1 X148.463 Y182.659 E0.01314
G1 X148.463 Y185.655 E0.09393
G1 X148.044 Y185.655 E0.01314
G1 X148.044 Y182.659 E0.09393
G1 X147.625 Y182.659 E0.01314
G1 X147.625 Y185.655 E0.09393
G1 X147.206 Y185.655 E0.01314
G1 X147.206 Y182.659 E0.09393
G1 X146.787 Y182.659 E0.01314
G1 X146.787 Y185.655 E0.09393
G1 X146.368 Y185.655 E0.01314
G1 X146.368 Y182.659 E0.09393
G1 X145.949 Y182.659 E0.01314
G1 X145.949 Y185.655 E0.09393
G1 X145.530 Y185.655 E0.01314
G1 X145.530 Y182.659 E0.09393
G1 X145.111 Y182.659 E0.01314
G1 X145.111 Y185.655 E0.09393
G1 X144.692 Y185.655 E0.01314
G1 X144.692 Y182.659 E0.09393
G1 X144.273 Y182.659 E0.01314
G1 X144.273 Y185.655 E0.09393
G1 X143.854 Y185.655 E0.01314
G1 X143.854 Y182.659 E0.09393
G1 X143.435 Y182.659 E0.01314
G1 X143.435 Y185.655 E0.09393
G1 X143.016 Y185.655 E0.01314
G1 X143.016 Y182.659 E0.09393
G1 X142.597 Y182.659 E0.01314
G1 X142.597 Y185.655 E0.09393
G1 X142.178 Y185.655 E0.01314
G1 X142.178 Y182.659 E0.09393
G1 X141.759 Y182.659 E0.01314
G1 X141.759 Y185.655 E0.09393
G1 X141.340 Y185.655 E0.01314
G1 X141.340 Y182.659 E0.09393
G1 X140.921 Y182.659 E0.01314
G1 X140.921 Y185.655 E0.09393
G1 X140.502 Y185.655 E0.01314
G1 X140.502 Y182.659 E0.09393
G1 X140.083 Y182.659 E0.01314
G1 X140.083 Y185.655 E0.09393
G1 X139.664 Y185.655 E0.01314
G1 X139.664 Y182.659 E0.09393
G1 X139.245 Y182.659 E0.01314
G1 X139.245 Y185.655 E0.09393
G1 X138.826 Y185.655 E0.01314
G1 X138.826 Y182.659 E0.09393
G1 X138.407 Y182.659 E0.01314
G1 X138.407 Y185.655 E0.09393
G1 X137.988 Y185.655 E0.01314
G1 X137.988 Y182.659 E0.09393
G1 X137.569 Y182.659 E0.01314
G1 X137.569 Y185.655 E0.09393
G1 X137.150 Y185.655 E0.01314
G1 X137.150 Y182.659 E0.09393
G1 X136.731 Y182.659 E0.01314
G1 X136.731 Y185.655 E0.09393
G1 X136.312 Y185.655 E0.01314
G1 X136.312 Y182.659 E0.09393
G1 X135.893 Y182.659 E0.01314
G1 X135.893 Y185.655 E0.09393
G1 X135.474 Y185.655 E0.01314
G1 X135.474 Y182.659 E0.09393
G1 X135.055 Y182.659 E0.01314
G1 X135.055 Y185.655 E0.09393
G1 X134.636 Y185.655 E0.01314
G1 X134.636 Y182.659 E0.09393
G1 X134.217 Y182.659 E0.01314
G1 X134.217 Y185.655 E0.09393
G1 X133.799 Y185.655 E0.01314
G1 X133.799 Y182.659 E0.09393
G1 X133.380 Y182.659 E0.01314
G1 X133.380 Y185.655 E0.09393
G1 X132.961 Y185.655 E0.01314
G1 X132.961 Y182.659 E0.09393
G1 X132.542 Y182.659 E0.01314
G1 X132.542 Y185.655 E0.09393
G1 X132.123 Y185.655 E0.01314
G1 X132.123 Y182.659 E0.09393
G1 X131.704 Y182.659 E0.01314
G1 X131.704 Y185.655 E0.09393
G1 X131.285 Y185.655 E0.01314
G1 X131.285 Y182.659 E0.09393
G1 X130.866 Y182.659 E0.01314
G1 X130.866 Y185.655 E0.09393
G1 X130.447 Y185.655 E0.01314
G1 X130.447 Y182.659 E0.09393
G1 X130.028 Y182.659 E0.01314
G1 X130.028 Y185.655 E0.09393
G1 X129.609 Y185.655 E0.01314
G1 X129.609 Y182.659 E0.09393
G1 X129.190 Y182.659 E0.01314
G1 X129.190 Y185.655 E0.09393
G1 X128.771 Y185.655 E0.01314
G1 X128.771 Y182.659 E0.09393
G1 X128.352 Y182.659 E0.01314
G1 X128.352 Y185.655 E0.09393
G1 X127.933 Y185.655 E0.01314
G1 X127.933 Y182.659 E0.09393
G1 X127.514 Y182.659 E0.01314
G1 X127.514 Y185.655 E0.09393
G1 X127.095 Y185.655 E0.01314
G1 X127.095 Y182.659 E0.09393
G1 X126.676 Y182.659 E0.01314
G1 X126.676 Y185.655 E0.09393
G1 X126.257 Y185.655 E0.01314
G1 X126.257 Y182.659 E0.09393
G1 X125.838 Y182.659 E0.01314
G1 X125.838 Y185.655 E0.09393
G1 X125.419 Y185.655 E0.01314
G1 X125.419 Y182.659 E0.09393
G1 X125.000 Y182.659 E0.01314
G1 X125.000 Y185.655 E0.09393
G1 X124.581 Y185.655 E0.01314
G1 X124.581 Y182.659 E0.09393
G1 X124.162 Y182.659 E0.01314
G1 X124.162 Y185.655 E0.09393
G1 X123.743 Y185.655 E0.01314
G1 X123.743 Y182.659 E0.09393
G1 X123.324 Y182.659 E0.01314
G1 X123.324 Y185.655 E0.09393
G1 X122.905 Y185.655 E0.01314
G1 X122.905 Y182.659 E0.09393
G1 X122.486 Y182.659 E0.01314
G1 X122.486 Y185.655 E0.09393
G1 X122.067 Y185.655 E0.01314
G1 X122.067 Y182.659 E0.09393
G1 X121.648 Y182.659 E0.01314
G1 X121.648 Y185.655 E0.09393
G1 X121.229 Y185.655 E0.01314
G1 X121.229 Y182.659 E0.09393
G1 X120.810 Y182.659 E0.01314
G1 X120.810 Y185.655 E0.09393
G1 X120.391 Y185.655 E0.01314
G1 X120.391 Y182.659 E0.09393
G1 X119.972 Y182.659 E0.01314
G1 X119.972 Y185.655 E0.09393
G1 X119.553 Y185.655 E0.01314
G1 X119.553 Y182.659 E0.09393
G1 X119.134 Y182.659 E0.01314
G1 X119.134 Y185.655 E0.09393
G1 X118.715 Y185.655 E0.01314
G1 X118.715 Y182.659 E0.09393
G1 X118.296 Y182.659 E0.01314
G1 X118.296 Y185.655 E0.09393
G1 X117.877 Y185.655 E0.01314
G1 X117.877 Y182.659 E0.09393
G1 X117.458 Y182.659 E0.01314
G1 X117.458 Y185.655 E0.09393
G1 X117.039 Y185.655 E0.01314
G1 X117.039 Y182.659 E0.09393
G1 X116.620 Y182.659 E0.01314
G1 X116.620 Y185.655 E0.09393
G1 X116.201 Y185.655 E0.01314
G1 X116.201 Y182.659 E0.09393
G1 X115.782 Y182.659 E0.01314
G1 X115.782 Y185.655 E0.09393
G1 X115.364 Y185.655 E0.01314
G1 X115.364 Y182.659 E0.09393
G1 X114.945 Y182.659 E0.01314
G1 X114.945 Y185.655 E0.09393
G1 X114.526 Y185.655 E0.01314
G1 X114.526 Y182.659 E0.09393
G1 X114.107 Y182.659 E0.01314
G1 X114.107 Y185.655 E0.09393
G1 X113.688 Y185.655 E0.01314
G1 X113.688 Y182.659 E0.09393
G1 X113.269 Y182.659 E0.01314
G1 X113.269 Y185.655 E0.09393
G1 X112.850 Y185.655 E0.01314
G1 X112.850 Y182.659 E0.09393
G1 X112.431 Y182.659 E0.01314
G1 X112.431 Y185.655 E0.09393
G1 X112.012 Y185.655 E0.01314
M73 Q2 S118
G1 X112.012 Y182.659 E0.09393
G1 X111.593 Y182.659 E0.01314
G1 X111.593 Y185.655 E0.09393
G1 X111.174 Y185.655 E0.01314
G1 X111.174 Y182.659 E0.09393
G1 X110.755 Y182.659 E0.01314
G1 X110.755 Y185.655 E0.09393
G1 X110.336 Y185.655 E0.01314
G1 X110.336 Y182.659 E0.09393
G1 X109.917 Y182.659 E0.01314
G1 X109.917 Y185.655 E0.09393
G1 X109.498 Y185.655 E0.01314
G1 X109.498 Y182.659 E0.09393
G1 X109.079 Y182.659 E0.01314
G1 X109.079 Y185.655 E0.09393
G1 X108.660 Y185.655 E0.01314
G1 X108.660 Y182.659 E0.09393
G1 X108.241 Y182.659 E0.01314
G1 X108.241 Y185.655 E0.09393
G1 X107.822 Y185.655 E0.01314
G1 X107.822 Y182.659 E0.09393
G1 X107.403 Y182.659 E0.01314
G1 X107.403 Y185.655 E0.09393
G1 X106.984 Y185.655 E0.01314
G1 X106.984 Y182.659 E0.09393
G1 X106.565 Y182.659 E0.01314
G1 X106.565 Y185.655 E0.09393
G1 X106.146 Y185.655 E0.01314
G1 X106.146 Y182.659 E0.09393
G1 X105.727 Y182.659 E0.01314
G1 X105.727 Y185.655 E0.09393
G1 X105.308 Y185.655 E0.01314
G1 X105.308 Y182.659 E0.09393
G1 X104.889 Y182.659 E0.01314
G1 X104.889 Y185.655 E0.09393
G1 X104.470 Y185.655 E0.01314
G1 X104.470 Y182.659 E0.09393
G1 X104.051 Y182.659 E0.01314
G1 X104.051 Y185.655 E0.09393
G1 X103.632 Y185.655 E0.01314
G1 X103.632 Y182.659 E0.09393
G1 X103.213 Y182.659 E0.01314
G1 X103.213 Y185.655 E0.09393
G1 X102.794 Y185.655 E0.01314
G1 X102.794 Y182.659 E0.09393
G1 X102.375 Y182.659 E0.01314
G1 X102.375 Y185.655 E0.09393
G1 X101.956 Y185.655 E0.01314
G1 X101.956 Y182.659 E0.09393
G1 X101.537 Y182.659 E0.01314
G1 X101.537 Y185.655 E0.09393
G1 X101.118 Y185.655 E0.01314
G1 X101.118 Y182.659 E0.09393
G1 X100.699 Y182.659 E0.01314
G1 X100.699 Y185.655 E0.09393
G1 X100.280 Y185.655 E0.01314
G1 X100.280 Y182.326 E0.10437
M204 S1000
;WIPE_START
G1 F8640.000
G1 X100.280 Y185.618 E-0.76000
;WIPE_END
G1 E-0.04000 F2100.000
G1 Z0.600 F720.000
G1 X149.720 Y132.674 F10800.000
G1 Z0.200 F720.000
G1 E0.80000 F2100.000
M204 S800
G1 F1200.000
G1 X149.720 Y130.066 E0.08175
G1 X149.627 Y130.159 E0.00412
G1 X149.301 Y130.159 E0.01022
G1 X149.301 Y132.341 E0.06839
G1 X148.882 Y132.341 E0.01314
G1 X148.882 Y130.159 E0.06839
G1 X148.463 Y130.159 E0.01314
G1 X148.463 Y132.341 E0.06839
G1 X148.044 Y132.341 E0.01314
G1 X148.044 Y130.159 E0.06839
G1 X147.625 Y130.159 E0.01314
G1 X147.625 Y132.341 E0.06839
G1 X147.206 Y132.341 E0.01314
G1 X147.206 Y130.159 E0.06839
G1 X146.787 Y130.159 E0.01314
G1 X146.787 Y132.341 E0.06839
G1 X146.368 Y132.341 E0.01314
G1 X146.368 Y130.159 E0.06839
G1 X145.949 Y130.159 E0.01314
G1 X145.949 Y132.341 E0.06839
G1 X145.530 Y132.341 E0.01314
G1 X145.530 Y130.159 E0.06839
G1 X145.111 Y130.159 E0.01314
G1 X145.111 Y132.341 E0.06839
G1 X144.692 Y132.341 E0.01314
G1 X144.692 Y130.159 E0.06839
G1 X144.273 Y130.159 E0.01314
G1 X144.273 Y132.341 E0.06839
G1 X143.854 Y132.341 E0.01314
G1 X143.854 Y130.159 E0.06839
G1 X143.435 Y130.159 E0.01314
G1 X143.435 Y132.341 E0.06839
G1 X143.016 Y132.341 E0.01314
G1 X143.016 Y130.159 E0.06839
G1 X142.597 Y130.159 E0.01314
G1 X142.597 Y132.341 E0.06839
G1 X142.178 Y132.341 E0.01314
G1 X142.178 Y130.159 E0.06839
G1 X141.759 Y130.159 E0.01314
G1 X141.759 Y132.341 E0.06839
G1 X141.340 Y132.341 E0.01314
G1 X141.340 Y130.159 E0.06839
G1 X140.921 Y130.159 E0.01314
G1 X140.921 Y132.341 E0.06839
G1 X140.502 Y132.341 E0.01314
G1 X140.502 Y130.159 E0.06839
G1 X140.083 Y130.159 E0.01314
G1 X140.083 Y132.341 E0.06839
G1 X139.664 Y132.341 E0.01314
G1 X139.664 Y130.159 E0.06839
G1 X139.245 Y130.159 E0.01314
G1 X139.245 Y132.341 E0.06839
G1 X138.826 Y132.341 E0.01314
G1 X138.826 Y130.159 E0.06839
G1 X138.407 Y130.159 E0.01314
G1 X138.407 Y132.341 E0.06839
G1 X137.988 Y132.341 E0.01314
G1 X137.988 Y130.159 E0.06839
G1 X137.569 Y130.159 E0.01314
G1 X137.569 Y132.341 E0.06839
G1 X137.150 Y132.341 E0.01314
G1 X137.150 Y130.159 E0.06839
G1 X136.731 Y130.159 E0.01314
G1 X136.731 Y132.341 E0.06839
G1 X136.312 Y132.341 E0.01314
G1 X136.312 Y130.159 E0.06839
G1 X135.893 Y130.159 E0.01314
G1 X135.893 Y132.341 E0.06839
G1 X135.474 Y132.341 E0.01314
G1 X135.474 Y130.159 E0.06839
G1 X135.055 Y130.159 E0.01314
G1 X135.055 Y132.341 E0.06839
G1 X134.636 Y132.341 E0.01314
G1 X134.636 Y130.159 E0.06839
G1 X134.217 Y130.159 E0.01314
G1 X134.217 Y132.341 E0.06839
G1 X133.799 Y132.341 E0.01314
G1 X133.799 Y130.159 E0.06839
G1 X133.380 Y130.159 E0.01314
G1 X133.380 Y132.341 E0.06839
G1 X132.961 Y132.341 E0.01314
G1 X132.961 Y130.159 E0.06839
G1 X132.542 Y130.159 E0.01314
G1 X132.542 Y132.341 E0.06839
G1 X132.123 Y132.341 E0.01314
G1 X132.123 Y130.159 E0.06839
G1 X131.704 Y130.159 E0.01314
G1 X131.704 Y132.341 E0.06839
G1 X131.285 Y132.341 E0.01314
G1 X131.285 Y130.159 E0.06839
G1 X130.866 Y130.159 E0.01314
G1 X130.866 Y132.341 E0.06839
G1 X130.447 Y132.341 E0.01314
G1 X130.447 Y130.159 E0.06839
G1 X130.028 Y130.159 E0.01314
G1 X130.028 Y132.341 E0.06839
G1 X129.609 Y132.341 E0.01314
G1 X129.609 Y130.159 E0.06839
G1 X129.190 Y130.159 E0.01314
G1 X129.190 Y132.341 E0.06839
G1 X128.771 Y132.341 E0.01314
G1 X128.771 Y130.159 E0.06839
G1 X128.352 Y130.159 E0.01314
G1 X128.352 Y132.341 E0.06839
G1 X127.933 Y132.341 E0.01314
G1 X127.933 Y130.159 E0.06839
G1 X127.514 Y130.159 E0.01314
G1 X127.514 Y132.341 E0.06839
G1 X127.095 Y132.341 E0.01314
G1 X127.095 Y130.159 E0.06839
G1 X126.676 Y130.159 E0.01314
G1 X126.676 Y132.341 E0.06839
G1 X126.257 Y132.341 E0.01314
G1 X126.257 Y130.159 E0.06839
G1 X125.838 Y130.159 E0.01314
G1 X125.838 Y132.341 E0.06839
G1 X125.419 Y132.341 E0.01314
G1 X125.419 Y130.159 E0.06839
G1 X125.000 Y130.159 E0.01314
G1 X125.000 Y132.341 E0.06839
G1 X124.581 Y132.341 E0.01314
G1 X124.581 Y130.159 E0.06839
G1 X124.162 Y130.159 E0.01314
G1 X124.162 Y132.341 E0.06839
G1 X123.743 Y132.341 E0.01314
G1 X123.743 Y130.159 E0.06839
G1 X123.324 Y130.159 E0.01314
