; generated by PrusaSlicer 2.3.3+x64 on 2021-08-29 at 18:04:50 UTC

; 

; external perimeters extrusion width = 0.60mm
; perimeters extrusion width = 0.50mm
; infill extrusion width = 0.50mm
; solid infill extrusion width = 0.50mm
; top infill extrusion width = 0.45mm
; first layer extrusion width = 0.42mm

M73 P0 R25
M73 Q0 S25
M201 X1000 Y1000 Z200 E5000 ; sets maximum accelerations, mm/sec^2
M203 X200 Y200 Z12 E120 ; sets maximum feedrates, mm/sec
M204 P1250 R1250 T1250 ; sets acceleration (P, T) and retract acceleration (R), mm/sec^2
M205 X8.00 Y8.00 Z0.40 E4.50 ; sets the jerk limits, mm/sec
M205 S0 T0 ; sets the minimum extruding and travel feed rate, mm/sec
M107
;TYPE:Custom
M862.3 P "MK3S" ; printer model check
M862.1 P0.4 ; nozzle diameter check
M115 U3.10.0 ; tell printer latest fw version
G90 ; use absolute coordinates
M83 ; extruder relative mode
M104 S215 ; set extruder temp
M140 S65 ; set bed temp
M190 S65 ; wait for bed temp
M109 S215 ; wait for extruder temp
G28 W ; home all without mesh bed level
G80 ; mesh bed leveling
G1 Y-3.0 F1000.0 ; go outside print area
G92 E0.0
G1 X60.0 E9.0 F1000.0 ; intro line
M73 P0 R24
G1 X100.0 E12.5 F1000.0 ; intro line
G92 E0.0
M221 S95

; Don't change E values below. Excessive value can damage the printer.

M907 E538 ; set extruder motor current
G21 ; set units to millimeters
G90 ; use absolute coordinates
M83 ; use relative distances for extrusion
M900 K0.05 ; Filament gcode LA 1.5
M900 K30 ; Filament gcode LA 1.0
;LAYER_CHANGE
;Z:0.2
;HEIGHT:0.2
;BEFORE_LAYER_CHANGE
G92 E0.0
;0.2


G1 E-0.80000 F2100.000
G1 Z0.400 F10800.000
;AFTER_LAYER_CHANGE
;0.2
G1 X37.153 Y32.917
G1 Z0.200
G1 E0.80000 F2100.000
M204 S1000
;TYPE:Skirt
;WIDTH:0.42
G1 F1200.000
G1 X37.501 Y32.248 E0.02367
G1 X37.873 Y31.851 E0.01704
G1 X38.329 Y31.548 E0.01716
G1 X38.838 Y31.358 E0.01704
G1 X39.381 Y31.289 E0.01716
G1 X110.342 Y30.854 E2.22497
G1 X162.853 Y30.854 E1.64644
G1 X163.755 Y31.033 E0.02884
G1 X164.521 Y31.542 E0.02884
G1 X165.037 Y32.303 E0.02884
G1 X165.226 Y33.203 E0.02884
G1 X165.226 Y196.239 E5.11186
M73 P1 R24
M73 Q1 S24
G1 X165.105 Y196.980 E0.02355
G1 X164.756 Y197.649 E0.02367
G1 X164.378 Y198.050 E0.01728
G1 X163.922 Y198.352 E0.01716
G1 X163.408 Y198.541 E0.01716
G1 X162.863 Y198.608 E0.01721
G1 X91.916 Y199.043 E2.22456
G1 X39.409 Y199.043 E1.64632
G1 X38.660 Y198.922 E0.02378
G1 X37.990 Y198.574 E0.02367
G1 X37.589 Y198.196 E0.01728
G1 X37.288 Y197.739 E0.01716
G1 X37.098 Y197.222 E0.01728
G1 X37.032 Y196.675 E0.01728
G1 X37.032 Y33.658 E5.11126
M73 P2 R24
M73 Q2 S24
G1 X37.143 Y32.976 E0.02167
; printing object 3x1_grid.stl id:1 copy 0
;WIPE_START
G1 F8640.000
G1 X37.501 Y32.248 E-0.18749
G1 X37.873 Y31.851 E-0.12549
G1 X38.329 Y31.548 E-0.12637
G1 X38.838 Y31.358 E-0.12549
G1 X39.381 Y31.289 E-0.12637
G1 X39.679 Y31.287 E-0.06878
;WIPE_END
G1 E-0.04000 F2100.000
G1 Z0.600 F10800.000
G1 X111.562 Y139.444
G1 Z0.200
G1 E0.80000 F2100.000
;TYPE:Perimeter
G1 F1200.000
G1 X161.636 Y139.444 E1.57004
G1 X161.636 Y189.518 E1.57003
G1 X111.562 Y189.518 E1.57004
M73 P3 R24
M73 Q3 S24
G1 X111.562 Y139.504 E1.56815
G1 X111.939 Y139.821 F10800.000
;TYPE:External perimeter
G1 F1200.000
G1 X161.259 Y139.821 E1.54639
G1 X161.259 Y189.141 E1.54639
G1 X111.939 Y189.141 E1.54639
G1 X111.939 Y139.881 E1.54450
G1 X111.835 Y139.435 F10800.000
;WIPE_START
G1 F8640.000
G1 X115.230 Y139.877 E-0.76000
;WIPE_END
G1 E-0.04000 F2100.000
G1 Z0.600 F10800.000
G1 X111.562 Y86.944
G1 Z0.200
G1 E0.80000 F2100.000
;TYPE:Perimeter
G1 F1200.000
G1 X161.636 Y86.944 E1.57004
M73 P4 R24
M73 Q4 S24
G1 X161.636 Y137.018 E1.57004
M73 P4 R23
G1 X111.562 Y137.018 E1.57004
G1 X111.562 Y87.004 E1.56816
G1 X111.939 Y87.321 F10800.000
;TYPE:External perimeter
G1 F1200.000
G1 X161.259 Y87.321 E1.54639
G1 X161.259 Y136.641 E1.54640
G1 X111.939 Y136.641 E1.54639
M73 P5 R23
M73 Q5 S23
G1 X111.939 Y87.381 E1.54451
G1 X111.835 Y86.935 F10800.000
;WIPE_START
G1 F8640.000
G1 X115.230 Y87.377 E-0.76000
;WIPE_END
G1 E-0.04000 F2100.000
G1 Z0.600 F10800.000
G1 X111.562 Y34.444
G1 Z0.200
G1 E0.80000 F2100.000
;TYPE:Perimeter
G1 F1200.000
G1 X161.636 Y34.444 E1.57004
G1 X161.636 Y84.518 E1.57005
G1 X111.562 Y84.518 E1.57004
G1 X111.562 Y34.504 E1.56817
M73 P6 R23
M73 Q6 S23
G1 X111.939 Y34.821 F10800.000
;TYPE:External perimeter
G1 F1200.000
G1 X161.259 Y34.821 E1.54639
G1 X161.259 Y84.141 E1.54640
G1 X111.939 Y84.141 E1.54639
G1 X111.939 Y34.881 E1.54452
G1 X111.835 Y34.435 F10800.000
;WIPE_START
G1 F8640.000
G1 X115.230 Y34.877 E-0.76000
;WIPE_END
G1 E-0.04000 F2100.000
G1 Z0.600 F10800.000
G1 X111.136 Y34.018
G1 Z0.200
G1 E0.80000 F2100.000
;TYPE:Perimeter
G1 F1200.000
G1 X162.062 Y34.018 E1.59674
G1 X162.062 Y195.444 E5.06139
M73 P7 R23
M73 Q7 S23
G1 X111.136 Y195.444 E1.59674
G1 X111.136 Y34.078 E5.05951
M73 P8 R23
M73 Q8 S23
G1 X110.759 Y33.641 F10800.000
;TYPE:External perimeter
G1 F1200.000
G1 X162.439 Y33.641 E1.62039
M73 P8 R22
G1 X162.439 Y195.821 E5.08504
G1 X110.759 Y195.821 E1.62039
M73 P9 R22
M73 Q9 S23
G1 X110.759 Y33.701 E5.08316
M73 Q9 S22
G1 X111.124 Y33.804 F10800.000
;WIPE_START
G1 F8640.000
G1 X114.050 Y33.697 E-0.76000
;WIPE_END
G1 E-0.04000 F2100.000
G1 Z0.600 F10800.000
G1 X161.949 Y85.085
G1 Z0.200
G1 E0.80000 F2100.000
;TYPE:Solid infill
;WIDTH:0.420473
G1 F1200.000
G1 X161.665 Y84.801 E0.01260
G1 X161.131 Y84.801 E0.01676
G1 X161.779 Y85.449 E0.02877
G1 X161.779 Y85.983 E0.01676
G1 X160.597 Y84.801 E0.05248
G1 X160.063 Y84.801 E0.01676
G1 X161.779 Y86.517 E0.07618
G1 X161.779 Y86.661 E0.00453
G1 X161.389 Y86.661 E0.01223
G1 X159.529 Y84.801 E0.08259
G1 X158.995 Y84.801 E0.01676
G1 X160.855 Y86.661 E0.08259
G1 X160.321 Y86.661 E0.01676
G1 X158.461 Y84.801 E0.08259
G1 X157.927 Y84.801 E0.01676
G1 X159.787 Y86.661 E0.08259
G1 X159.253 Y86.661 E0.01676
G1 X157.393 Y84.801 E0.08259
G1 X156.859 Y84.801 E0.01676
G1 X158.720 Y86.661 E0.08259
G1 X158.186 Y86.661 E0.01676
G1 X156.325 Y84.801 E0.08259
G1 X155.791 Y84.801 E0.01676
G1 X157.652 Y86.661 E0.08259
G1 X157.118 Y86.661 E0.01676
G1 X155.257 Y84.801 E0.08259
G1 X154.724 Y84.801 E0.01676
G1 X156.584 Y86.661 E0.08259
G1 X156.050 Y86.661 E0.01676
G1 X154.190 Y84.801 E0.08259
G1 X153.656 Y84.801 E0.01676
G1 X155.516 Y86.661 E0.08259
G1 X154.982 Y86.661 E0.01676
G1 X153.122 Y84.801 E0.08259
G1 X152.588 Y84.801 E0.01676
G1 X154.448 Y86.661 E0.08259
G1 X153.914 Y86.661 E0.01676
G1 X152.054 Y84.801 E0.08259
G1 X151.520 Y84.801 E0.01676
G1 X153.380 Y86.661 E0.08259
G1 X152.846 Y86.661 E0.01676
G1 X150.986 Y84.801 E0.08259
G1 X150.452 Y84.801 E0.01676
G1 X152.312 Y86.661 E0.08259
G1 X151.778 Y86.661 E0.01676
G1 X149.918 Y84.801 E0.08259
G1 X149.384 Y84.801 E0.01676
G1 X151.244 Y86.661 E0.08259
G1 X150.710 Y86.661 E0.01676
G1 X148.850 Y84.801 E0.08259
G1 X148.316 Y84.801 E0.01676
G1 X150.177 Y86.661 E0.08259
M73 P10 R22
G1 X149.643 Y86.661 E0.01676
G1 X147.782 Y84.801 E0.08259
G1 X147.248 Y84.801 E0.01676
G1 X149.109 Y86.661 E0.08259
G1 X148.575 Y86.661 E0.01676
G1 X146.714 Y84.801 E0.08259
M73 Q10 S22
G1 X146.181 Y84.801 E0.01676
G1 X148.041 Y86.661 E0.08259
G1 X147.507 Y86.661 E0.01676
G1 X145.647 Y84.801 E0.08259
G1 X145.113 Y84.801 E0.01676
G1 X146.973 Y86.661 E0.08259
G1 X146.439 Y86.661 E0.01676
G1 X144.579 Y84.801 E0.08259
G1 X144.045 Y84.801 E0.01676
G1 X145.905 Y86.661 E0.08259
G1 X145.371 Y86.661 E0.01676
G1 X143.511 Y84.801 E0.08259
G1 X142.977 Y84.801 E0.01676
G1 X144.837 Y86.661 E0.08259
G1 X144.303 Y86.661 E0.01676
G1 X142.443 Y84.801 E0.08259
G1 X141.909 Y84.801 E0.01676
G1 X143.769 Y86.661 E0.08259
G1 X143.235 Y86.661 E0.01676
G1 X141.375 Y84.801 E0.08259
G1 X140.841 Y84.801 E0.01676
G1 X142.701 Y86.661 E0.08259
G1 X142.167 Y86.661 E0.01676
G1 X140.307 Y84.801 E0.08259
G1 X139.773 Y84.801 E0.01676
G1 X141.633 Y86.661 E0.08259
G1 X141.100 Y86.661 E0.01676
G1 X139.239 Y84.801 E0.08259
G1 X138.705 Y84.801 E0.01676
G1 X140.566 Y86.661 E0.08259
G1 X140.032 Y86.661 E0.01676
G1 X138.171 Y84.801 E0.08259
G1 X137.637 Y84.801 E0.01676
G1 X139.498 Y86.661 E0.08259
G1 X138.964 Y86.661 E0.01676
G1 X137.104 Y84.801 E0.08259
G1 X136.570 Y84.801 E0.01676
G1 X138.430 Y86.661 E0.08259
G1 X137.896 Y86.661 E0.01676
G1 X136.036 Y84.801 E0.08259
G1 X135.502 Y84.801 E0.01676
G1 X137.362 Y86.661 E0.08259
G1 X136.828 Y86.661 E0.01676
G1 X134.968 Y84.801 E0.08259
G1 X134.434 Y84.801 E0.01676
G1 X136.294 Y86.661 E0.08259
G1 X135.760 Y86.661 E0.01676
G1 X133.900 Y84.801 E0.08259
G1 X133.366 Y84.801 E0.01676
G1 X135.226 Y86.661 E0.08259
G1 X134.692 Y86.661 E0.01676
G1 X132.832 Y84.801 E0.08259
G1 X132.298 Y84.801 E0.01676
G1 X134.158 Y86.661 E0.08259
G1 X133.624 Y86.661 E0.01676
G1 X131.764 Y84.801 E0.08259
G1 X131.230 Y84.801 E0.01676
G1 X133.090 Y86.661 E0.08259
G1 X132.556 Y86.661 E0.01676
G1 X130.696 Y84.801 E0.08259
G1 X130.162 Y84.801 E0.01676
G1 X132.023 Y86.661 E0.08259
G1 X131.489 Y86.661 E0.01676
G1 X129.628 Y84.801 E0.08259
G1 X129.094 Y84.801 E0.01676
G1 X130.955 Y86.661 E0.08259
G1 X130.421 Y86.661 E0.01676
G1 X128.560 Y84.801 E0.08259
G1 X128.027 Y84.801 E0.01676
G1 X129.887 Y86.661 E0.08259
G1 X129.353 Y86.661 E0.01676
G1 X127.493 Y84.801 E0.08259
G1 X126.959 Y84.801 E0.01676
G1 X128.819 Y86.661 E0.08259
G1 X128.285 Y86.661 E0.01676
G1 X126.425 Y84.801 E0.08259
G1 X125.891 Y84.801 E0.01676
G1 X127.751 Y86.661 E0.08259
G1 X127.217 Y86.661 E0.01676
G1 X125.357 Y84.801 E0.08259
G1 X124.823 Y84.801 E0.01676
G1 X126.683 Y86.661 E0.08259
G1 X126.149 Y86.661 E0.01676
G1 X124.289 Y84.801 E0.08259
G1 X123.755 Y84.801 E0.01676
G1 X125.615 Y86.661 E0.08259
G1 X125.081 Y86.661 E0.01676
G1 X123.221 Y84.801 E0.08259
G1 X122.687 Y84.801 E0.01676
G1 X124.547 Y86.661 E0.08259
G1 X124.013 Y86.661 E0.01676
G1 X122.153 Y84.801 E0.08259
G1 X121.619 Y84.801 E0.01676
G1 X123.479 Y86.661 E0.08259
G1 X122.946 Y86.661 E0.01676
G1 X121.085 Y84.801 E0.08259
G1 X120.551 Y84.801 E0.01676
G1 X122.412 Y86.661 E0.08259
G1 X121.878 Y86.661 E0.01676
G1 X120.017 Y84.801 E0.08259
G1 X119.483 Y84.801 E0.01676
G1 X121.344 Y86.661 E0.08259
G1 X120.810 Y86.661 E0.01676
G1 X118.950 Y84.801 E0.08259
G1 X118.416 Y84.801 E0.01676
G1 X120.276 Y86.661 E0.08259
G1 X119.742 Y86.661 E0.01676
G1 X117.882 Y84.801 E0.08259
G1 X117.348 Y84.801 E0.01676
G1 X119.208 Y86.661 E0.08259
G1 X118.674 Y86.661 E0.01676
G1 X116.814 Y84.801 E0.08259
G1 X116.280 Y84.801 E0.01676
G1 X118.140 Y86.661 E0.08259
G1 X117.606 Y86.661 E0.01676
G1 X115.746 Y84.801 E0.08259
G1 X115.212 Y84.801 E0.01676
G1 X117.072 Y86.661 E0.08259
G1 X116.538 Y86.661 E0.01676
G1 X114.678 Y84.801 E0.08259
G1 X114.144 Y84.801 E0.01676
G1 X116.004 Y86.661 E0.08259
G1 X115.470 Y86.661 E0.01676
G1 X113.610 Y84.801 E0.08259
G1 X113.076 Y84.801 E0.01676
G1 X114.936 Y86.661 E0.08259
G1 X114.402 Y86.661 E0.01676
G1 X112.542 Y84.801 E0.08259
G1 X112.008 Y84.801 E0.01676
G1 X113.869 Y86.661 E0.08259
G1 X113.335 Y86.661 E0.01676
G1 X111.474 Y84.801 E0.08259
G1 X111.419 Y84.801 E0.00175
G1 X111.419 Y85.279 E0.01501
G1 X112.801 Y86.661 E0.06136
G1 X112.267 Y86.661 E0.01676
G1 X111.419 Y85.813 E0.03765
G1 X111.419 Y86.347 E0.01676
G1 X111.902 Y86.831 E0.02148
;WIPE_START
G1 F8640.000
G1 X111.419 Y86.347 E-0.15800
G1 X111.419 Y85.813 E-0.12329
G1 X112.267 Y86.661 E-0.27694
G1 X112.801 Y86.661 E-0.12329
G1 X112.560 Y86.421 E-0.07849
;WIPE_END
G1 E-0.04000 F2100.000
G1 Z0.600 F10800.000
G1 X161.135 Y137.131
G1 Z0.200
G1 E0.80000 F2100.000
G1 F1200.000
G1 X161.779 Y137.775 E0.02859
G1 X161.779 Y138.309 E0.01676
G1 X160.771 Y137.301 E0.04476
G1 X160.237 Y137.301 E0.01676
G1 X161.779 Y138.843 E0.06846
G1 X161.779 Y139.161 E0.00999
G1 X161.563 Y139.161 E0.00677
G1 X159.703 Y137.301 E0.08259
G1 X159.169 Y137.301 E0.01676
G1 X161.029 Y139.161 E0.08259
G1 X160.495 Y139.161 E0.01676
G1 X158.635 Y137.301 E0.08259
G1 X158.101 Y137.301 E0.01676
G1 X159.961 Y139.161 E0.08259
G1 X159.427 Y139.161 E0.01676
G1 X157.567 Y137.301 E0.08259
G1 X157.033 Y137.301 E0.01676
G1 X158.893 Y139.161 E0.08259
G1 X158.360 Y139.161 E0.01676
G1 X156.499 Y137.301 E0.08259
G1 X155.965 Y137.301 E0.01676
G1 X157.826 Y139.161 E0.08259
G1 X157.292 Y139.161 E0.01676
G1 X155.431 Y137.301 E0.08259
M73 P11 R22
G1 X154.897 Y137.301 E0.01676
G1 X156.758 Y139.161 E0.08259
G1 X156.224 Y139.161 E0.01676
G1 X154.363 Y137.301 E0.08259
G1 X153.830 Y137.301 E0.01676
G1 X155.690 Y139.161 E0.08259
M73 Q11 S22
G1 X155.156 Y139.161 E0.01676
G1 X153.296 Y137.301 E0.08259
G1 X152.762 Y137.301 E0.01676
G1 X154.622 Y139.161 E0.08259
G1 X154.088 Y139.161 E0.01676
G1 X152.228 Y137.301 E0.08259
G1 X151.694 Y137.301 E0.01676
G1 X153.554 Y139.161 E0.08259
G1 X153.020 Y139.161 E0.01676
G1 X151.160 Y137.301 E0.08259
G1 X150.626 Y137.301 E0.01676
G1 X152.486 Y139.161 E0.08259
G1 X151.952 Y139.161 E0.01676
G1 X150.092 Y137.301 E0.08259
G1 X149.558 Y137.301 E0.01676
G1 X151.418 Y139.161 E0.08259
G1 X150.884 Y139.161 E0.01676
G1 X149.024 Y137.301 E0.08259
G1 X148.490 Y137.301 E0.01676
G1 X150.350 Y139.161 E0.08259
G1 X149.816 Y139.161 E0.01676
G1 X147.956 Y137.301 E0.08259
G1 X147.422 Y137.301 E0.01676
G1 X149.283 Y139.161 E0.08259
G1 X148.749 Y139.161 E0.01676
G1 X146.888 Y137.301 E0.08259
G1 X146.354 Y137.301 E0.01676
G1 X148.215 Y139.161 E0.08259
G1 X147.681 Y139.161 E0.01676
G1 X145.820 Y137.301 E0.08259
G1 X145.287 Y137.301 E0.01676
G1 X147.147 Y139.161 E0.08259
G1 X146.613 Y139.161 E0.01676
G1 X144.753 Y137.301 E0.08259
G1 X144.219 Y137.301 E0.01676
G1 X146.079 Y139.161 E0.08259
G1 X145.545 Y139.161 E0.01676
G1 X143.685 Y137.301 E0.08259
G1 X143.151 Y137.301 E0.01676
G1 X145.011 Y139.161 E0.08259
G1 X144.477 Y139.161 E0.01676
G1 X142.617 Y137.301 E0.08259
G1 X142.083 Y137.301 E0.01676
G1 X143.943 Y139.161 E0.08259
G1 X143.409 Y139.161 E0.01676
G1 X141.549 Y137.301 E0.08259
G1 X141.015 Y137.301 E0.01676
G1 X142.875 Y139.161 E0.08259
G1 X142.341 Y139.161 E0.01676
G1 X140.481 Y137.301 E0.08259
G1 X139.947 Y137.301 E0.01676
G1 X141.807 Y139.161 E0.08259
G1 X141.273 Y139.161 E0.01676
G1 X139.413 Y137.301 E0.08259
G1 X138.879 Y137.301 E0.01676
G1 X140.739 Y139.161 E0.08259
G1 X140.206 Y139.161 E0.01676
G1 X138.345 Y137.301 E0.08259
G1 X137.811 Y137.301 E0.01676
G1 X139.672 Y139.161 E0.08259
G1 X139.138 Y139.161 E0.01676
G1 X137.277 Y137.301 E0.08259
G1 X136.743 Y137.301 E0.01676
G1 X138.604 Y139.161 E0.08259
G1 X138.070 Y139.161 E0.01676
G1 X136.210 Y137.301 E0.08259
G1 X135.676 Y137.301 E0.01676
G1 X137.536 Y139.161 E0.08259
G1 X137.002 Y139.161 E0.01676
G1 X135.142 Y137.301 E0.08259
G1 X134.608 Y137.301 E0.01676
G1 X136.468 Y139.161 E0.08259
G1 X135.934 Y139.161 E0.01676
G1 X134.074 Y137.301 E0.08259
G1 X133.540 Y137.301 E0.01676
G1 X135.400 Y139.161 E0.08259
G1 X134.866 Y139.161 E0.01676
G1 X133.006 Y137.301 E0.08259
G1 X132.472 Y137.301 E0.01676
G1 X134.332 Y139.161 E0.08259
G1 X133.798 Y139.161 E0.01676
G1 X131.938 Y137.301 E0.08259
G1 X131.404 Y137.301 E0.01676
G1 X133.264 Y139.161 E0.08259
G1 X132.730 Y139.161 E0.01676
G1 X130.870 Y137.301 E0.08259
G1 X130.336 Y137.301 E0.01676
G1 X132.196 Y139.161 E0.08259
G1 X131.662 Y139.161 E0.01676
G1 X129.802 Y137.301 E0.08259
G1 X129.268 Y137.301 E0.01676
G1 X131.129 Y139.161 E0.08259
G1 X130.595 Y139.161 E0.01676
G1 X128.734 Y137.301 E0.08259
G1 X128.200 Y137.301 E0.01676
G1 X130.061 Y139.161 E0.08259
G1 X129.527 Y139.161 E0.01676
G1 X127.666 Y137.301 E0.08259
G1 X127.133 Y137.301 E0.01676
G1 X128.993 Y139.161 E0.08259
G1 X128.459 Y139.161 E0.01676
G1 X126.599 Y137.301 E0.08259
G1 X126.065 Y137.301 E0.01676
G1 X127.925 Y139.161 E0.08259
G1 X127.391 Y139.161 E0.01676
G1 X125.531 Y137.301 E0.08259
G1 X124.997 Y137.301 E0.01676
G1 X126.857 Y139.161 E0.08259
G1 X126.323 Y139.161 E0.01676
G1 X124.463 Y137.301 E0.08259
G1 X123.929 Y137.301 E0.01676
G1 X125.789 Y139.161 E0.08259
G1 X125.255 Y139.161 E0.01676
G1 X123.395 Y137.301 E0.08259
G1 X122.861 Y137.301 E0.01676
G1 X124.721 Y139.161 E0.08259
G1 X124.187 Y139.161 E0.01676
G1 X122.327 Y137.301 E0.08259
G1 X121.793 Y137.301 E0.01676
G1 X123.653 Y139.161 E0.08259
G1 X123.119 Y139.161 E0.01676
G1 X121.259 Y137.301 E0.08259
G1 X120.725 Y137.301 E0.01676
G1 X122.585 Y139.161 E0.08259
G1 X122.052 Y139.161 E0.01676
