; generated by PrusaSlicer 2.3.3+x64 on 2021-08-29 at 14:53:17 UTC

; 

; external perimeters extrusion width = 0.60mm
; perimeters extrusion width = 0.50mm
; infill extrusion width = 0.50mm
; solid infill extrusion width = 0.50mm
; top infill extrusion width = 0.45mm
; first layer extrusion width = 0.42mm

M73 P0 R52
M73 Q0 S53
M201 X1000 Y1000 Z200 E5000 ; sets maximum accelerations, mm/sec^2
M203 X200 Y200 Z12 E120 ; sets maximum feedrates, mm/sec
M204 P1250 R1250 T1250 ; sets acceleration (P, T) and retract acceleration (R), mm/sec^2
M205 X8.00 Y8.00 Z0.40 E4.50 ; sets the jerk limits, mm/sec
M205 S0 T0 ; sets the minimum extruding and travel feed rate, mm/sec
M107
;TYPE:Custom
M862.3 P "MK3S" ; printer model check
M862.1 P0.4 ; nozzle diameter check
M115 U3.10.0 ; tell printer latest fw version
G90 ; use absolute coordinates
M83 ; extruder relative mode
M104 S215 ; set extruder temp
M140 S65 ; set bed temp
M190 S65 ; wait for bed temp
M109 S215 ; wait for extruder temp
G28 W ; home all without mesh bed level
G80 ; mesh bed leveling
G1 Y-3.0 F1000.0 ; go outside print area
G92 E0.0
G1 X60.0 E9.0 F1000.0 ; intro line
G1 X100.0 E12.5 F1000.0 ; intro line
G92 E0.0
M221 S95

; Don't change E values below. Excessive value can damage the printer.

M907 E538 ; set extruder motor current
G21 ; set units to millimeters
G90 ; use absolute coordinates
M83 ; use relative distances for extrusion
M900 K0.05 ; Filament gcode LA 1.5
M900 K30 ; Filament gcode LA 1.0
;LAYER_CHANGE
;Z:0.2
;HEIGHT:0.2
;BEFORE_LAYER_CHANGE
G92 E0.0
;0.2


M73 Q0 S52
G1 E-0.80000 F2100.000
G1 Z0.400 F10800.000
;AFTER_LAYER_CHANGE
;0.2
G1 X18.725 Y22.003
G1 Z0.200
G1 E0.80000 F2100.000
M204 S1000
;TYPE:Skirt
;WIDTH:0.42
G1 F1200.000
G1 X19.495 Y21.873 E0.02449
G1 X230.504 Y21.873 E6.61603
G1 X231.406 Y22.052 E0.02884
G1 X232.175 Y22.563 E0.02896
G1 X232.691 Y23.329 E0.02896
G1 X232.877 Y24.230 E0.02884
G1 X232.877 Y185.761 E5.06471
G1 X232.813 Y186.297 E0.01692
G1 X232.632 Y186.802 E0.01680
G1 X232.342 Y187.252 E0.01680
G1 X231.959 Y187.627 E0.01680
G1 X231.275 Y187.997 E0.02437
G1 X230.505 Y188.127 E0.02449
G1 X19.496 Y188.127 E6.61603
M73 P1 R51
M73 Q1 S52
G1 X18.964 Y188.066 E0.01680
G1 X18.455 Y187.885 E0.01692
G1 X18.000 Y187.594 E0.01692
G1 X17.623 Y187.209 E0.01692
G1 X17.253 Y186.525 E0.02437
G1 X17.123 Y185.759 E0.02437
G1 X17.123 Y24.242 E5.06423
G1 X17.186 Y23.706 E0.01692
G1 X17.367 Y23.202 E0.01680
G1 X17.656 Y22.750 E0.01680
G1 X18.041 Y22.373 E0.01692
G1 X18.672 Y22.031 E0.02249
; printing object grid_2021-08-29_07h50m.stl id:0 copy 0
;WIPE_START
G1 F8640.000
G1 X19.495 Y21.873 E-0.19352
G1 X21.948 Y21.873 E-0.56648
;WIPE_END
G1 E-0.04000 F2100.000
G1 Z0.600 F10800.000
G1 X126.713 Y130.463
G1 Z0.200
G1 E0.80000 F2100.000
;TYPE:Perimeter
G1 F1200.000
G1 X176.787 Y130.463 E1.57004
G1 X176.787 Y180.537 E1.57004
G1 X126.713 Y180.537 E1.57004
G1 X126.713 Y130.523 E1.56816
G1 X127.090 Y130.840 F10800.000
;TYPE:External perimeter
G1 F1200.000
G1 X176.410 Y130.840 E1.54639
G1 X176.410 Y180.160 E1.54639
G1 X127.090 Y180.160 E1.54639
M73 P2 R51
M73 Q2 S52
G1 X127.090 Y130.900 E1.54451
M73 Q2 S51
G1 X126.986 Y130.454 F10800.000
;WIPE_START
G1 F8640.000
G1 X130.381 Y130.896 E-0.76000
;WIPE_END
G1 E-0.04000 F2100.000
G1 Z0.600 F10800.000
G1 X74.213 Y130.463
G1 Z0.200
G1 E0.80000 F2100.000
;TYPE:Perimeter
G1 F1200.000
G1 X124.287 Y130.463 E1.57004
G1 X124.287 Y180.537 E1.57004
G1 X74.213 Y180.537 E1.57004
G1 X74.213 Y130.523 E1.56816
G1 X74.590 Y130.840 F10800.000
;TYPE:External perimeter
G1 F1200.000
G1 X123.910 Y130.840 E1.54639
G1 X123.910 Y180.160 E1.54639
G1 X74.590 Y180.160 E1.54639
G1 X74.590 Y130.900 E1.54451
G1 X74.486 Y130.454 F10800.000
;WIPE_START
G1 F8640.000
G1 X77.881 Y130.896 E-0.76000
;WIPE_END
G1 E-0.04000 F2100.000
G1 Z0.600 F10800.000
G1 X74.213 Y77.963
G1 Z0.200
G1 E0.80000 F2100.000
;TYPE:Perimeter
G1 F1200.000
G1 X124.287 Y77.963 E1.57004
M73 P2 R50
G1 X124.287 Y128.037 E1.57004
G1 X74.213 Y128.037 E1.57004
M73 P3 R50
M73 Q3 S51
G1 X74.213 Y78.023 E1.56816
G1 X74.590 Y78.340 F10800.000
;TYPE:External perimeter
G1 F1200.000
G1 X123.910 Y78.340 E1.54639
G1 X123.910 Y127.660 E1.54639
G1 X74.590 Y127.660 E1.54639
G1 X74.590 Y78.400 E1.54451
G1 X74.486 Y77.954 F10800.000
;WIPE_START
G1 F8640.000
G1 X77.881 Y78.396 E-0.76000
;WIPE_END
G1 E-0.04000 F2100.000
G1 Z0.600 F10800.000
G1 X126.713 Y77.963
G1 Z0.200
G1 E0.80000 F2100.000
;TYPE:Perimeter
G1 F1200.000
G1 X176.787 Y77.963 E1.57004
G1 X176.787 Y128.037 E1.57004
G1 X126.713 Y128.037 E1.57004
G1 X126.713 Y78.023 E1.56816
G1 X127.090 Y78.340 F10800.000
;TYPE:External perimeter
G1 F1200.000
G1 X176.410 Y78.340 E1.54639
G1 X176.410 Y127.660 E1.54639
G1 X127.090 Y127.660 E1.54639
M73 P4 R50
M73 Q4 S50
G1 X127.090 Y78.400 E1.54451
G1 X126.986 Y77.954 F10800.000
;WIPE_START
G1 F8640.000
G1 X130.381 Y78.396 E-0.76000
;WIPE_END
G1 E-0.04000 F2100.000
G1 Z0.600 F10800.000
G1 X126.713 Y25.463
G1 Z0.200
G1 E0.80000 F2100.000
;TYPE:Perimeter
G1 F1200.000
G1 X176.787 Y25.463 E1.57004
G1 X176.787 Y75.537 E1.57004
G1 X126.713 Y75.537 E1.57004
G1 X126.713 Y25.523 E1.56816
G1 X127.090 Y25.840 F10800.000
;TYPE:External perimeter
G1 F1200.000
G1 X176.410 Y25.840 E1.54639
G1 X176.410 Y75.160 E1.54639
G1 X127.090 Y75.160 E1.54639
G1 X127.090 Y25.900 E1.54451
M73 P4 R49
G1 X126.986 Y25.454 F10800.000
;WIPE_START
G1 F8640.000
G1 X130.381 Y25.896 E-0.76000
;WIPE_END
G1 E-0.04000 F2100.000
G1 Z0.600 F10800.000
G1 X74.213 Y25.463
G1 Z0.200
G1 E0.80000 F2100.000
;TYPE:Perimeter
G1 F1200.000
G1 X124.287 Y25.463 E1.57004
G1 X124.287 Y75.537 E1.57004
G1 X74.213 Y75.537 E1.57004
M73 P5 R49
M73 Q5 S50
G1 X74.213 Y25.523 E1.56816
G1 X74.590 Y25.840 F10800.000
;TYPE:External perimeter
G1 F1200.000
G1 X123.910 Y25.840 E1.54639
G1 X123.910 Y75.160 E1.54639
G1 X74.590 Y75.160 E1.54639
G1 X74.590 Y25.900 E1.54451
G1 X74.486 Y25.454 F10800.000
;WIPE_START
G1 F8640.000
G1 X77.881 Y25.896 E-0.76000
;WIPE_END
G1 E-0.04000 F2100.000
G1 Z0.600 F10800.000
G1 X21.713 Y25.463
G1 Z0.200
G1 E0.80000 F2100.000
;TYPE:Perimeter
G1 F1200.000
G1 X71.787 Y25.463 E1.57004
G1 X71.787 Y75.537 E1.57004
G1 X21.713 Y75.537 E1.57004
G1 X21.713 Y25.523 E1.56816
G1 X22.090 Y25.840 F10800.000
;TYPE:External perimeter
G1 F1200.000
G1 X71.410 Y25.840 E1.54639
G1 X71.410 Y75.160 E1.54639
M73 Q5 S49
G1 X22.090 Y75.160 E1.54639
M73 P6 R49
M73 Q6 S49
G1 X22.090 Y25.900 E1.54451
G1 X21.986 Y25.454 F10800.000
;WIPE_START
G1 F8640.000
G1 X25.381 Y25.896 E-0.76000
;WIPE_END
G1 E-0.04000 F2100.000
G1 Z0.600 F10800.000
G1 X21.713 Y77.963
G1 Z0.200
G1 E0.80000 F2100.000
;TYPE:Perimeter
G1 F1200.000
G1 X71.787 Y77.963 E1.57004
G1 X71.787 Y128.037 E1.57004
G1 X21.713 Y128.037 E1.57004
G1 X21.713 Y78.023 E1.56816
G1 X22.090 Y78.340 F10800.000
;TYPE:External perimeter
G1 F1200.000
G1 X71.410 Y78.340 E1.54639
G1 X71.410 Y127.660 E1.54639
G1 X22.090 Y127.660 E1.54639
G1 X22.090 Y78.400 E1.54451
M73 P6 R48
G1 X21.986 Y77.954 F10800.000
;WIPE_START
G1 F8640.000
G1 X25.381 Y78.396 E-0.76000
;WIPE_END
G1 E-0.04000 F2100.000
G1 Z0.600 F10800.000
G1 X21.713 Y130.463
G1 Z0.200
G1 E0.80000 F2100.000
;TYPE:Perimeter
G1 F1200.000
G1 X71.787 Y130.463 E1.57004
G1 X71.787 Y180.537 E1.57004
G1 X21.713 Y180.537 E1.57004
M73 P7 R48
M73 Q7 S49
G1 X21.713 Y130.523 E1.56816
G1 X22.090 Y130.840 F10800.000
;TYPE:External perimeter
G1 F1200.000
G1 X71.410 Y130.840 E1.54639
G1 X71.410 Y180.160 E1.54639
G1 X22.090 Y180.160 E1.54639
G1 X22.090 Y130.900 E1.54451
G1 X21.986 Y130.454 F10800.000
;WIPE_START
G1 F8640.000
G1 X25.381 Y130.896 E-0.76000
;WIPE_END
G1 E-0.04000 F2100.000
G1 Z0.600 F10800.000
G1 X179.213 Y130.463
G1 Z0.200
G1 E0.80000 F2100.000
;TYPE:Perimeter
G1 F1200.000
G1 X229.287 Y130.463 E1.57004
G1 X229.287 Y180.537 E1.57004
G1 X179.213 Y180.537 E1.57004
G1 X179.213 Y130.523 E1.56816
M73 Q7 S48
G1 X179.590 Y130.840 F10800.000
;TYPE:External perimeter
G1 F1200.000
G1 X228.910 Y130.840 E1.54639
G1 X228.910 Y180.160 E1.54639
G1 X179.590 Y180.160 E1.54639
M73 P8 R48
M73 Q8 S48
G1 X179.590 Y130.900 E1.54451
G1 X179.486 Y130.454 F10800.000
;WIPE_START
G1 F8640.000
G1 X182.881 Y130.896 E-0.76000
;WIPE_END
G1 E-0.04000 F2100.000
G1 Z0.600 F10800.000
G1 X179.213 Y77.963
G1 Z0.200
G1 E0.80000 F2100.000
;TYPE:Perimeter
G1 F1200.000
G1 X229.287 Y77.963 E1.57004
G1 X229.287 Y128.037 E1.57004
G1 X179.213 Y128.037 E1.57004
G1 X179.213 Y78.023 E1.56816
G1 X179.590 Y78.340 F10800.000
;TYPE:External perimeter
G1 F1200.000
G1 X228.910 Y78.340 E1.54639
G1 X228.910 Y127.660 E1.54639
M73 P8 R47
G1 X179.590 Y127.660 E1.54639
G1 X179.590 Y78.400 E1.54451
G1 X179.486 Y77.954 F10800.000
;WIPE_START
G1 F8640.000
G1 X182.881 Y78.396 E-0.76000
;WIPE_END
G1 E-0.04000 F2100.000
G1 Z0.600 F10800.000
G1 X179.213 Y25.463
G1 Z0.200
G1 E0.80000 F2100.000
;TYPE:Perimeter
G1 F1200.000
G1 X229.287 Y25.463 E1.57004
G1 X229.287 Y75.537 E1.57004
G1 X179.213 Y75.537 E1.57004
M73 P9 R47
M73 Q9 S48
G1 X179.213 Y25.523 E1.56816
G1 X179.590 Y25.840 F10800.000
;TYPE:External perimeter
G1 F1200.000
G1 X228.910 Y25.840 E1.54639
G1 X228.910 Y75.160 E1.54639
G1 X179.590 Y75.160 E1.54639
G1 X179.590 Y25.900 E1.54451
G1 X179.486 Y25.454 F10800.000
;WIPE_START
G1 F8640.000
G1 X182.881 Y25.896 E-0.76000
;WIPE_END
G1 E-0.04000 F2100.000
G1 Z0.600 F10800.000
G1 X229.713 Y25.037
G1 Z0.200
G1 E0.80000 F2100.000
;TYPE:Perimeter
G1 F1200.000
G1 X229.713 Y184.963 E5.01436
M73 Q9 S47
G1 X20.287 Y184.963 E6.56640
M73 P10 R47
M73 Q10 S47
G1 X20.287 Y25.037 E5.01436
G1 X229.653 Y25.037 E6.56452
M73 P10 R46
G1 X230.090 Y24.660 F10800.000
;TYPE:External perimeter
G1 F1200.000
G1 X230.090 Y185.340 E5.03801
G1 X19.910 Y185.340 E6.59005
M73 P11 R46
M73 Q11 S47
G1 X19.910 Y24.660 E5.03801
G1 X230.030 Y24.660 E6.58816
M73 Q11 S46
G1 X229.969 Y25.041 F10800.000
;WIPE_START
G1 F8640.000
G1 X230.031 Y27.951 E-0.76000
;WIPE_END
G1 E-0.04000 F2100.000
G1 Z0.600 F10800.000
G1 X229.600 Y181.299
G1 Z0.200
G1 E0.80000 F2100.000
;TYPE:Solid infill
;WIDTH:0.420495
G1 F1200.000
G1 X229.120 Y180.820 E0.02129
G1 X228.586 Y180.820 E0.01676
G1 X229.430 Y181.664 E0.03746
G1 X229.430 Y182.198 E0.01676
G1 X228.052 Y180.820 E0.06117
G1 X227.518 Y180.820 E0.01676
G1 X229.430 Y182.732 E0.08488
G1 X229.430 Y183.265 E0.01676
G1 X226.985 Y180.820 E0.10858
G1 X226.451 Y180.820 E0.01676
G1 X229.430 Y183.799 E0.13229
G1 X229.430 Y184.333 E0.01676
G1 X225.917 Y180.820 E0.15600
G1 X225.383 Y180.820 E0.01676
G1 X229.243 Y184.680 E0.17139
G1 X228.709 Y184.680 E0.01676
G1 X224.849 Y180.820 E0.17139
G1 X224.315 Y180.820 E0.01676
G1 X228.175 Y184.680 E0.17139
G1 X227.641 Y184.680 E0.01676
G1 X223.781 Y180.820 E0.17139
G1 X223.247 Y180.820 E0.01676
G1 X227.107 Y184.680 E0.17139
G1 X226.573 Y184.680 E0.01676
G1 X222.713 Y180.820 E0.17139
M73 P12 R46
G1 X222.179 Y180.820 E0.01676
G1 X226.039 Y184.680 E0.17139
G1 X225.505 Y184.680 E0.01676
G1 X221.645 Y180.820 E0.17139
G1 X221.111 Y180.820 E0.01676
G1 X224.971 Y184.680 E0.17139
M73 Q12 S46
G1 X224.437 Y184.680 E0.01676
G1 X220.577 Y180.820 E0.17139
G1 X220.043 Y180.820 E0.01676
G1 X223.903 Y184.680 E0.17139
G1 X223.369 Y184.680 E0.01676
G1 X219.509 Y180.820 E0.17139
G1 X218.975 Y180.820 E0.01676
G1 X222.835 Y184.680 E0.17139
G1 X222.301 Y184.680 E0.01676
G1 X218.441 Y180.820 E0.17139
G1 X217.907 Y180.820 E0.01676
G1 X221.767 Y184.680 E0.17139
G1 X221.233 Y184.680 E0.01676
G1 X217.373 Y180.820 E0.17139
G1 X216.839 Y180.820 E0.01676
G1 X220.699 Y184.680 E0.17139
G1 X220.165 Y184.680 E0.01676
G1 X216.305 Y180.820 E0.17139
G1 X215.771 Y180.820 E0.01676
G1 X219.631 Y184.680 E0.17139
G1 X219.097 Y184.680 E0.01676
G1 X215.237 Y180.820 E0.17139
G1 X214.703 Y180.820 E0.01676
G1 X218.563 Y184.680 E0.17139
G1 X218.029 Y184.680 E0.01676
G1 X214.169 Y180.820 E0.17139
G1 X213.635 Y180.820 E0.01676
G1 X217.495 Y184.680 E0.17139
G1 X216.961 Y184.680 E0.01676
G1 X213.101 Y180.820 E0.17139
G1 X212.567 Y180.820 E0.01676
G1 X216.428 Y184.680 E0.17139
G1 X215.894 Y184.680 E0.01676
G1 X212.033 Y180.820 E0.17139
G1 X211.499 Y180.820 E0.01676
G1 X215.360 Y184.680 E0.17139
G1 X214.826 Y184.680 E0.01676
G1 X210.965 Y180.820 E0.17139
G1 X210.431 Y180.820 E0.01676
G1 X214.292 Y184.680 E0.17139
G1 X213.758 Y184.680 E0.01676
G1 X209.897 Y180.820 E0.17139
G1 X209.363 Y180.820 E0.01676
G1 X213.224 Y184.680 E0.17139
G1 X212.690 Y184.680 E0.01676
G1 X208.829 Y180.820 E0.17139
G1 X208.295 Y180.820 E0.01676
G1 X212.156 Y184.680 E0.17139
G1 X211.622 Y184.680 E0.01676
G1 X207.762 Y180.820 E0.17139
G1 X207.228 Y180.820 E0.01676
G1 X211.088 Y184.680 E0.17139
G1 X210.554 Y184.680 E0.01676
G1 X206.694 Y180.820 E0.17139
G1 X206.160 Y180.820 E0.01676
G1 X210.020 Y184.680 E0.17139
G1 X209.486 Y184.680 E0.01676
G1 X205.626 Y180.820 E0.17139
G1 X205.092 Y180.820 E0.01676
G1 X208.952 Y184.680 E0.17139
G1 X208.418 Y184.680 E0.01676
G1 X204.558 Y180.820 E0.17139
G1 X204.024 Y180.820 E0.01676
G1 X207.884 Y184.680 E0.17139
G1 X207.350 Y184.680 E0.01676
G1 X203.490 Y180.820 E0.17139
G1 X202.956 Y180.820 E0.01676
G1 X206.816 Y184.680 E0.17139
G1 X206.282 Y184.680 E0.01676
G1 X202.422 Y180.820 E0.17139
G1 X201.888 Y180.820 E0.01676
G1 X205.748 Y184.680 E0.17139
G1 X205.214 Y184.680 E0.01676
G1 X201.354 Y180.820 E0.17139
G1 X200.820 Y180.820 E0.01676
G1 X204.680 Y184.680 E0.17139
G1 X204.146 Y184.680 E0.01676
G1 X200.286 Y180.820 E0.17139
G1 X199.752 Y180.820 E0.01676
G1 X203.612 Y184.680 E0.17139
G1 X203.078 Y184.680 E0.01676
G1 X199.218 Y180.820 E0.17139
G1 X198.684 Y180.820 E0.01676
G1 X202.544 Y184.680 E0.17139
G1 X202.010 Y184.680 E0.01676
G1 X198.150 Y180.820 E0.17139
G1 X197.616 Y180.820 E0.01676
G1 X201.476 Y184.680 E0.17139
G1 X200.942 Y184.680 E0.01676
G1 X197.082 Y180.820 E0.17139
M73 P12 R45
G1 X196.548 Y180.820 E0.01676
G1 X200.408 Y184.680 E0.17139
G1 X199.874 Y184.680 E0.01676
G1 X196.014 Y180.820 E0.17139
G1 X195.480 Y180.820 E0.01676
G1 X199.340 Y184.680 E0.17139
G1 X198.806 Y184.680 E0.01676
G1 X194.946 Y180.820 E0.17139
G1 X194.412 Y180.820 E0.01676
G1 X198.272 Y184.680 E0.17139
G1 X197.739 Y184.680 E0.01676
G1 X193.878 Y180.820 E0.17139
G1 X193.344 Y180.820 E0.01676
G1 X197.205 Y184.680 E0.17139
G1 X196.671 Y184.680 E0.01676
G1 X192.810 Y180.820 E0.17139
G1 X192.276 Y180.820 E0.01676
G1 X196.137 Y184.680 E0.17139
G1 X195.603 Y184.680 E0.01676
G1 X191.742 Y180.820 E0.17139
G1 X191.208 Y180.820 E0.01676
G1 X195.069 Y184.680 E0.17139
G1 X194.535 Y184.680 E0.01676
G1 X190.674 Y180.820 E0.17139
G1 X190.140 Y180.820 E0.01676
G1 X194.001 Y184.680 E0.17139
G1 X193.467 Y184.680 E0.01676
G1 X189.606 Y180.820 E0.17139
G1 X189.073 Y180.820 E0.01676
G1 X192.933 Y184.680 E0.17139
G1 X192.399 Y184.680 E0.01676
G1 X188.539 Y180.820 E0.17139
G1 X188.005 Y180.820 E0.01676
G1 X191.865 Y184.680 E0.17139
G1 X191.331 Y184.680 E0.01676
G1 X187.471 Y180.820 E0.17139
G1 X186.937 Y180.820 E0.01676
G1 X190.797 Y184.680 E0.17139
G1 X190.263 Y184.680 E0.01676
G1 X186.403 Y180.820 E0.17139
G1 X185.869 Y180.820 E0.01676
G1 X189.729 Y184.680 E0.17139
G1 X189.195 Y184.680 E0.01676
G1 X185.335 Y180.820 E0.17139
G1 X184.801 Y180.820 E0.01676
G1 X188.661 Y184.680 E0.17139
G1 X188.127 Y184.680 E0.01676
G1 X184.267 Y180.820 E0.17139
G1 X183.733 Y180.820 E0.01676
G1 X187.593 Y184.680 E0.17139
G1 X187.059 Y184.680 E0.01676
G1 X183.199 Y180.820 E0.17139
G1 X182.665 Y180.820 E0.01676
G1 X186.525 Y184.680 E0.17139
G1 X185.991 Y184.680 E0.01676
G1 X182.131 Y180.820 E0.17139
G1 X181.597 Y180.820 E0.01676
G1 X185.457 Y184.680 E0.17139
G1 X184.923 Y184.680 E0.01676
G1 X181.063 Y180.820 E0.17139
G1 X180.529 Y180.820 E0.01676
G1 X184.389 Y184.680 E0.17139
G1 X183.855 Y184.680 E0.01676
G1 X179.825 Y180.650 E0.17893
;WIPE_START
G1 F8640.000
G1 X182.153 Y182.978 E-0.76000
;WIPE_END
G1 E-0.04000 F2100.000
G1 Z0.600 F10800.000
G1 X229.600 Y128.970
G1 Z0.200
G1 E0.80000 F2100.000
G1 F1200.000
G1 X228.950 Y128.320 E0.02887
G1 X228.416 Y128.320 E0.01676
G1 X229.430 Y129.334 E0.04504
G1 X229.430 Y129.868 E0.01676
G1 X227.882 Y128.320 E0.06875
G1 X227.348 Y128.320 E0.01676
G1 X229.208 Y130.180 E0.08259
G1 X228.674 Y130.180 E0.01676
G1 X226.814 Y128.320 E0.08259
G1 X226.280 Y128.320 E0.01676
