; generated by PrusaSlicer 2.3.3+x64 on 2021-08-29 at 05:09:50 UTC

; 

; external perimeters extrusion width = 0.60mm
; perimeters extrusion width = 0.50mm
; infill extrusion width = 0.50mm
; solid infill extrusion width = 0.50mm
; top infill extrusion width = 0.45mm
; first layer extrusion width = 0.42mm

M73 P0 R22
M73 Q0 S22
M201 X1000 Y1000 Z200 E5000 ; sets maximum accelerations, mm/sec^2
M203 X200 Y200 Z12 E120 ; sets maximum feedrates, mm/sec
M204 P1250 R1250 T1250 ; sets acceleration (P, T) and retract acceleration (R), mm/sec^2
M205 X8.00 Y8.00 Z0.40 E4.50 ; sets the jerk limits, mm/sec
M205 S0 T0 ; sets the minimum extruding and travel feed rate, mm/sec
M107
;TYPE:Custom
M862.3 P "MK3S" ; printer model check
M862.1 P0.4 ; nozzle diameter check
M115 U3.10.0 ; tell printer latest fw version
G90 ; use absolute coordinates
M83 ; extruder relative mode
M104 S215 ; set extruder temp
M140 S65 ; set bed temp
M190 S65 ; wait for bed temp
M109 S215 ; wait for extruder temp
G28 W ; home all without mesh bed level
G80 ; mesh bed leveling
G1 Y-3.0 F1000.0 ; go outside print area
G92 E0.0
G1 X60.0 E9.0 F1000.0 ; intro line
G1 X100.0 E12.5 F1000.0 ; intro line
G92 E0.0
M221 S95

; Don't change E values below. Excessive value can damage the printer.

M907 E538 ; set extruder motor current
G21 ; set units to millimeters
G90 ; use absolute coordinates
M83 ; use relative distances for extrusion
M900 K0.05 ; Filament gcode LA 1.5
M900 K30 ; Filament gcode LA 1.0
;LAYER_CHANGE
;Z:0.2
;HEIGHT:0.2
;BEFORE_LAYER_CHANGE
G92 E0.0
;0.2


G1 E-0.80000 F2100.000
G1 Z0.400 F10800.000
;AFTER_LAYER_CHANGE
;0.2
G1 X18.739 Y23.498
G1 Z0.200
G1 E0.80000 F2100.000
M204 S1000
;TYPE:Skirt
;WIDTH:0.42
G1 F1200.000
G1 X19.495 Y23.373 E0.02402
G1 X230.504 Y23.373 E6.61603
M73 P1 R22
M73 Q1 S22
G1 X231.406 Y23.552 E0.02884
G1 X232.175 Y24.063 E0.02896
G1 X232.691 Y24.829 E0.02896
G1 X232.877 Y25.730 E0.02884
G1 X232.877 Y184.265 E4.97076
G1 X232.811 Y184.805 E0.01704
G1 X232.627 Y185.312 E0.01692
G1 X232.332 Y185.764 E0.01692
G1 X231.940 Y186.141 E0.01704
G1 X231.261 Y186.502 E0.02414
G1 X230.505 Y186.627 E0.02402
G1 X19.496 Y186.627 E6.61603
M73 P2 R21
M73 Q2 S22
G1 X18.953 Y186.563 E0.01716
G1 X18.442 Y186.378 E0.01704
G1 X17.986 Y186.082 E0.01704
G1 X17.609 Y185.691 E0.01704
G1 X17.249 Y185.014 E0.02402
G1 X17.123 Y184.259 E0.02402
G1 X17.123 Y25.742 E4.97017
M73 P3 R21
M73 Q3 S22
G1 X17.187 Y25.203 E0.01704
G1 X17.372 Y24.692 E0.01704
G1 X17.668 Y24.236 E0.01704
G1 X18.060 Y23.859 E0.01704
G1 X18.686 Y23.526 E0.02226
; printing object grid_2021-08-28_22h08m.stl id:0 copy 0
;WIPE_START
G1 F8640.000
G1 X19.495 Y23.373 E-0.19007
G1 X21.963 Y23.373 E-0.56993
;WIPE_END
G1 E-0.04000 F2100.000
G1 Z0.600 F10800.000
G1 X178.590 Y78.840
G1 Z0.200
G1 E0.80000 F2100.000
;TYPE:External perimeter
G1 F1200.000
G1 X228.003 Y78.840 E1.54932
G1 X229.015 Y78.873 E0.03173
G1 X229.811 Y78.960 E0.02513
G1 X229.811 Y130.040 E1.60156
G1 X229.015 Y130.127 E0.02513
G1 X228.003 Y130.160 E0.03173
G1 X178.590 Y130.160 E1.54932
M73 P4 R21
M73 Q4 S21
G1 X178.590 Y78.900 E1.60722
G1 X178.489 Y78.453 F10800.000
;WIPE_START
G1 F8640.000
G1 X181.881 Y78.896 E-0.76000
;WIPE_END
G1 E-0.04000 F2100.000
G1 Z0.600 F10800.000
G1 X178.590 Y131.340
G1 Z0.200
G1 E0.80000 F2100.000
G1 F1200.000
G1 X228.003 Y131.340 E1.54932
G1 X229.015 Y131.373 E0.03173
G1 X229.811 Y131.460 E0.02513
G1 X229.811 Y182.540 E1.60156
G1 X229.015 Y182.627 E0.02513
G1 X228.003 Y182.660 E0.03173
G1 X178.590 Y182.660 E1.54932
G1 X178.590 Y131.400 E1.60722
M73 P5 R21
M73 Q5 S21
G1 X178.489 Y130.953 F10800.000
;WIPE_START
G1 F8640.000
G1 X181.881 Y131.396 E-0.76000
;WIPE_END
G1 E-0.04000 F2100.000
G1 Z0.600 F10800.000
G1 X178.590 Y77.660
G1 Z0.200
G1 E0.80000 F2100.000
G1 F1200.000
G1 X178.590 Y28.247 E1.54932
G1 X178.623 Y27.235 E0.03173
G1 X178.710 Y26.439 E0.02513
G1 X229.811 Y26.439 E1.60224
G1 X229.811 Y77.540 E1.60224
G1 X229.015 Y77.627 E0.02513
G1 X228.003 Y77.660 E0.03173
G1 X178.650 Y77.660 E1.54744
G1 X178.190 Y77.660 F10800.000
;WIPE_START
G1 F8640.000
G1 X178.646 Y74.369 E-0.76000
;WIPE_END
G1 E-0.04000 F2100.000
G1 Z0.600 F10800.000
G1 X177.787 Y130.963
G1 Z0.200
M73 Q6 S21
G1 E0.80000 F2100.000
;TYPE:Perimeter
G1 F1200.000
G1 X177.787 Y183.037 E1.63275
M73 P6 R21
G1 X125.713 Y183.037 E1.63275
G1 X125.713 Y130.963 E1.63275
G1 X177.727 Y130.963 E1.63087
G1 X177.410 Y131.340 F10800.000
;TYPE:External perimeter
G1 F1200.000
G1 X177.410 Y182.660 E1.60910
G1 X126.090 Y182.660 E1.60910
M73 P7 R20
M73 Q7 S21
G1 X126.090 Y131.340 E1.60910
G1 X177.350 Y131.340 E1.60722
G1 X177.796 Y131.236 F10800.000
;WIPE_START
G1 F8640.000
G1 X177.354 Y134.631 E-0.76000
;WIPE_END
G1 E-0.04000 F2100.000
G1 Z0.600 F10800.000
G1 X73.213 Y130.963
G1 Z0.200
G1 E0.80000 F2100.000
;TYPE:Perimeter
G1 F1200.000
G1 X125.287 Y130.963 E1.63275
G1 X125.287 Y183.037 E1.63275
M73 P8 R20
M73 Q8 S21
G1 X73.213 Y183.037 E1.63275
G1 X73.213 Y131.023 E1.63087
G1 X73.590 Y131.340 F10800.000
;TYPE:External perimeter
G1 F1200.000
G1 X124.910 Y131.340 E1.60910
M73 Q8 S20
G1 X124.910 Y182.660 E1.60910
G1 X73.590 Y182.660 E1.60910
M73 P9 R20
M73 Q9 S20
G1 X73.590 Y131.400 E1.60722
G1 X73.486 Y130.954 F10800.000
;WIPE_START
G1 F8640.000
G1 X76.881 Y131.396 E-0.76000
;WIPE_END
G1 E-0.04000 F2100.000
G1 Z0.600 F10800.000
G1 X20.713 Y130.963
G1 Z0.200
G1 E0.80000 F2100.000
;TYPE:Perimeter
G1 F1200.000
G1 X72.787 Y130.963 E1.63275
G1 X72.787 Y183.037 E1.63275
G1 X20.713 Y183.037 E1.63275
G1 X20.713 Y131.023 E1.63087
M73 P10 R20
M73 Q10 S20
G1 X21.090 Y131.340 F10800.000
;TYPE:External perimeter
G1 F1200.000
G1 X72.410 Y131.340 E1.60910
G1 X72.410 Y182.660 E1.60910
G1 X21.090 Y182.660 E1.60910
G1 X21.090 Y131.400 E1.60722
G1 X20.986 Y130.954 F10800.000
;WIPE_START
G1 F8640.000
G1 X24.381 Y131.396 E-0.76000
;WIPE_END
G1 E-0.04000 F2100.000
G1 Z0.600 F10800.000
G1 X20.713 Y78.463
G1 Z0.200
G1 E0.80000 F2100.000
;TYPE:Perimeter
G1 F1200.000
G1 X72.787 Y78.463 E1.63275
M73 P11 R20
M73 Q11 S20
G1 X72.787 Y130.537 E1.63275
G1 X20.713 Y130.537 E1.63275
G1 X20.713 Y78.523 E1.63087
M73 P11 R19
G1 X21.090 Y78.840 F10800.000
;TYPE:External perimeter
G1 F1200.000
G1 X72.410 Y78.840 E1.60910
G1 X72.410 Y130.160 E1.60910
M73 P12 R19
M73 Q12 S20
G1 X21.090 Y130.160 E1.60910
G1 X21.090 Y78.900 E1.60722
G1 X20.986 Y78.454 F10800.000
;WIPE_START
G1 F8640.000
G1 X24.381 Y78.896 E-0.76000
;WIPE_END
G1 E-0.04000 F2100.000
G1 Z0.600 F10800.000
G1 X73.213 Y78.463
G1 Z0.200
G1 E0.80000 F2100.000
;TYPE:Perimeter
G1 F1200.000
G1 X125.287 Y78.463 E1.63275
G1 X125.287 Y130.537 E1.63275
G1 X73.213 Y130.537 E1.63275
M73 P13 R19
M73 Q13 S19
G1 X73.213 Y78.523 E1.63087
G1 X73.590 Y78.840 F10800.000
;TYPE:External perimeter
G1 F1200.000
G1 X124.910 Y78.840 E1.60910
G1 X124.910 Y130.160 E1.60910
G1 X73.590 Y130.160 E1.60910
G1 X73.590 Y78.900 E1.60722
M73 P14 R19
M73 Q14 S19
G1 X73.486 Y78.454 F10800.000
;WIPE_START
G1 F8640.000
G1 X76.881 Y78.896 E-0.76000
;WIPE_END
G1 E-0.04000 F2100.000
G1 Z0.600 F10800.000
G1 X125.713 Y78.463
G1 Z0.200
G1 E0.80000 F2100.000
;TYPE:Perimeter
G1 F1200.000
G1 X177.787 Y78.463 E1.63275
G1 X177.787 Y130.537 E1.63275
G1 X125.713 Y130.537 E1.63275
G1 X125.713 Y78.523 E1.63087
G1 X126.090 Y78.840 F10800.000
;TYPE:External perimeter
G1 F1200.000
G1 X177.410 Y78.840 E1.60910
M73 P15 R19
M73 Q15 S19
G1 X177.410 Y130.160 E1.60910
G1 X126.090 Y130.160 E1.60910
G1 X126.090 Y78.900 E1.60722
G1 X125.986 Y78.454 F10800.000
;WIPE_START
G1 F8640.000
G1 X129.381 Y78.896 E-0.76000
;WIPE_END
G1 E-0.04000 F2100.000
G1 Z0.600 F10800.000
G1 X178.213 Y78.037
G1 Z0.200
G1 E0.80000 F2100.000
;TYPE:Perimeter
G1 F1200.000
G1 X228.010 Y78.037 E1.56134
G1 X229.042 Y78.003 E0.03237
G1 X229.755 Y77.925 E0.02251
G1 X229.741 Y78.250 E0.01019
G1 X229.755 Y78.575 E0.01019
G1 X229.042 Y78.497 E0.02251
G1 X228.010 Y78.463 E0.03237
G1 X178.213 Y78.463 E1.56134
M73 P16 R19
M73 Q16 S19
G1 X178.213 Y130.537 E1.63275
M73 P16 R18
G1 X228.010 Y130.537 E1.56134
G1 X229.042 Y130.503 E0.03237
G1 X229.755 Y130.425 E0.02251
G1 X229.741 Y130.750 E0.01019
G1 X229.755 Y131.075 E0.01019
G1 X229.042 Y130.997 E0.02251
G1 X228.010 Y130.963 E0.03237
G1 X178.213 Y130.963 E1.56134
G1 X178.213 Y183.037 E1.63275
G1 X228.010 Y183.037 E1.56134
M73 P17 R18
M73 Q17 S19
G1 X229.042 Y183.003 E0.03237
G1 X229.752 Y182.925 E0.02242
G1 X229.724 Y183.463 E0.01688
G1 X20.287 Y183.463 E6.56673
M73 Q17 S18
G1 X20.287 Y26.526 E4.92063
M73 P18 R18
M73 Q18 S18
G1 X20.825 Y26.498 E0.01688
G1 X20.747 Y27.209 E0.02243
G1 X20.713 Y28.240 E0.03237
G1 X20.713 Y78.037 E1.56134
G1 X72.787 Y78.037 E1.63275
G1 X72.787 Y28.240 E1.56134
M73 P19 R18
M73 Q19 S18
G1 X72.753 Y27.209 E0.03237
G1 X72.675 Y26.495 E0.02251
G1 X73.000 Y26.509 E0.01019
G1 X73.325 Y26.495 E0.01019
G1 X73.247 Y27.209 E0.02251
G1 X73.213 Y28.240 E0.03237
G1 X73.213 Y78.037 E1.56134
G1 X125.287 Y78.037 E1.63275
G1 X125.287 Y28.240 E1.56134
G1 X125.253 Y27.209 E0.03237
G1 X125.175 Y26.495 E0.02251
G1 X125.500 Y26.509 E0.01019
G1 X125.825 Y26.495 E0.01019
G1 X125.747 Y27.209 E0.02251
G1 X125.713 Y28.240 E0.03237
G1 X125.713 Y78.037 E1.56134
G1 X177.787 Y78.037 E1.63275
M73 P20 R18
M73 Q20 S18
G1 X177.787 Y28.240 E1.56134
G1 X177.753 Y27.209 E0.03237
G1 X177.675 Y26.495 E0.02251
G1 X178.000 Y26.509 E0.01019
G1 X178.325 Y26.495 E0.01019
G1 X178.247 Y27.209 E0.02251
G1 X178.213 Y28.240 E0.03237
G1 X178.213 Y77.977 E1.55946
G1 X177.410 Y77.660 F10800.000
;TYPE:External perimeter
G1 F1200.000
G1 X126.090 Y77.660 E1.60910
G1 X126.090 Y28.247 E1.54932
M73 P20 R17
G1 X126.123 Y27.235 E0.03173
G1 X126.210 Y26.439 E0.02513
G1 X177.290 Y26.439 E1.60156
M73 P21 R17
G1 X177.377 Y27.235 E0.02513
G1 X177.410 Y28.247 E0.03173
G1 X177.410 Y77.600 E1.54744
M73 Q21 S18
G1 X177.410 Y78.060 F10800.000
;WIPE_START
G1 F8640.000
G1 X174.119 Y77.604 E-0.76000
;WIPE_END
G1 E-0.04000 F2100.000
G1 Z0.600 F10800.000
G1 X124.910 Y77.600
G1 Z0.200
G1 E0.80000 F2100.000
G1 F1200.000
G1 X124.910 Y77.660 E0.00187
G1 X73.590 Y77.660 E1.60910
G1 X73.590 Y28.247 E1.54932
G1 X73.623 Y27.235 E0.03173
G1 X73.710 Y26.439 E0.02513
G1 X124.790 Y26.439 E1.60156
G1 X124.877 Y27.235 E0.02513
G1 X124.910 Y28.247 E0.03173
G1 X124.910 Y77.540 E1.54557
M73 P22 R17
M73 Q21 S17
G1 X124.962 Y77.630 F10800.000
;WIPE_START
G1 F8640.000
G1 X124.910 Y77.660 E-0.02763
G1 X121.738 Y77.660 E-0.73237
;WIPE_END
M73 Q22 S17
G1 E-0.04000 F2100.000
G1 Z0.600 F10800.000
G1 X72.410 Y77.541
G1 Z0.200
G1 E0.80000 F2100.000
G1 F1200.000
G1 X72.410 Y77.660 E0.00374
G1 X21.090 Y77.660 E1.60910
G1 X21.090 Y28.247 E1.54932
G1 X21.123 Y27.235 E0.03173
G1 X21.210 Y26.439 E0.02513
G1 X72.290 Y26.439 E1.60156
G1 X72.377 Y27.235 E0.02513
G1 X72.410 Y28.247 E0.03173
G1 X72.410 Y77.481 E1.54370
G1 X72.513 Y77.600 F10800.000
;WIPE_START
G1 F8640.000
G1 X72.410 Y77.660 E-0.04140
G1 X69.298 Y77.660 E-0.71860
;WIPE_END
G1 E-0.04000 F2100.000
G1 Z0.600 F10800.000
G1 X19.910 Y26.156
M73 P23 R17
G1 Z0.200
G1 E0.80000 F2100.000
G1 F1200.000
G1 X20.511 Y26.146 E0.01884
G1 X21.509 Y26.061 E0.03141
G1 X71.990 Y26.061 E1.58280
M73 Q23 S17
G1 X72.485 Y26.109 E0.01561
G1 X73.000 Y26.132 E0.01615
G1 X73.515 Y26.109 E0.01615
G1 X74.010 Y26.061 E0.01561
G1 X124.490 Y26.061 E1.58276
G1 X124.985 Y26.109 E0.01561
G1 X125.500 Y26.132 E0.01615
G1 X126.015 Y26.109 E0.01615
G1 X126.510 Y26.061 E0.01561
G1 X176.990 Y26.061 E1.58276
G1 X177.485 Y26.109 E0.01561
G1 X178.000 Y26.132 E0.01615
G1 X178.515 Y26.109 E0.01615
G1 X179.010 Y26.061 E0.01561
G1 X229.492 Y26.061 E1.58283
G1 X230.140 Y26.110 E0.02037
G1 X230.189 Y26.758 E0.02037
G1 X230.189 Y77.240 E1.58283
G1 X230.141 Y77.735 E0.01561
G1 X230.118 Y78.250 E0.01615
M73 P24 R17
G1 X230.141 Y78.765 E0.01615
G1 X230.189 Y79.260 E0.01561
G1 X230.189 Y129.740 E1.58276
M73 Q24 S17
G1 X230.141 Y130.235 E0.01561
G1 X230.118 Y130.750 E0.01615
G1 X230.141 Y131.265 E0.01615
G1 X230.189 Y131.760 E0.01561
G1 X230.189 Y182.241 E1.58280
G1 X230.104 Y183.239 E0.03141
G1 X230.094 Y183.840 E0.01884
G1 X19.910 Y183.840 E6.59018
M73 P25 R17
M73 Q25 S17
G1 X19.910 Y26.216 E4.94220
M73 P25 R16
G1 X20.302 Y26.236 F10800.000
G1 X20.612 Y26.707
;TYPE:Gap fill
;WIDTH:0.170846
G1 F1200.000
G1 X20.540 Y26.775 E0.00105
G1 X20.517 Y27.191 E0.00443
;WIDTH:0.12608
G1 X20.500 Y28.224 E0.00715
;WIPE_START
G1 F8640.000
G1 X20.517 Y27.191 E-0.23874
;WIPE_END
G1 E-0.56126 F2100.000
G1 Z0.600 F10800.000
G1 X73.000 Y28.247
G1 Z0.200
G1 E0.80000 F2100.000
;WIDTH:0.126603
G1 F1200.000
G1 X73.000 Y27.720 E0.00367
;WIDTH:0.160525
G1 X73.000 Y27.189 E0.00520
;WIDTH:0.202941
G1 X73.000 Y26.994 E0.00259
;WIDTH:0.245357
G1 X73.000 Y26.799 E0.00328
;WIPE_START
G1 F8640.000
G1 X73.000 Y26.994 E-0.04500
;WIPE_END
G1 E-0.75500 F2100.000
G1 Z0.600 F10800.000
G1 X125.500 Y26.799
G1 Z0.200
G1 E0.80000 F2100.000
;WIDTH:0.245357
G1 F1200.000
G1 X125.500 Y26.994 E0.00328
;WIDTH:0.202941
G1 X125.500 Y27.189 E0.00259
;WIDTH:0.160525
G1 X125.500 Y27.720 E0.00520
;WIDTH:0.126603
G1 X125.500 Y28.247 E0.00367
;WIPE_START
G1 F8640.000
G1 X125.500 Y27.720 E-0.12169
;WIPE_END
G1 E-0.67831 F2100.000
G1 Z0.600 F10800.000
G1 X178.000 Y28.247
G1 Z0.200
G1 E0.80000 F2100.000
G1 F1200.000
G1 X178.000 Y27.720 E0.00367
;WIDTH:0.160525
G1 X178.000 Y27.189 E0.00520
;WIDTH:0.202941
G1 X178.000 Y26.994 E0.00259
;WIDTH:0.245357
G1 X178.000 Y26.799 E0.00328
;WIPE_START
G1 F8640.000
G1 X178.000 Y26.994 E-0.04500
;WIPE_END
G1 E-0.75500 F2100.000
G1 Z0.600 F10800.000
G1 X229.451 Y78.250
M73 P26 R16
G1 Z0.200
G1 E0.80000 F2100.000
;WIDTH:0.245376
G1 F1200.000
G1 X229.256 Y78.250 E0.00328
;WIDTH:0.202956
G1 X229.061 Y78.250 E0.00259
;WIDTH:0.160537
G1 X228.530 Y78.250 E0.00520
;WIDTH:0.12661
G1 X228.003 Y78.250 E0.00367
;WIPE_START
G1 F8640.000
G1 X228.530 Y78.250 E-0.12169
;WIPE_END
G1 E-0.67831 F2100.000
G1 Z0.600 F10800.000
G1 X228.003 Y130.750
G1 Z0.200
M73 Q26 S17
G1 E0.80000 F2100.000
G1 F1200.000
G1 X228.530 Y130.750 E0.00367
;WIDTH:0.160537
G1 X229.061 Y130.750 E0.00520
;WIDTH:0.202956
G1 X229.256 Y130.750 E0.00259
;WIDTH:0.245376
G1 X229.451 Y130.750 E0.00328
;WIPE_START
G1 F8640.000
G1 X229.256 Y130.750 E-0.04500
;WIPE_END
G1 E-0.75500 F2100.000
G1 Z0.600 F10800.000
G1 X229.543 Y183.138
G1 Z0.200
G1 E0.80000 F2100.000
;WIDTH:0.170857
G1 F1200.000
G1 X229.475 Y183.210 E0.00105
G1 X229.059 Y183.233 E0.00443
;WIDTH:0.126088
G1 X228.026 Y183.250 E0.00715
; stop printing object grid_2021-08-28_22h08m.stl id:0 copy 0
M106 S84.15
;LAYER_CHANGE
;Z:0.5
;HEIGHT:0.3
;BEFORE_LAYER_CHANGE
G92 E0.0
;0.5


;WIPE_START
G1 F8640.000
G1 X229.059 Y183.233 E-0.23874
;WIPE_END
G1 E-0.56126 F2100.000
G1 Z0.600 F10800.000
;AFTER_LAYER_CHANGE
;0.5
G1 X231.261 Y186.502
G1 Z0.500
G1 E0.80000 F2100.000
;TYPE:Skirt
;WIDTH:0.42
G1 F2700.000
G1 X230.505 Y186.627 E0.03398
G1 X19.496 Y186.627 E9.35925
M73 Q26 S16
G1 X18.953 Y186.563 E0.02427
G1 X18.442 Y186.378 E0.02411
G1 X17.986 Y186.082 E0.02411
G1 X17.609 Y185.691 E0.02411
G1 X17.249 Y185.014 E0.03398
G1 X17.123 Y184.259 E0.03398
G1 X17.123 Y25.742 E7.03096
G1 X17.187 Y25.203 E0.02411
G1 X17.372 Y24.692 E0.02411
G1 X17.668 Y24.236 E0.02411
G1 X18.060 Y23.859 E0.02411
G1 X18.739 Y23.498 E0.03415
G1 X19.495 Y23.373 E0.03398
G1 X230.504 Y23.373 E9.35925
M73 P27 R16
M73 Q27 S16
G1 X231.406 Y23.552 E0.04080
G1 X232.175 Y24.063 E0.04096
G1 X232.691 Y24.829 E0.04096
G1 X232.877 Y25.730 E0.04080
G1 X232.877 Y184.265 E7.03181
G1 X232.811 Y184.805 E0.02411
G1 X232.627 Y185.312 E0.02394
G1 X232.332 Y185.764 E0.02394
G1 X231.940 Y186.141 E0.02411
G1 X231.314 Y186.474 E0.03148
; printing object grid_2021-08-28_22h08m.stl id:0 copy 0
;WIPE_START
G1 F8640.000
G1 X230.505 Y186.627 E-0.19007
G1 X228.037 Y186.627 E-0.56993
;WIPE_END
G1 E-0.04000 F2100.000
G1 Z0.900 F10800.000
G1 X229.800 Y130.050
G1 Z0.500
G1 E0.80000 F2100.000
M204 S800
;TYPE:External perimeter
;WIDTH:0.6
G1 X178.700 Y130.050 E3.41376
G1 X178.700 Y78.950 E3.41376
G1 X229.800 Y78.950 E3.41376
G1 X229.800 Y129.990 E3.40975
M204 S1000
G1 X229.904 Y130.436 F10800.000
;WIPE_START
G1 F8640.000
G1 X226.509 Y129.994 E-0.76000
;WIPE_END
G1 E-0.04000 F2100.000
G1 Z0.900 F10800.000
G1 X229.800 Y131.450
M73 P28 R16
