; generated by PrusaSlicer 2.3.3+x64 on 2021-08-29 at 04:25:11 UTC

; 

; external perimeters extrusion width = 0.60mm
; perimeters extrusion width = 0.50mm
; infill extrusion width = 0.50mm
; solid infill extrusion width = 0.50mm
; top infill extrusion width = 0.45mm
; first layer extrusion width = 0.42mm

M73 P0 R42
M73 Q0 S42
M201 X1000 Y1000 Z200 E5000 ; sets maximum accelerations, mm/sec^2
M203 X200 Y200 Z12 E120 ; sets maximum feedrates, mm/sec
M204 P1250 R1250 T1250 ; sets acceleration (P, T) and retract acceleration (R), mm/sec^2
M205 X8.00 Y8.00 Z0.40 E4.50 ; sets the jerk limits, mm/sec
M205 S0 T0 ; sets the minimum extruding and travel feed rate, mm/sec
M107
;TYPE:Custom
M862.3 P "MK3S" ; printer model check
M862.1 P0.4 ; nozzle diameter check
M115 U3.10.0 ; tell printer latest fw version
G90 ; use absolute coordinates
M83 ; extruder relative mode
M104 S215 ; set extruder temp
M140 S65 ; set bed temp
M190 S65 ; wait for bed temp
M109 S215 ; wait for extruder temp
G28 W ; home all without mesh bed level
G80 ; mesh bed leveling
G1 Y-3.0 F1000.0 ; go outside print area
G92 E0.0
G1 X60.0 E9.0 F1000.0 ; intro line
M73 P0 R41
G1 X100.0 E12.5 F1000.0 ; intro line
G92 E0.0
M221 S95

; Don't change E values below. Excessive value can damage the printer.

M907 E538 ; set extruder motor current
G21 ; set units to millimeters
G90 ; use absolute coordinates
M83 ; use relative distances for extrusion
M900 K0.05 ; Filament gcode LA 1.5
M900 K30 ; Filament gcode LA 1.0
;LAYER_CHANGE
;Z:0.2
;HEIGHT:0.2
;BEFORE_LAYER_CHANGE
G92 E0.0
;0.2


G1 E-0.80000 F2100.000
G1 Z0.400 F10800.000
;AFTER_LAYER_CHANGE
;0.2
G1 X18.739 Y23.498
G1 Z0.200
G1 E0.80000 F2100.000
M204 S1000
;TYPE:Skirt
;WIDTH:0.42
G1 F1200.000
G1 X19.495 Y23.373 E0.02402
G1 X230.504 Y23.373 E6.61603
G1 X231.406 Y23.552 E0.02884
G1 X232.175 Y24.063 E0.02896
G1 X232.691 Y24.829 E0.02896
G1 X232.877 Y25.730 E0.02884
G1 X232.877 Y184.265 E4.97076
M73 P1 R41
M73 Q1 S42
G1 X232.811 Y184.805 E0.01704
G1 X232.627 Y185.312 E0.01692
G1 X232.332 Y185.764 E0.01692
G1 X231.940 Y186.141 E0.01704
G1 X231.261 Y186.502 E0.02414
G1 X230.505 Y186.627 E0.02402
G1 X19.496 Y186.627 E6.61603
M73 Q1 S41
G1 X18.953 Y186.563 E0.01716
G1 X18.442 Y186.378 E0.01704
G1 X17.986 Y186.082 E0.01704
G1 X17.609 Y185.691 E0.01704
G1 X17.249 Y185.014 E0.02402
G1 X17.123 Y184.259 E0.02402
G1 X17.123 Y25.742 E4.97017
G1 X17.187 Y25.203 E0.01704
G1 X17.372 Y24.692 E0.01704
G1 X17.668 Y24.236 E0.01704
G1 X18.060 Y23.859 E0.01704
G1 X18.686 Y23.526 E0.02226
; printing object test.stl id:0 copy 0
;WIPE_START
G1 F8640.000
G1 X19.495 Y23.373 E-0.19007
G1 X21.963 Y23.373 E-0.56993
;WIPE_END
G1 E-0.04000 F2100.000
G1 Z0.600 F10800.000
G1 X126.210 Y26.439
G1 Z0.200
G1 E0.80000 F2100.000
;TYPE:External perimeter
G1 F1200.000
G1 X151.040 Y26.439 E0.77850
G1 X151.127 Y27.230 E0.02496
G1 X151.160 Y28.231 E0.03141
G1 X151.160 Y51.410 E0.72675
G1 X126.090 Y51.410 E0.78605
G1 X126.090 Y28.231 E0.72675
M73 P2 R41
M73 Q2 S41
G1 X126.123 Y27.230 E0.03141
G1 X126.204 Y26.498 E0.02308
G1 X126.219 Y26.039 F10800.000
;WIPE_START
G1 F8640.000
G1 X129.495 Y26.490 E-0.76000
;WIPE_END
G1 E-0.04000 F2100.000
G1 Z0.600 F10800.000
G1 X99.960 Y26.439
G1 Z0.200
G1 E0.80000 F2100.000
G1 F1200.000
G1 X124.790 Y26.439 E0.77850
G1 X124.877 Y27.230 E0.02496
G1 X124.910 Y28.231 E0.03141
G1 X124.910 Y51.410 E0.72675
G1 X99.840 Y51.410 E0.78605
G1 X99.840 Y28.231 E0.72675
G1 X99.873 Y27.230 E0.03141
G1 X99.954 Y26.498 E0.02308
G1 X99.969 Y26.039 F10800.000
;WIPE_START
G1 F8640.000
G1 X103.245 Y26.490 E-0.76000
;WIPE_END
G1 E-0.04000 F2100.000
G1 Z0.600 F10800.000
G1 X73.710 Y26.439
G1 Z0.200
G1 E0.80000 F2100.000
G1 F1200.000
G1 X98.540 Y26.439 E0.77850
G1 X98.627 Y27.230 E0.02496
G1 X98.660 Y28.231 E0.03141
G1 X98.660 Y51.410 E0.72675
G1 X73.590 Y51.410 E0.78605
G1 X73.590 Y28.231 E0.72675
G1 X73.623 Y27.230 E0.03141
G1 X73.704 Y26.498 E0.02308
G1 X73.719 Y26.039 F10800.000
;WIPE_START
G1 F8640.000
G1 X76.995 Y26.490 E-0.76000
;WIPE_END
G1 E-0.04000 F2100.000
G1 Z0.600 F10800.000
G1 X47.460 Y26.439
M73 P2 R40
G1 Z0.200
G1 E0.80000 F2100.000
G1 F1200.000
G1 X72.290 Y26.439 E0.77850
G1 X72.377 Y27.230 E0.02496
G1 X72.410 Y28.231 E0.03141
G1 X72.410 Y51.410 E0.72675
G1 X47.340 Y51.410 E0.78605
G1 X47.340 Y28.231 E0.72675
G1 X47.373 Y27.230 E0.03141
G1 X47.454 Y26.498 E0.02308
G1 X47.469 Y26.039 F10800.000
;WIPE_START
G1 F8640.000
G1 X50.745 Y26.490 E-0.76000
;WIPE_END
G1 E-0.04000 F2100.000
G1 Z0.600 F10800.000
G1 X21.210 Y26.439
G1 Z0.200
G1 E0.80000 F2100.000
G1 F1200.000
G1 X46.040 Y26.439 E0.77850
G1 X46.127 Y27.230 E0.02496
G1 X46.160 Y28.231 E0.03141
G1 X46.160 Y51.410 E0.72675
G1 X21.090 Y51.410 E0.78605
G1 X21.090 Y28.231 E0.72675
G1 X21.123 Y27.230 E0.03141
G1 X21.204 Y26.498 E0.02308
G1 X21.219 Y26.039 F10800.000
;WIPE_START
G1 F8640.000
G1 X24.495 Y26.490 E-0.76000
;WIPE_END
G1 E-0.04000 F2100.000
G1 Z0.600 F10800.000
G1 X152.460 Y26.439
M73 Q3 S41
G1 Z0.200
G1 E0.80000 F2100.000
G1 F1200.000
G1 X177.290 Y26.439 E0.77850
M73 P3 R40
G1 X177.377 Y27.230 E0.02496
G1 X177.410 Y28.231 E0.03141
G1 X177.410 Y51.410 E0.72675
G1 X152.340 Y51.410 E0.78605
G1 X152.340 Y28.231 E0.72675
G1 X152.373 Y27.230 E0.03141
G1 X152.454 Y26.498 E0.02308
G1 X152.469 Y26.039 F10800.000
;WIPE_START
G1 F8640.000
G1 X155.745 Y26.490 E-0.76000
;WIPE_END
G1 E-0.04000 F2100.000
G1 Z0.600 F10800.000
G1 X151.537 Y104.713
G1 Z0.200
G1 E0.80000 F2100.000
;TYPE:Perimeter
G1 F1200.000
G1 X151.537 Y130.537 E0.80970
G1 X125.713 Y130.537 E0.80970
G1 X125.713 Y104.713 E0.80970
G1 X151.477 Y104.713 E0.80782
G1 X151.160 Y105.090 F10800.000
;TYPE:External perimeter
G1 F1200.000
G1 X151.160 Y130.160 E0.78605
G1 X126.090 Y130.160 E0.78605
G1 X126.090 Y105.090 E0.78605
M73 Q3 S40
G1 X151.100 Y105.090 E0.78417
G1 X151.546 Y104.986 F10800.000
;WIPE_START
G1 F8640.000
G1 X151.108 Y108.381 E-0.76000
;WIPE_END
G1 E-0.04000 F2100.000
G1 Z0.600 F10800.000
G1 X99.463 Y104.713
G1 Z0.200
G1 E0.80000 F2100.000
;TYPE:Perimeter
G1 F1200.000
G1 X125.287 Y104.713 E0.80970
G1 X125.287 Y130.537 E0.80970
G1 X99.463 Y130.537 E0.80970
G1 X99.463 Y104.773 E0.80782
G1 X99.840 Y105.090 F10800.000
;TYPE:External perimeter
G1 F1200.000
G1 X124.910 Y105.090 E0.78605
G1 X124.910 Y130.160 E0.78605
M73 Q4 S40
G1 X99.840 Y130.160 E0.78605
M73 P4 R40
G1 X99.840 Y105.150 E0.78417
G1 X99.736 Y104.704 F10800.000
;WIPE_START
G1 F8640.000
G1 X103.131 Y105.142 E-0.76000
;WIPE_END
G1 E-0.04000 F2100.000
G1 Z0.600 F10800.000
G1 X73.213 Y104.713
G1 Z0.200
G1 E0.80000 F2100.000
;TYPE:Perimeter
G1 F1200.000
G1 X99.037 Y104.713 E0.80970
G1 X99.037 Y130.537 E0.80970
G1 X73.213 Y130.537 E0.80970
G1 X73.213 Y104.773 E0.80782
G1 X73.590 Y105.090 F10800.000
;TYPE:External perimeter
G1 F1200.000
G1 X98.660 Y105.090 E0.78605
G1 X98.660 Y130.160 E0.78605
G1 X73.590 Y130.160 E0.78605
G1 X73.590 Y105.150 E0.78417
G1 X73.486 Y104.704 F10800.000
;WIPE_START
G1 F8640.000
G1 X76.881 Y105.142 E-0.76000
;WIPE_END
G1 E-0.04000 F2100.000
G1 Z0.600 F10800.000
G1 X73.213 Y78.463
G1 Z0.200
G1 E0.80000 F2100.000
;TYPE:Perimeter
G1 F1200.000
G1 X99.037 Y78.463 E0.80970
G1 X99.037 Y104.287 E0.80970
G1 X73.213 Y104.287 E0.80970
G1 X73.213 Y78.523 E0.80782
G1 X73.590 Y78.840 F10800.000
;TYPE:External perimeter
G1 F1200.000
G1 X98.660 Y78.840 E0.78605
G1 X98.660 Y103.910 E0.78605
G1 X73.590 Y103.910 E0.78605
M73 P4 R39
G1 X73.590 Y78.900 E0.78417
G1 X73.486 Y78.454 F10800.000
;WIPE_START
G1 F8640.000
G1 X76.881 Y78.892 E-0.76000
;WIPE_END
G1 E-0.04000 F2100.000
G1 Z0.600 F10800.000
G1 X46.963 Y78.463
M73 Q5 S40
G1 Z0.200
G1 E0.80000 F2100.000
;TYPE:Perimeter
G1 F1200.000
G1 X72.787 Y78.463 E0.80970
M73 P5 R39
G1 X72.787 Y104.287 E0.80970
G1 X46.963 Y104.287 E0.80970
G1 X46.963 Y78.523 E0.80782
G1 X47.340 Y78.840 F10800.000
;TYPE:External perimeter
G1 F1200.000
G1 X72.410 Y78.840 E0.78605
G1 X72.410 Y103.910 E0.78605
G1 X47.340 Y103.910 E0.78605
G1 X47.340 Y78.900 E0.78417
G1 X47.236 Y78.454 F10800.000
;WIPE_START
G1 F8640.000
G1 X50.631 Y78.892 E-0.76000
;WIPE_END
G1 E-0.04000 F2100.000
G1 Z0.600 F10800.000
G1 X46.963 Y104.713
G1 Z0.200
G1 E0.80000 F2100.000
;TYPE:Perimeter
G1 F1200.000
G1 X72.787 Y104.713 E0.80970
G1 X72.787 Y130.537 E0.80970
G1 X46.963 Y130.537 E0.80970
G1 X46.963 Y104.773 E0.80782
G1 X47.340 Y105.090 F10800.000
;TYPE:External perimeter
G1 F1200.000
G1 X72.410 Y105.090 E0.78605
G1 X72.410 Y130.160 E0.78605
G1 X47.340 Y130.160 E0.78605
G1 X47.340 Y105.150 E0.78417
G1 X47.236 Y104.704 F10800.000
;WIPE_START
G1 F8640.000
G1 X50.631 Y105.142 E-0.76000
;WIPE_END
G1 E-0.04000 F2100.000
G1 Z0.600 F10800.000
G1 X46.963 Y130.963
G1 Z0.200
G1 E0.80000 F2100.000
;TYPE:Perimeter
G1 F1200.000
G1 X72.787 Y130.963 E0.80970
G1 X72.787 Y156.787 E0.80970
M73 Q5 S39
G1 X46.963 Y156.787 E0.80970
M73 P6 R39
M73 Q6 S39
G1 X46.963 Y131.023 E0.80782
G1 X47.340 Y131.340 F10800.000
;TYPE:External perimeter
G1 F1200.000
G1 X72.410 Y131.340 E0.78605
G1 X72.410 Y156.410 E0.78605
G1 X47.340 Y156.410 E0.78605
G1 X47.340 Y131.400 E0.78417
G1 X47.236 Y130.954 F10800.000
;WIPE_START
G1 F8640.000
G1 X50.631 Y131.392 E-0.76000
;WIPE_END
G1 E-0.04000 F2100.000
G1 Z0.600 F10800.000
G1 X20.713 Y130.963
G1 Z0.200
G1 E0.80000 F2100.000
;TYPE:Perimeter
G1 F1200.000
G1 X46.537 Y130.963 E0.80970
G1 X46.537 Y156.787 E0.80970
G1 X20.713 Y156.787 E0.80970
G1 X20.713 Y131.023 E0.80782
G1 X21.090 Y131.340 F10800.000
;TYPE:External perimeter
G1 F1200.000
G1 X46.160 Y131.340 E0.78605
G1 X46.160 Y156.410 E0.78605
G1 X21.090 Y156.410 E0.78605
G1 X21.090 Y131.400 E0.78417
G1 X20.986 Y130.954 F10800.000
;WIPE_START
G1 F8640.000
G1 X24.381 Y131.392 E-0.76000
;WIPE_END
G1 E-0.04000 F2100.000
G1 Z0.600 F10800.000
G1 X20.713 Y104.713
G1 Z0.200
G1 E0.80000 F2100.000
;TYPE:Perimeter
G1 F1200.000
G1 X46.537 Y104.713 E0.80970
G1 X46.537 Y130.537 E0.80970
G1 X20.713 Y130.537 E0.80970
G1 X20.713 Y104.773 E0.80782
G1 X21.090 Y105.090 F10800.000
;TYPE:External perimeter
G1 F1200.000
G1 X46.160 Y105.090 E0.78605
M73 P7 R39
M73 Q7 S39
G1 X46.160 Y130.160 E0.78605
G1 X21.090 Y130.160 E0.78605
G1 X21.090 Y105.150 E0.78417
G1 X20.986 Y104.704 F10800.000
;WIPE_START
G1 F8640.000
G1 X24.381 Y105.142 E-0.76000
;WIPE_END
G1 E-0.04000 F2100.000
G1 Z0.600 F10800.000
G1 X20.713 Y78.463
G1 Z0.200
G1 E0.80000 F2100.000
;TYPE:Perimeter
G1 F1200.000
G1 X46.537 Y78.463 E0.80970
G1 X46.537 Y104.287 E0.80970
G1 X20.713 Y104.287 E0.80970
M73 P7 R38
G1 X20.713 Y78.523 E0.80782
G1 X21.090 Y78.840 F10800.000
;TYPE:External perimeter
G1 F1200.000
G1 X46.160 Y78.840 E0.78605
G1 X46.160 Y103.910 E0.78605
G1 X21.090 Y103.910 E0.78605
G1 X21.090 Y78.900 E0.78417
G1 X20.986 Y78.454 F10800.000
;WIPE_START
G1 F8640.000
G1 X24.381 Y78.892 E-0.76000
;WIPE_END
G1 E-0.04000 F2100.000
G1 Z0.600 F10800.000
G1 X20.713 Y52.213
G1 Z0.200
G1 E0.80000 F2100.000
;TYPE:Perimeter
G1 F1200.000
G1 X46.537 Y52.213 E0.80970
G1 X46.537 Y78.037 E0.80970
G1 X20.713 Y78.037 E0.80970
G1 X20.713 Y52.273 E0.80782
G1 X21.090 Y52.590 F10800.000
;TYPE:External perimeter
G1 F1200.000
G1 X46.160 Y52.590 E0.78605
G1 X46.160 Y77.660 E0.78605
G1 X21.090 Y77.660 E0.78605
G1 X21.090 Y52.650 E0.78417
M73 P8 R38
M73 Q8 S39
G1 X20.986 Y52.204 F10800.000
;WIPE_START
G1 F8640.000
G1 X24.381 Y52.642 E-0.76000
;WIPE_END
G1 E-0.04000 F2100.000
G1 Z0.600 F10800.000
G1 X46.963 Y52.213
G1 Z0.200
G1 E0.80000 F2100.000
;TYPE:Perimeter
G1 F1200.000
G1 X72.787 Y52.213 E0.80970
G1 X72.787 Y78.037 E0.80970
G1 X46.963 Y78.037 E0.80970
G1 X46.963 Y52.273 E0.80782
G1 X47.340 Y52.590 F10800.000
;TYPE:External perimeter
G1 F1200.000
G1 X72.410 Y52.590 E0.78605
G1 X72.410 Y77.660 E0.78605
M73 Q8 S38
G1 X47.340 Y77.660 E0.78605
G1 X47.340 Y52.650 E0.78417
G1 X47.236 Y52.204 F10800.000
;WIPE_START
G1 F8640.000
G1 X50.631 Y52.642 E-0.76000
;WIPE_END
G1 E-0.04000 F2100.000
G1 Z0.600 F10800.000
G1 X73.213 Y52.213
G1 Z0.200
G1 E0.80000 F2100.000
;TYPE:Perimeter
G1 F1200.000
G1 X99.037 Y52.213 E0.80970
G1 X99.037 Y78.037 E0.80970
G1 X73.213 Y78.037 E0.80970
G1 X73.213 Y52.273 E0.80782
G1 X73.590 Y52.590 F10800.000
;TYPE:External perimeter
G1 F1200.000
G1 X98.660 Y52.590 E0.78605
G1 X98.660 Y77.660 E0.78605
G1 X73.590 Y77.660 E0.78605
G1 X73.590 Y52.650 E0.78417
G1 X73.486 Y52.204 F10800.000
;WIPE_START
G1 F8640.000
G1 X76.881 Y52.642 E-0.76000
;WIPE_END
G1 E-0.04000 F2100.000
G1 Z0.600 F10800.000
G1 X99.463 Y52.213
G1 Z0.200
G1 E0.80000 F2100.000
;TYPE:Perimeter
G1 F1200.000
G1 X125.287 Y52.213 E0.80970
G1 X125.287 Y78.037 E0.80970
M73 P9 R38
M73 Q9 S38
G1 X99.463 Y78.037 E0.80970
G1 X99.463 Y52.273 E0.80782
G1 X99.840 Y52.590 F10800.000
;TYPE:External perimeter
G1 F1200.000
G1 X124.910 Y52.590 E0.78605
G1 X124.910 Y77.660 E0.78605
G1 X99.840 Y77.660 E0.78605
G1 X99.840 Y52.650 E0.78417
G1 X99.736 Y52.204 F10800.000
;WIPE_START
G1 F8640.000
G1 X103.131 Y52.642 E-0.76000
;WIPE_END
G1 E-0.04000 F2100.000
G1 Z0.600 F10800.000
G1 X125.713 Y52.213
G1 Z0.200
G1 E0.80000 F2100.000
;TYPE:Perimeter
G1 F1200.000
G1 X151.537 Y52.213 E0.80970
G1 X151.537 Y78.037 E0.80970
G1 X125.713 Y78.037 E0.80970
G1 X125.713 Y52.273 E0.80782
G1 X126.090 Y52.590 F10800.000
;TYPE:External perimeter
G1 F1200.000
G1 X151.160 Y52.590 E0.78605
G1 X151.160 Y77.660 E0.78605
G1 X126.090 Y77.660 E0.78605
G1 X126.090 Y52.650 E0.78417
M73 P9 R37
G1 X125.986 Y52.204 F10800.000
;WIPE_START
G1 F8640.000
G1 X129.381 Y52.642 E-0.76000
;WIPE_END
G1 E-0.04000 F2100.000
G1 Z0.600 F10800.000
G1 X125.713 Y78.463
G1 Z0.200
G1 E0.80000 F2100.000
;TYPE:Perimeter
G1 F1200.000
G1 X151.537 Y78.463 E0.80970
G1 X151.537 Y104.287 E0.80970
G1 X125.713 Y104.287 E0.80970
G1 X125.713 Y78.523 E0.80782
M73 P10 R37
G1 X126.090 Y78.840 F10800.000
;TYPE:External perimeter
G1 F1200.000
G1 X151.160 Y78.840 E0.78605
M73 Q10 S38
G1 X151.160 Y103.910 E0.78605
G1 X126.090 Y103.910 E0.78605
G1 X126.090 Y78.900 E0.78417
G1 X125.986 Y78.454 F10800.000
;WIPE_START
G1 F8640.000
G1 X129.381 Y78.892 E-0.76000
;WIPE_END
G1 E-0.04000 F2100.000
G1 Z0.600 F10800.000
G1 X99.463 Y78.463
G1 Z0.200
G1 E0.80000 F2100.000
;TYPE:Perimeter
G1 F1200.000
G1 X125.287 Y78.463 E0.80970
G1 X125.287 Y104.287 E0.80970
G1 X99.463 Y104.287 E0.80970
G1 X99.463 Y78.523 E0.80782
G1 X99.840 Y78.840 F10800.000
;TYPE:External perimeter
G1 F1200.000
G1 X124.910 Y78.840 E0.78605
G1 X124.910 Y103.910 E0.78605
G1 X99.840 Y103.910 E0.78605
G1 X99.840 Y78.900 E0.78417
G1 X99.736 Y78.454 F10800.000
;WIPE_START
G1 F8640.000
G1 X103.131 Y78.892 E-0.76000
;WIPE_END
G1 E-0.04000 F2100.000
G1 Z0.600 F10800.000
G1 X151.963 Y104.713
G1 Z0.200
G1 E0.80000 F2100.000
;TYPE:Perimeter
G1 F1200.000
G1 X177.787 Y104.713 E0.80970
M73 Q10 S37
G1 X177.787 Y130.537 E0.80970
G1 X151.963 Y130.537 E0.80970
G1 X151.963 Y104.773 E0.80782
G1 X152.340 Y105.090 F10800.000
;TYPE:External perimeter
G1 F1200.000
G1 X177.410 Y105.090 E0.78605
G1 X177.410 Y130.160 E0.78605
G1 X152.340 Y130.160 E0.78605
M73 P11 R37
M73 Q11 S37
G1 X152.340 Y105.150 E0.78417
G1 X152.236 Y104.704 F10800.000
;WIPE_START
G1 F8640.000
G1 X155.631 Y105.142 E-0.76000
;WIPE_END
G1 E-0.04000 F2100.000
G1 Z0.600 F10800.000
G1 X151.537 Y130.963
G1 Z0.200
G1 E0.80000 F2100.000
;TYPE:Perimeter
G1 F1200.000
G1 X151.537 Y156.787 E0.80970
G1 X125.713 Y156.787 E0.80970
G1 X125.713 Y130.963 E0.80970
G1 X151.477 Y130.963 E0.80782
G1 X151.160 Y131.340 F10800.000
;TYPE:External perimeter
G1 F1200.000
G1 X151.160 Y156.410 E0.78605
G1 X126.090 Y156.410 E0.78605
G1 X126.090 Y131.340 E0.78605
G1 X151.100 Y131.340 E0.78417
G1 X151.546 Y131.236 F10800.000
;WIPE_START
G1 F8640.000
G1 X151.108 Y134.631 E-0.76000
;WIPE_END
G1 E-0.04000 F2100.000
G1 Z0.600 F10800.000
G1 X99.463 Y130.963
G1 Z0.200
G1 E0.80000 F2100.000
;TYPE:Perimeter
G1 F1200.000
G1 X125.287 Y130.963 E0.80970
G1 X125.287 Y156.787 E0.80970
G1 X99.463 Y156.787 E0.80970
G1 X99.463 Y131.023 E0.80782
G1 X99.840 Y131.340 F10800.000
;TYPE:External perimeter
G1 F1200.000
G1 X124.910 Y131.340 E0.78605
G1 X124.910 Y156.410 E0.78605
G1 X99.840 Y156.410 E0.78605
G1 X99.840 Y131.400 E0.78417
G1 X99.736 Y130.954 F10800.000
;WIPE_START
G1 F8640.000
G1 X103.131 Y131.392 E-0.76000
;WIPE_END
