; generated by PrusaSlicer 2.3.3+x64 on 2021-09-01 at 15:57:07 UTC

; 

; external perimeters extrusion width = 0.60mm
; perimeters extrusion width = 0.50mm
; infill extrusion width = 0.50mm
; solid infill extrusion width = 0.50mm
; top infill extrusion width = 0.45mm
; first layer extrusion width = 0.42mm

M73 P0 R545
M73 Q0 S546
M201 X1000 Y1000 Z200 E5000 ; sets maximum accelerations, mm/sec^2
M203 X200 Y200 Z12 E120 ; sets maximum feedrates, mm/sec
M204 P1250 R1250 T1250 ; sets acceleration (P, T) and retract acceleration (R), mm/sec^2
M205 X8.00 Y8.00 Z0.40 E4.50 ; sets the jerk limits, mm/sec
M205 S0 T0 ; sets the minimum extruding and travel feed rate, mm/sec
M107
;TYPE:Custom
M862.3 P "MK3S" ; printer model check
M862.1 P0.4 ; nozzle diameter check
M115 U3.10.0 ; tell printer latest fw version
G90 ; use absolute coordinates
M83 ; extruder relative mode
M104 S215 ; set extruder temp
M140 S65 ; set bed temp
M190 S65 ; wait for bed temp
M109 S215 ; wait for extruder temp
G28 W ; home all without mesh bed level
G80 ; mesh bed leveling
G1 Y-3.0 F1000.0 ; go outside print area
G92 E0.0
G1 X60.0 E9.0 F1000.0 ; intro line
G1 X100.0 E12.5 F1000.0 ; intro line
G92 E0.0
M221 S95

; Don't change E values below. Excessive value can damage the printer.

M907 E538 ; set extruder motor current
G21 ; set units to millimeters
G90 ; use absolute coordinates
M83 ; use relative distances for extrusion
M900 K0.05 ; Filament gcode LA 1.5
M900 K30 ; Filament gcode LA 1.0
;LAYER_CHANGE
;Z:0.2
;HEIGHT:0.2
;BEFORE_LAYER_CHANGE
G92 E0.0
;0.2


G1 E-0.80000 F2100.000
G1 Z0.400 F10800.000
;AFTER_LAYER_CHANGE
;0.2
G1 X20.837 Y27.289
G1 Z0.200
G1 E0.80000 F2100.000
M204 S1000
;TYPE:Skirt
;WIDTH:0.42
G1 F1200.000
G1 X21.575 Y27.170 E0.02343
G1 X233.092 Y27.074 E6.63198
G1 X233.995 Y27.254 E0.02884
G1 X234.764 Y27.765 E0.02896
G1 X235.280 Y28.531 E0.02896
G1 X235.466 Y29.431 E0.02884
G1 X235.466 Y182.967 E4.81399
G1 X235.398 Y183.514 E0.01728
G1 X235.207 Y184.030 E0.01728
G1 X234.901 Y184.489 E0.01728
G1 X234.499 Y184.865 E0.01728
G1 X233.831 Y185.210 E0.02355
G1 X233.094 Y185.329 E0.02343
G1 X21.576 Y185.425 E6.63198
M73 P0 R544
M73 Q0 S545
G1 X21.025 Y185.359 E0.01740
G1 X20.508 Y185.169 E0.01728
G1 X20.045 Y184.863 E0.01740
G1 X19.666 Y184.458 E0.01740
G1 X19.323 Y183.794 E0.02343
G1 X19.203 Y183.056 E0.02343
G1 X19.203 Y29.540 E4.81340
G1 X19.268 Y28.993 E0.01728
G1 X19.460 Y28.472 E0.01740
G1 X19.765 Y28.013 E0.01728
G1 X20.170 Y27.634 E0.01740
G1 X20.784 Y27.317 E0.02167
; printing object 3x2_box.stl id:1 copy 0
;WIPE_START
G1 F8640.000
G1 X21.575 Y27.170 E-0.18576
G1 X24.062 Y27.169 E-0.57424
;WIPE_END
G1 E-0.04000 F2100.000
G1 Z0.600 F10800.000
G1 X22.367 Y135.335
G1 Z0.200
G1 E0.80000 F2100.000
;TYPE:Perimeter
G1 F1200.000
G1 X69.293 Y135.335 E1.47133
G1 X69.293 Y182.260 E1.47133
G1 X22.367 Y182.260 E1.47133
G1 X22.367 Y135.395 E1.46945
G1 X21.990 Y134.958 F10800.000
;TYPE:External perimeter
G1 F1200.000
G1 X69.670 Y134.958 E1.49497
G1 X69.670 Y182.638 E1.49497
G1 X21.990 Y182.638 E1.49497
G1 X21.990 Y135.018 E1.49309
G1 X22.376 Y135.061 F10800.000
;WIPE_START
G1 F8640.000
G1 X25.281 Y135.013 E-0.76000
;WIPE_END
G1 E-0.04000 F2100.000
G1 Z0.600 F10800.000
G1 X68.416 Y135.448
G1 Z0.200
G1 E0.80000 F2100.000
;TYPE:Solid infill
;WIDTH:0.420614
G1 F1200.000
G1 X69.010 Y136.042 E0.02638
G1 X69.010 Y136.576 E0.01677
G1 X68.052 Y135.617 E0.04256
G1 X67.518 Y135.617 E0.01677
G1 X69.010 Y137.110 E0.06629
G1 X69.010 Y137.644 E0.01677
G1 X66.983 Y135.617 E0.09001
G1 X66.449 Y135.617 E0.01677
G1 X69.010 Y138.178 E0.11373
G1 X69.010 Y138.712 E0.01677
G1 X65.915 Y135.617 E0.13746
G1 X65.381 Y135.617 E0.01677
G1 X69.010 Y139.246 E0.16118
G1 X69.010 Y139.781 E0.01677
G1 X64.847 Y135.617 E0.18490
G1 X64.313 Y135.617 E0.01677
G1 X69.010 Y140.315 E0.20863
G1 X69.010 Y140.849 E0.01677
G1 X63.779 Y135.617 E0.23235
G1 X63.244 Y135.617 E0.01677
G1 X69.010 Y141.383 E0.25607
G1 X69.010 Y141.917 E0.01677
G1 X62.710 Y135.617 E0.27980
G1 X62.176 Y135.617 E0.01677
G1 X69.010 Y142.451 E0.30352
G1 X69.010 Y142.985 E0.01677
G1 X61.642 Y135.617 E0.32724
G1 X61.108 Y135.617 E0.01677
G1 X69.010 Y143.520 E0.35097
G1 X69.010 Y144.054 E0.01677
G1 X60.574 Y135.617 E0.37469
G1 X60.040 Y135.617 E0.01677
G1 X69.010 Y144.588 E0.39841
G1 X69.010 Y145.122 E0.01677
G1 X59.505 Y135.617 E0.42214
G1 X58.971 Y135.617 E0.01677
G1 X69.010 Y145.656 E0.44586
G1 X69.010 Y146.190 E0.01677
G1 X58.437 Y135.617 E0.46958
G1 X57.903 Y135.617 E0.01677
G1 X69.010 Y146.724 E0.49331
G1 X69.010 Y147.259 E0.01677
G1 X57.369 Y135.617 E0.51703
G1 X56.835 Y135.617 E0.01677
G1 X69.010 Y147.793 E0.54075
G1 X69.010 Y148.327 E0.01677
G1 X56.301 Y135.617 E0.56448
G1 X55.766 Y135.617 E0.01677
G1 X69.010 Y148.861 E0.58820
G1 X69.010 Y149.395 E0.01677
G1 X55.232 Y135.617 E0.61192
G1 X54.698 Y135.617 E0.01677
G1 X69.010 Y149.929 E0.63565
G1 X69.010 Y150.463 E0.01677
G1 X54.164 Y135.617 E0.65937
G1 X53.630 Y135.617 E0.01677
G1 X69.010 Y150.998 E0.68309
G1 X69.010 Y151.532 E0.01677
G1 X53.096 Y135.617 E0.70681
G1 X52.562 Y135.617 E0.01677
G1 X69.010 Y152.066 E0.73054
G1 X69.010 Y152.600 E0.01677
G1 X52.028 Y135.617 E0.75426
G1 X51.493 Y135.617 E0.01677
G1 X69.010 Y153.134 E0.77798
G1 X69.010 Y153.668 E0.01677
G1 X50.959 Y135.617 E0.80171
M73 Q0 S544
G1 X50.425 Y135.617 E0.01677
G1 X69.010 Y154.202 E0.82543
G1 X69.010 Y154.736 E0.01677
G1 X49.891 Y135.617 E0.84915
M73 P0 R543
G1 X49.357 Y135.617 E0.01677
G1 X69.010 Y155.271 E0.87288
G1 X69.010 Y155.805 E0.01677
G1 X48.823 Y135.617 E0.89660
G1 X48.289 Y135.617 E0.01677
G1 X69.010 Y156.339 E0.92032
G1 X69.010 Y156.873 E0.01677
G1 X47.754 Y135.617 E0.94405
G1 X47.220 Y135.617 E0.01677
G1 X69.010 Y157.407 E0.96777
G1 X69.010 Y157.941 E0.01677
G1 X46.686 Y135.617 E0.99149
G1 X46.152 Y135.617 E0.01677
G1 X69.010 Y158.475 E1.01522
G1 X69.010 Y159.010 E0.01677
G1 X45.618 Y135.617 E1.03894
G1 X45.084 Y135.617 E0.01677
G1 X69.010 Y159.544 E1.06266
G1 X69.010 Y160.078 E0.01677
G1 X44.550 Y135.617 E1.08639
G1 X44.015 Y135.617 E0.01677
G1 X69.010 Y160.612 E1.11011
G1 X69.010 Y161.146 E0.01677
G1 X43.481 Y135.617 E1.13383
G1 X42.947 Y135.617 E0.01677
G1 X69.010 Y161.680 E1.15756
G1 X69.010 Y162.214 E0.01677
G1 X42.413 Y135.617 E1.18128
G1 X41.879 Y135.617 E0.01677
G1 X69.010 Y162.749 E1.20500
G1 X69.010 Y163.283 E0.01677
G1 X41.345 Y135.617 E1.22873
G1 X40.811 Y135.617 E0.01677
G1 X69.010 Y163.817 E1.25245
G1 X69.010 Y164.351 E0.01677
G1 X40.276 Y135.617 E1.27617
G1 X39.742 Y135.617 E0.01677
G1 X69.010 Y164.885 E1.29990
G1 X69.010 Y165.419 E0.01677
G1 X39.208 Y135.617 E1.32362
G1 X38.674 Y135.617 E0.01677
G1 X69.010 Y165.953 E1.34734
G1 X69.010 Y166.488 E0.01677
G1 X38.140 Y135.617 E1.37107
G1 X37.606 Y135.617 E0.01677
G1 X69.010 Y167.022 E1.39479
G1 X69.010 Y167.556 E0.01677
G1 X37.072 Y135.617 E1.41851
G1 X36.537 Y135.617 E0.01677
G1 X69.010 Y168.090 E1.44224
G1 X69.010 Y168.624 E0.01677
G1 X36.003 Y135.617 E1.46596
G1 X35.469 Y135.617 E0.01677
G1 X69.010 Y169.158 E1.48968
G1 X69.010 Y169.692 E0.01677
G1 X34.935 Y135.617 E1.51341
G1 X34.401 Y135.617 E0.01677
G1 X69.010 Y170.227 E1.53713
M73 Q0 S543
G1 X69.010 Y170.761 E0.01677
G1 X33.867 Y135.617 E1.56085
M73 P0 R542
G1 X33.333 Y135.617 E0.01677
G1 X69.010 Y171.295 E1.58458
G1 X69.010 Y171.829 E0.01677
G1 X32.798 Y135.617 E1.60830
G1 X32.264 Y135.617 E0.01677
G1 X69.010 Y172.363 E1.63202
G1 X69.010 Y172.897 E0.01677
G1 X31.730 Y135.617 E1.65574
G1 X31.196 Y135.617 E0.01677
G1 X69.010 Y173.431 E1.67947
G1 X69.010 Y173.966 E0.01677
G1 X30.662 Y135.617 E1.70319
G1 X30.128 Y135.617 E0.01677
G1 X69.010 Y174.500 E1.72691
G1 X69.010 Y175.034 E0.01677
G1 X29.594 Y135.617 E1.75064
G1 X29.059 Y135.617 E0.01677
G1 X69.010 Y175.568 E1.77436
G1 X69.010 Y176.102 E0.01677
G1 X28.525 Y135.617 E1.79808
G1 X27.991 Y135.617 E0.01677
G1 X69.010 Y176.636 E1.82181
G1 X69.010 Y177.170 E0.01677
G1 X27.457 Y135.617 E1.84553
G1 X26.923 Y135.617 E0.01677
G1 X69.010 Y177.705 E1.86925
G1 X69.010 Y178.239 E0.01677
G1 X26.389 Y135.617 E1.89298
G1 X25.855 Y135.617 E0.01677
G1 X69.010 Y178.773 E1.91670
G1 X69.010 Y179.307 E0.01677
G1 X25.321 Y135.617 E1.94042
G1 X24.786 Y135.617 E0.01677
G1 X69.010 Y179.841 E1.96415
G1 X69.010 Y180.375 E0.01677
G1 X24.252 Y135.617 E1.98787
G1 X23.718 Y135.617 E0.01677
G1 X69.010 Y180.909 E2.01159
G1 X69.010 Y181.443 E0.01677
G1 X23.184 Y135.617 E2.03532
M73 Q0 S542
G1 X22.650 Y135.617 E0.01677
G1 X69.010 Y181.978 E2.05904
M73 P0 R541
G1 X68.476 Y181.978 E0.01677
G1 X22.650 Y136.152 E2.03532
G1 X22.650 Y136.686 E0.01677
G1 X67.942 Y181.978 E2.01160
G1 X67.408 Y181.978 E0.01677
G1 X22.650 Y137.220 E1.98787
G1 X22.650 Y137.754 E0.01677
G1 X66.874 Y181.978 E1.96415
G1 X66.339 Y181.978 E0.01677
G1 X22.650 Y138.288 E1.94043
G1 X22.650 Y138.822 E0.01677
G1 X65.805 Y181.978 E1.91670
G1 X65.271 Y181.978 E0.01677
G1 X22.650 Y139.356 E1.89298
G1 X22.650 Y139.890 E0.01677
G1 X64.737 Y181.978 E1.86926
G1 X64.203 Y181.978 E0.01677
G1 X22.650 Y140.425 E1.84553
G1 X22.650 Y140.959 E0.01677
G1 X63.669 Y181.978 E1.82181
G1 X63.135 Y181.978 E0.01677
G1 X22.650 Y141.493 E1.79809
G1 X22.650 Y142.027 E0.01677
G1 X62.600 Y181.978 E1.77436
G1 X62.066 Y181.978 E0.01677
G1 X22.650 Y142.561 E1.75064
G1 X22.650 Y143.095 E0.01677
G1 X61.532 Y181.978 E1.72692
G1 X60.998 Y181.978 E0.01677
G1 X22.650 Y143.629 E1.70319
G1 X22.650 Y144.164 E0.01677
G1 X60.464 Y181.978 E1.67947
G1 X59.930 Y181.978 E0.01677
G1 X22.650 Y144.698 E1.65575
G1 X22.650 Y145.232 E0.01677
G1 X59.396 Y181.978 E1.63202
G1 X58.861 Y181.978 E0.01677
G1 X22.650 Y145.766 E1.60830
M73 Q0 S541
G1 X22.650 Y146.300 E0.01677
G1 X58.327 Y181.978 E1.58458
M73 P0 R540
G1 X57.793 Y181.978 E0.01677
G1 X22.650 Y146.834 E1.56085
G1 X22.650 Y147.368 E0.01677
G1 X57.259 Y181.978 E1.53713
G1 X56.725 Y181.978 E0.01677
G1 X22.650 Y147.903 E1.51341
G1 X22.650 Y148.437 E0.01677
G1 X56.191 Y181.978 E1.48968
G1 X55.657 Y181.978 E0.01677
G1 X22.650 Y148.971 E1.46596
G1 X22.650 Y149.505 E0.01677
G1 X55.122 Y181.978 E1.44224
G1 X54.588 Y181.978 E0.01677
G1 X22.650 Y150.039 E1.41851
G1 X22.650 Y150.573 E0.01677
G1 X54.054 Y181.978 E1.39479
G1 X53.520 Y181.978 E0.01677
G1 X22.650 Y151.107 E1.37107
G1 X22.650 Y151.642 E0.01677
G1 X52.986 Y181.978 E1.34734
G1 X52.452 Y181.978 E0.01677
G1 X22.650 Y152.176 E1.32362
G1 X22.650 Y152.710 E0.01677
G1 X51.918 Y181.978 E1.29990
G1 X51.383 Y181.978 E0.01677
G1 X22.650 Y153.244 E1.27618
G1 X22.650 Y153.778 E0.01677
G1 X50.849 Y181.978 E1.25245
G1 X50.315 Y181.978 E0.01677
G1 X22.650 Y154.312 E1.22873
G1 X22.650 Y154.846 E0.01677
G1 X49.781 Y181.978 E1.20501
G1 X49.247 Y181.978 E0.01677
G1 X22.650 Y155.381 E1.18128
G1 X22.650 Y155.915 E0.01677
G1 X48.713 Y181.978 E1.15756
G1 X48.179 Y181.978 E0.01677
G1 X22.650 Y156.449 E1.13384
G1 X22.650 Y156.983 E0.01677
G1 X47.644 Y181.978 E1.11011
G1 X47.110 Y181.978 E0.01677
G1 X22.650 Y157.517 E1.08639
G1 X22.650 Y158.051 E0.01677
G1 X46.576 Y181.978 E1.06267
G1 X46.042 Y181.978 E0.01677
G1 X22.650 Y158.585 E1.03894
G1 X22.650 Y159.120 E0.01677
G1 X45.508 Y181.978 E1.01522
G1 X44.974 Y181.978 E0.01677
G1 X22.650 Y159.654 E0.99150
G1 X22.650 Y160.188 E0.01677
G1 X44.440 Y181.978 E0.96777
G1 X43.905 Y181.978 E0.01677
G1 X22.650 Y160.722 E0.94405
G1 X22.650 Y161.256 E0.01677
G1 X43.371 Y181.978 E0.92033
M73 Q1 S541
G1 X42.837 Y181.978 E0.01677
M73 P1 R540
G1 X22.650 Y161.790 E0.89660
M73 Q1 S540
G1 X22.650 Y162.324 E0.01677
G1 X42.303 Y181.978 E0.87288
G1 X41.769 Y181.978 E0.01677
G1 X22.650 Y162.859 E0.84916
M73 P1 R539
G1 X22.650 Y163.393 E0.01677
G1 X41.235 Y181.978 E0.82543
G1 X40.701 Y181.978 E0.01677
G1 X22.650 Y163.927 E0.80171
G1 X22.650 Y164.461 E0.01677
G1 X40.167 Y181.978 E0.77799
G1 X39.632 Y181.978 E0.01677
G1 X22.650 Y164.995 E0.75426
G1 X22.650 Y165.529 E0.01677
G1 X39.098 Y181.978 E0.73054
G1 X38.564 Y181.978 E0.01677
G1 X22.650 Y166.063 E0.70682
G1 X22.650 Y166.597 E0.01677
G1 X38.030 Y181.978 E0.68309
G1 X37.496 Y181.978 E0.01677
G1 X22.650 Y167.132 E0.65937
G1 X22.650 Y167.666 E0.01677
G1 X36.962 Y181.978 E0.63565
G1 X36.428 Y181.978 E0.01677
G1 X22.650 Y168.200 E0.61192
G1 X22.650 Y168.734 E0.01677
G1 X35.893 Y181.978 E0.58820
G1 X35.359 Y181.978 E0.01677
G1 X22.650 Y169.268 E0.56448
G1 X22.650 Y169.802 E0.01677
G1 X34.825 Y181.978 E0.54075
G1 X34.291 Y181.978 E0.01677
G1 X22.650 Y170.336 E0.51703
G1 X22.650 Y170.871 E0.01677
G1 X33.757 Y181.978 E0.49331
G1 X33.223 Y181.978 E0.01677
G1 X22.650 Y171.405 E0.46958
G1 X22.650 Y171.939 E0.01677
G1 X32.689 Y181.978 E0.44586
G1 X32.154 Y181.978 E0.01677
G1 X22.650 Y172.473 E0.42214
G1 X22.650 Y173.007 E0.01677
G1 X31.620 Y181.978 E0.39841
G1 X31.086 Y181.978 E0.01677
G1 X22.650 Y173.541 E0.37469
G1 X22.650 Y174.075 E0.01677
G1 X30.552 Y181.978 E0.35097
G1 X30.018 Y181.978 E0.01677
G1 X22.650 Y174.610 E0.32724
G1 X22.650 Y175.144 E0.01677
G1 X29.484 Y181.978 E0.30352
G1 X28.950 Y181.978 E0.01677
G1 X22.650 Y175.678 E0.27980
G1 X22.650 Y176.212 E0.01677
G1 X28.415 Y181.978 E0.25608
G1 X27.881 Y181.978 E0.01677
G1 X22.650 Y176.746 E0.23235
G1 X22.650 Y177.280 E0.01677
G1 X27.347 Y181.978 E0.20863
G1 X26.813 Y181.978 E0.01677
G1 X22.650 Y177.814 E0.18491
G1 X22.650 Y178.349 E0.01677
G1 X26.279 Y181.978 E0.16118
G1 X25.745 Y181.978 E0.01677
G1 X22.650 Y178.883 E0.13746
G1 X22.650 Y179.417 E0.01677
G1 X25.211 Y181.978 E0.11374
G1 X24.676 Y181.978 E0.01677
G1 X22.650 Y179.951 E0.09001
G1 X22.650 Y180.485 E0.01677
G1 X24.142 Y181.978 E0.06629
G1 X23.608 Y181.978 E0.01677
G1 X22.650 Y181.019 E0.04257
G1 X22.650 Y181.553 E0.01677
G1 X23.244 Y182.147 E0.02638
;WIPE_START
G1 F8640.000
G1 X22.650 Y181.553 E-0.19395
G1 X22.650 Y181.019 E-0.12333
G1 X23.608 Y181.978 E-0.31296
G1 X24.142 Y181.978 E-0.12333
G1 X24.123 Y181.958 E-0.00642
;WIPE_END
G1 E-0.04000 F2100.000
G1 Z0.600 F10800.000
G1 X74.867 Y182.147
G1 Z0.200
G1 E0.80000 F2100.000
;TYPE:Perimeter
;WIDTH:0.42
G1 F1200.000
G1 X74.867 Y135.335 E1.46778
G1 X121.793 Y135.335 E1.47133
G1 X121.793 Y182.260 E1.47133
G1 X74.867 Y182.260 E1.47133
G1 X74.867 Y182.207 E0.00167
G1 X74.490 Y182.638 F10800.000
;TYPE:External perimeter
G1 F1200.000
G1 X74.490 Y134.958 E1.49497
G1 X122.170 Y134.958 E1.49497
G1 X122.170 Y182.638 E1.49497
G1 X74.550 Y182.638 E1.49309
G1 X74.593 Y182.251 F10800.000
;WIPE_START
G1 F8640.000
G1 X74.546 Y179.346 E-0.76000
;WIPE_END
G1 E-0.04000 F2100.000
G1 Z0.600 F10800.000
G1 X121.680 Y136.211
G1 Z0.200
G1 E0.80000 F2100.000
;TYPE:Solid infill
;WIDTH:0.420614
G1 F1200.000
G1 X121.086 Y135.617 E0.02638
G1 X120.552 Y135.617 E0.01677
G1 X121.510 Y136.576 E0.04256
G1 X121.510 Y137.110 E0.01677
G1 X120.018 Y135.617 E0.06629
G1 X119.483 Y135.617 E0.01677
G1 X121.510 Y137.644 E0.09001
G1 X121.510 Y138.178 E0.01677
G1 X118.949 Y135.617 E0.11373
G1 X118.415 Y135.617 E0.01677
G1 X121.510 Y138.712 E0.13746
G1 X121.510 Y139.246 E0.01677
G1 X117.881 Y135.617 E0.16118
G1 X117.347 Y135.617 E0.01677
G1 X121.510 Y139.781 E0.18490
G1 X121.510 Y140.315 E0.01677
G1 X116.813 Y135.617 E0.20863
G1 X116.279 Y135.617 E0.01677
G1 X121.510 Y140.849 E0.23235
G1 X121.510 Y141.383 E0.01677
G1 X115.744 Y135.617 E0.25607
G1 X115.210 Y135.617 E0.01677
G1 X121.510 Y141.917 E0.27980
G1 X121.510 Y142.451 E0.01677
G1 X114.676 Y135.617 E0.30352
G1 X114.142 Y135.617 E0.01677
G1 X121.510 Y142.985 E0.32724
G1 X121.510 Y143.520 E0.01677
G1 X113.608 Y135.617 E0.35097
G1 X113.074 Y135.617 E0.01677
G1 X121.510 Y144.054 E0.37469
G1 X121.510 Y144.588 E0.01677
G1 X112.540 Y135.617 E0.39841
G1 X112.005 Y135.617 E0.01677
G1 X121.510 Y145.122 E0.42214
G1 X121.510 Y145.656 E0.01677
G1 X111.471 Y135.617 E0.44586
G1 X110.937 Y135.617 E0.01677
G1 X121.510 Y146.190 E0.46958
G1 X121.510 Y146.724 E0.01677
G1 X110.403 Y135.617 E0.49331
G1 X109.869 Y135.617 E0.01677
G1 X121.510 Y147.259 E0.51703
G1 X121.510 Y147.793 E0.01677
G1 X109.335 Y135.617 E0.54075
M73 Q1 S539
G1 X108.801 Y135.617 E0.01677
G1 X121.510 Y148.327 E0.56448
G1 X121.510 Y148.861 E0.01677
G1 X108.266 Y135.617 E0.58820
G1 X107.732 Y135.617 E0.01677
G1 X121.510 Y149.395 E0.61192
M73 P1 R538
G1 X121.510 Y149.929 E0.01677
G1 X107.198 Y135.617 E0.63565
G1 X106.664 Y135.617 E0.01677
