; generated by PrusaSlicer 2.3.3+x64 on 2021-08-29 at 05:22:26 UTC

; 

; external perimeters extrusion width = 0.60mm
; perimeters extrusion width = 0.50mm
; infill extrusion width = 0.50mm
; solid infill extrusion width = 0.50mm
; top infill extrusion width = 0.45mm
; first layer extrusion width = 0.42mm

M73 P0 R172
M73 Q0 S173
M201 X1000 Y1000 Z200 E5000 ; sets maximum accelerations, mm/sec^2
M203 X200 Y200 Z12 E120 ; sets maximum feedrates, mm/sec
M204 P1250 R1250 T1250 ; sets acceleration (P, T) and retract acceleration (R), mm/sec^2
M205 X8.00 Y8.00 Z0.40 E4.50 ; sets the jerk limits, mm/sec
M205 S0 T0 ; sets the minimum extruding and travel feed rate, mm/sec
M107
;TYPE:Custom
M862.3 P "MK3S" ; printer model check
M862.1 P0.4 ; nozzle diameter check
M115 U3.10.0 ; tell printer latest fw version
G90 ; use absolute coordinates
M83 ; extruder relative mode
M104 S215 ; set extruder temp
M140 S65 ; set bed temp
M190 S65 ; wait for bed temp
M109 S215 ; wait for extruder temp
G28 W ; home all without mesh bed level
G80 ; mesh bed leveling
G1 Y-3.0 F1000.0 ; go outside print area
G92 E0.0
G1 X60.0 E9.0 F1000.0 ; intro line
G1 X100.0 E12.5 F1000.0 ; intro line
G92 E0.0
M221 S95

; Don't change E values below. Excessive value can damage the printer.

M907 E538 ; set extruder motor current
G21 ; set units to millimeters
G90 ; use absolute coordinates
M83 ; use relative distances for extrusion
M900 K0.05 ; Filament gcode LA 1.5
M900 K30 ; Filament gcode LA 1.0
;LAYER_CHANGE
;Z:0.2
;HEIGHT:0.2
;BEFORE_LAYER_CHANGE
G92 E0.0
;0.2


G1 E-0.80000 F2100.000
G1 Z0.400 F10800.000
;AFTER_LAYER_CHANGE
;0.2
G1 X63.190 Y73.389
G1 Z0.200
G1 E0.80000 F2100.000
M204 S1000
;TYPE:Skirt
;WIDTH:0.42
G1 F1200.000
G1 X64.129 Y73.187 E0.03013
G1 X137.169 Y72.768 E2.29015
G1 X189.683 Y72.768 E1.64653
G1 X190.585 Y72.947 E0.02884
G1 X191.348 Y73.453 E0.02872
G1 X191.864 Y74.210 E0.02872
G1 X192.056 Y75.106 E0.02872
G1 X192.055 Y127.706 E1.64924
G1 X191.944 Y128.365 E0.02095
G1 X191.654 Y128.967 E0.02095
G1 X191.208 Y129.464 E0.02095
G1 X190.638 Y129.820 E0.02107
G1 X189.699 Y130.022 E0.03013
G1 X116.659 Y130.441 E2.29015
G1 X64.134 Y130.441 E1.64689
G1 X63.462 Y130.339 E0.02130
G1 X62.843 Y130.050 E0.02142
G1 X62.335 Y129.599 E0.02130
G1 X61.974 Y129.023 E0.02130
G1 X61.825 Y128.560 E0.01526
G1 X61.772 Y128.073 E0.01538
G1 X61.773 Y75.511 E1.64805
G1 X61.883 Y74.848 E0.02107
G1 X62.174 Y74.242 E0.02107
G1 X62.619 Y73.744 E0.02095
G1 X63.139 Y73.421 E0.01919
; printing object box_small_grid_2021-08-28_22h11m.stl id:1 copy 0
;WIPE_START
G1 F8640.000
G1 X64.129 Y73.187 E-0.23494
G1 X66.403 Y73.174 E-0.52506
;WIPE_END
G1 E-0.04000 F2100.000
G1 Z0.600 F10800.000
G1 X138.392 Y76.358
G1 Z0.200
G1 E0.80000 F2100.000
;TYPE:Perimeter
G1 F1200.000
G1 X188.466 Y76.358 E1.57004
G1 X188.466 Y89.682 E0.41777
G1 X180.466 Y89.682 E0.25083
G1 X180.466 Y113.108 E0.73450
G1 X188.466 Y113.108 E0.25083
G1 X188.466 Y126.432 E0.41777
G1 X138.392 Y126.432 E1.57004
G1 X138.392 Y76.418 E1.56816
M73 Q0 S172
G1 X138.769 Y76.735 F10800.000
;TYPE:External perimeter
G1 F1200.000
G1 X188.089 Y76.735 E1.54639
G1 X188.089 Y89.305 E0.39412
G1 X180.089 Y89.305 E0.25083
G1 X180.089 Y113.485 E0.75815
G1 X188.089 Y113.485 E0.25083
G1 X188.089 Y126.055 E0.39412
G1 X138.769 Y126.055 E1.54639
G1 X138.769 Y76.795 E1.54451
G1 X138.665 Y76.348 F10800.000
;WIPE_START
G1 F8640.000
G1 X142.060 Y76.791 E-0.76000
;WIPE_END
G1 E-0.04000 F2100.000
G1 Z0.600 F10800.000
G1 X137.966 Y75.932
G1 Z0.200
G1 E0.80000 F2100.000
;TYPE:Perimeter
G1 F1200.000
G1 X188.892 Y75.932 E1.59674
G1 X188.892 Y126.858 E1.59674
G1 X137.966 Y126.858 E1.59674
G1 X137.966 Y75.992 E1.59486
G1 X137.589 Y75.555 F10800.000
;TYPE:External perimeter
M73 P0 R171
G1 F1200.000
G1 X189.269 Y75.555 E1.62039
G1 X189.269 Y127.235 E1.62039
G1 X137.589 Y127.235 E1.62039
G1 X137.589 Y75.615 E1.61851
G1 X137.975 Y75.658 F10800.000
;WIPE_START
G1 F8640.000
G1 X140.880 Y75.611 E-0.76000
;WIPE_END
G1 E-0.04000 F2100.000
G1 Z0.600 F10800.000
G1 X188.413 Y89.795
G1 Z0.200
G1 E0.80000 F2100.000
;TYPE:Solid infill
;WIDTH:0.420569
G1 F1200.000
G1 X188.609 Y89.991 E0.00869
G1 X188.609 Y90.525 E0.01677
G1 X188.049 Y89.965 E0.02487
G1 X187.515 Y89.965 E0.01677
G1 X188.609 Y91.059 E0.04859
G1 X188.609 Y91.593 E0.01677
G1 X186.981 Y89.965 E0.07231
G1 X186.447 Y89.965 E0.01677
G1 X188.609 Y92.127 E0.09603
G1 X188.609 Y92.661 E0.01677
G1 X185.912 Y89.965 E0.11974
G1 X185.378 Y89.965 E0.01677
G1 X188.609 Y93.195 E0.14346
G1 X188.609 Y93.729 E0.01677
G1 X184.844 Y89.965 E0.16718
G1 X184.310 Y89.965 E0.01677
G1 X188.609 Y94.263 E0.19090
G1 X188.609 Y94.797 E0.01677
G1 X183.776 Y89.965 E0.21461
G1 X183.242 Y89.965 E0.01677
G1 X188.609 Y95.331 E0.23833
G1 X188.609 Y95.866 E0.01677
G1 X182.708 Y89.965 E0.26205
G1 X182.174 Y89.965 E0.01677
G1 X188.609 Y96.400 E0.28577
G1 X188.609 Y96.934 E0.01677
G1 X181.640 Y89.965 E0.30948
G1 X181.106 Y89.965 E0.01677
G1 X188.609 Y97.468 E0.33320
G1 X188.609 Y98.002 E0.01677
G1 X180.749 Y90.142 E0.34906
G1 X180.749 Y90.676 E0.01677
G1 X188.609 Y98.536 E0.34906
G1 X188.609 Y99.070 E0.01677
G1 X180.749 Y91.210 E0.34906
G1 X180.749 Y91.744 E0.01677
G1 X188.609 Y99.604 E0.34906
G1 X188.609 Y100.138 E0.01677
G1 X180.749 Y92.278 E0.34906
G1 X180.749 Y92.812 E0.01677
G1 X188.609 Y100.672 E0.34906
G1 X188.609 Y101.206 E0.01677
G1 X180.749 Y93.346 E0.34906
G1 X180.749 Y93.880 E0.01677
G1 X188.609 Y101.740 E0.34906
G1 X188.609 Y102.274 E0.01677
G1 X180.749 Y94.414 E0.34906
G1 X180.749 Y94.948 E0.01677
G1 X188.609 Y102.809 E0.34906
G1 X188.609 Y103.343 E0.01677
G1 X180.749 Y95.482 E0.34906
G1 X180.749 Y96.016 E0.01677
G1 X188.609 Y103.877 E0.34906
G1 X188.609 Y104.411 E0.01677
G1 X180.749 Y96.551 E0.34906
G1 X180.749 Y97.085 E0.01677
G1 X188.609 Y104.945 E0.34906
G1 X188.609 Y105.479 E0.01677
G1 X180.749 Y97.619 E0.34906
G1 X180.749 Y98.153 E0.01677
G1 X188.609 Y106.013 E0.34906
G1 X188.609 Y106.547 E0.01677
G1 X180.749 Y98.687 E0.34906
G1 X180.749 Y99.221 E0.01677
G1 X188.609 Y107.081 E0.34906
G1 X188.609 Y107.615 E0.01677
G1 X180.749 Y99.755 E0.34906
G1 X180.749 Y100.289 E0.01677
G1 X188.609 Y108.149 E0.34906
G1 X188.609 Y108.683 E0.01677
G1 X180.749 Y100.823 E0.34906
G1 X180.749 Y101.357 E0.01677
G1 X188.609 Y109.217 E0.34906
G1 X188.609 Y109.752 E0.01677
G1 X180.749 Y101.891 E0.34906
G1 X180.749 Y102.425 E0.01677
G1 X188.609 Y110.286 E0.34906
G1 X188.609 Y110.820 E0.01677
G1 X180.749 Y102.959 E0.34906
G1 X180.749 Y103.494 E0.01677
G1 X188.609 Y111.354 E0.34906
G1 X188.609 Y111.888 E0.01677
G1 X180.749 Y104.028 E0.34906
G1 X180.749 Y104.562 E0.01677
G1 X188.609 Y112.422 E0.34906
G1 X188.609 Y112.825 E0.01266
G1 X188.478 Y112.825 E0.00412
G1 X180.749 Y105.096 E0.34324
G1 X180.749 Y105.630 E0.01677
G1 X187.944 Y112.825 E0.31953
G1 X187.410 Y112.825 E0.01677
G1 X180.749 Y106.164 E0.29581
G1 X180.749 Y106.698 E0.01677
G1 X186.876 Y112.825 E0.27209
G1 X186.342 Y112.825 E0.01677
G1 X180.749 Y107.232 E0.24837
G1 X180.749 Y107.766 E0.01677
G1 X185.807 Y112.825 E0.22465
G1 X185.273 Y112.825 E0.01677
G1 X180.749 Y108.300 E0.20094
G1 X180.749 Y108.834 E0.01677
G1 X184.739 Y112.825 E0.17722
G1 X184.205 Y112.825 E0.01677
G1 X180.749 Y109.368 E0.15350
G1 X180.749 Y109.902 E0.01677
G1 X183.671 Y112.825 E0.12978
G1 X183.137 Y112.825 E0.01677
G1 X180.749 Y110.436 E0.10607
G1 X180.749 Y110.971 E0.01677
G1 X182.603 Y112.825 E0.08235
G1 X182.069 Y112.825 E0.01677
G1 X180.749 Y111.505 E0.05863
G1 X180.749 Y112.039 E0.01677
G1 X181.535 Y112.825 E0.03491
G1 X181.001 Y112.825 E0.01677
G1 X180.579 Y112.403 E0.01873
; stop printing object box_small_grid_2021-08-28_22h11m.stl id:1 copy 0
; printing object box_large_grid_2021-08-28_22h11m.stl id:0 copy 0
;WIPE_START
G1 F8640.000
G1 X181.001 Y112.825 E-0.13774
G1 X181.535 Y112.825 E-0.12332
G1 X180.749 Y112.039 E-0.25673
G1 X180.749 Y111.505 E-0.12332
G1 X181.113 Y111.869 E-0.11889
;WIPE_END
G1 E-0.04000 F2100.000
G1 Z0.600 F10800.000
M73 Q0 S171
G1 X115.436 Y113.527
G1 Z0.200
G1 E0.80000 F2100.000
;TYPE:Perimeter
;WIDTH:0.42
G1 F1200.000
G1 X115.436 Y126.851 E0.41777
G1 X65.362 Y126.851 E1.57004
G1 X65.362 Y76.777 E1.57004
G1 X115.436 Y76.777 E1.57004
M73 P1 R171
M73 Q1 S171
G1 X115.436 Y90.101 E0.41777
G1 X107.436 Y90.101 E0.25083
G1 X107.436 Y113.527 E0.73450
G1 X115.376 Y113.527 E0.24895
G1 X115.059 Y113.904 F10800.000
;TYPE:External perimeter
G1 F1200.000
G1 X115.059 Y126.474 E0.39412
G1 X65.739 Y126.474 E1.54639
G1 X65.739 Y77.154 E1.54639
G1 X115.059 Y77.154 E1.54639
G1 X115.059 Y89.724 E0.39412
G1 X107.059 Y89.724 E0.25083
G1 X107.059 Y113.904 E0.75815
G1 X114.999 Y113.904 E0.24895
G1 X115.425 Y114.066 F10800.000
;WIPE_START
G1 F8640.000
G1 X115.015 Y117.195 E-0.76000
;WIPE_END
G1 E-0.04000 F2100.000
G1 Z0.600 F10800.000
G1 X115.862 Y127.277
M73 P1 R170
G1 Z0.200
G1 E0.80000 F2100.000
;TYPE:Perimeter
G1 F1200.000
G1 X64.936 Y127.277 E1.59674
G1 X64.936 Y76.351 E1.59674
G1 X115.862 Y76.351 E1.59674
G1 X115.862 Y127.217 E1.59486
G1 X116.239 Y127.654 F10800.000
;TYPE:External perimeter
G1 F1200.000
G1 X64.559 Y127.654 E1.62039
G1 X64.559 Y75.974 E1.62039
G1 X116.239 Y75.974 E1.62039
G1 X116.239 Y127.594 E1.61851
G1 X115.853 Y127.550 F10800.000
;WIPE_START
G1 F8640.000
G1 X112.948 Y127.598 E-0.76000
;WIPE_END
G1 E-0.04000 F2100.000
G1 Z0.600 F10800.000
G1 X115.384 Y90.214
G1 Z0.200
G1 E0.80000 F2100.000
;TYPE:Solid infill
;WIDTH:0.420569
G1 F1200.000
G1 X115.579 Y90.410 E0.00869
G1 X115.579 Y90.944 E0.01677
G1 X115.019 Y90.384 E0.02487
G1 X114.485 Y90.384 E0.01677
G1 X115.579 Y91.478 E0.04859
G1 X115.579 Y92.012 E0.01677
G1 X113.951 Y90.384 E0.07231
G1 X113.417 Y90.384 E0.01677
G1 X115.579 Y92.546 E0.09603
G1 X115.579 Y93.080 E0.01677
G1 X112.883 Y90.384 E0.11974
G1 X112.349 Y90.384 E0.01677
G1 X115.579 Y93.614 E0.14346
G1 X115.579 Y94.148 E0.01677
G1 X111.815 Y90.384 E0.16718
G1 X111.281 Y90.384 E0.01677
G1 X115.579 Y94.682 E0.19090
G1 X115.579 Y95.216 E0.01677
G1 X110.747 Y90.384 E0.21461
G1 X110.213 Y90.384 E0.01677
G1 X115.579 Y95.750 E0.23833
G1 X115.579 Y96.285 E0.01677
G1 X109.678 Y90.384 E0.26205
G1 X109.144 Y90.384 E0.01677
G1 X115.579 Y96.819 E0.28577
G1 X115.579 Y97.353 E0.01677
G1 X108.610 Y90.384 E0.30948
G1 X108.076 Y90.384 E0.01677
G1 X115.579 Y97.887 E0.33320
G1 X115.579 Y98.421 E0.01677
G1 X107.719 Y90.561 E0.34906
G1 X107.719 Y91.095 E0.01677
G1 X115.579 Y98.955 E0.34906
G1 X115.579 Y99.489 E0.01677
G1 X107.719 Y91.629 E0.34906
G1 X107.719 Y92.163 E0.01677
G1 X115.579 Y100.023 E0.34906
G1 X115.579 Y100.557 E0.01677
G1 X107.719 Y92.697 E0.34906
G1 X107.719 Y93.231 E0.01677
G1 X115.579 Y101.091 E0.34906
G1 X115.579 Y101.625 E0.01677
G1 X107.719 Y93.765 E0.34906
G1 X107.719 Y94.299 E0.01677
G1 X115.579 Y102.159 E0.34906
G1 X115.579 Y102.693 E0.01677
G1 X107.719 Y94.833 E0.34906
G1 X107.719 Y95.367 E0.01677
G1 X115.579 Y103.228 E0.34906
G1 X115.579 Y103.762 E0.01677
G1 X107.719 Y95.901 E0.34906
G1 X107.719 Y96.435 E0.01677
G1 X115.579 Y104.296 E0.34906
G1 X115.579 Y104.830 E0.01677
G1 X107.719 Y96.970 E0.34906
G1 X107.719 Y97.504 E0.01677
G1 X115.579 Y105.364 E0.34906
G1 X115.579 Y105.898 E0.01677
G1 X107.719 Y98.038 E0.34906
G1 X107.719 Y98.572 E0.01677
G1 X115.579 Y106.432 E0.34906
G1 X115.579 Y106.966 E0.01677
G1 X107.719 Y99.106 E0.34906
G1 X107.719 Y99.640 E0.01677
G1 X115.579 Y107.500 E0.34906
G1 X115.579 Y108.034 E0.01677
G1 X107.719 Y100.174 E0.34906
M73 Q1 S170
G1 X107.719 Y100.708 E0.01677
G1 X115.579 Y108.568 E0.34906
G1 X115.579 Y109.102 E0.01677
G1 X107.719 Y101.242 E0.34906
G1 X107.719 Y101.776 E0.01677
G1 X115.579 Y109.636 E0.34906
G1 X115.579 Y110.171 E0.01677
G1 X107.719 Y102.310 E0.34906
G1 X107.719 Y102.844 E0.01677
G1 X115.579 Y110.705 E0.34906
G1 X115.579 Y111.239 E0.01677
G1 X107.719 Y103.378 E0.34906
G1 X107.719 Y103.913 E0.01677
G1 X115.579 Y111.773 E0.34906
G1 X115.579 Y112.307 E0.01677
G1 X107.719 Y104.447 E0.34906
G1 X107.719 Y104.981 E0.01677
G1 X115.579 Y112.841 E0.34906
G1 X115.579 Y113.244 E0.01266
G1 X115.448 Y113.244 E0.00412
G1 X107.719 Y105.515 E0.34324
G1 X107.719 Y106.049 E0.01677
G1 X114.914 Y113.244 E0.31953
G1 X114.380 Y113.244 E0.01677
G1 X107.719 Y106.583 E0.29581
G1 X107.719 Y107.117 E0.01677
G1 X113.846 Y113.244 E0.27209
G1 X113.312 Y113.244 E0.01677
G1 X107.719 Y107.651 E0.24837
G1 X107.719 Y108.185 E0.01677
G1 X112.778 Y113.244 E0.22465
G1 X112.244 Y113.244 E0.01677
G1 X107.719 Y108.719 E0.20094
G1 X107.719 Y109.253 E0.01677
G1 X111.710 Y113.244 E0.17722
G1 X111.176 Y113.244 E0.01677
G1 X107.719 Y109.787 E0.15350
G1 X107.719 Y110.321 E0.01677
G1 X110.642 Y113.244 E0.12978
G1 X110.108 Y113.244 E0.01677
G1 X107.719 Y110.856 E0.10607
G1 X107.719 Y111.390 E0.01677
G1 X109.573 Y113.244 E0.08235
G1 X109.039 Y113.244 E0.01677
G1 X107.719 Y111.924 E0.05863
G1 X107.719 Y112.458 E0.01677
G1 X108.505 Y113.244 E0.03491
G1 X107.971 Y113.244 E0.01677
G1 X107.549 Y112.822 E0.01873
; stop printing object box_large_grid_2021-08-28_22h11m.stl id:0 copy 0
M106 S84.15
;LAYER_CHANGE
;Z:0.5
;HEIGHT:0.3
;BEFORE_LAYER_CHANGE
G92 E0.0
;0.5


;WIPE_START
G1 F8640.000
G1 X107.971 Y113.244 E-0.13774
G1 X108.505 Y113.244 E-0.12332
G1 X107.719 Y112.458 E-0.25673
G1 X107.719 Y111.924 E-0.12332
G1 X108.083 Y112.288 E-0.11889
;WIPE_END
G1 E-0.04000 F2100.000
G1 Z0.600 F10800.000
;AFTER_LAYER_CHANGE
;0.5
G1 X190.585 Y72.947
G1 Z0.500
G1 E0.80000 F2100.000
;TYPE:Skirt
;WIDTH:0.42
G1 F2700.000
G1 X191.348 Y73.453 E0.04063
G1 X191.864 Y74.210 E0.04063
G1 X192.056 Y75.106 E0.04063
G1 X192.055 Y127.706 E2.33307
G1 X191.944 Y128.365 E0.02964
G1 X191.654 Y128.967 E0.02964
G1 X191.208 Y129.464 E0.02964
G1 X190.638 Y129.820 E0.02980
G1 X189.699 Y130.022 E0.04262
G1 X116.659 Y130.441 E3.23972
G1 X64.134 Y130.441 E2.32974
G1 X63.462 Y130.339 E0.03014
G1 X62.843 Y130.050 E0.03031
G1 X62.335 Y129.599 E0.03014
G1 X61.974 Y129.023 E0.03014
G1 X61.825 Y128.560 E0.02159
G1 X61.772 Y128.073 E0.02176
G1 X61.773 Y75.511 E2.33138
G1 X61.883 Y74.848 E0.02980
G1 X62.174 Y74.242 E0.02980
G1 X62.619 Y73.744 E0.02964
G1 X63.190 Y73.389 E0.02980
G1 X64.129 Y73.187 E0.04262
G1 X137.169 Y72.768 E3.23972
G1 X189.683 Y72.768 E2.32923
G1 X190.526 Y72.935 E0.03813
; printing object box_small_grid_2021-08-28_22h11m.stl id:1 copy 0
;WIPE_START
G1 F8640.000
G1 X191.348 Y73.453 E-0.22439
G1 X191.864 Y74.210 E-0.21151
G1 X192.056 Y75.106 E-0.21151
G1 X192.056 Y75.593 E-0.11259
;WIPE_END
G1 E-0.04000 F2100.000
G1 Z0.900 F10800.000
G1 X188.464 Y76.359
G1 Z0.500
G1 E0.80000 F2100.000
M204 S800
;TYPE:Perimeter
;WIDTH:0.5
G1 F3000.000
G1 X188.464 Y89.680 E0.72378
G1 X180.464 Y89.680 E0.43466
G1 X180.464 Y113.109 E1.27295
G1 X188.464 Y113.109 E0.43466
G1 X188.464 Y126.430 E0.72378
G1 X138.393 Y126.430 E2.72051
G1 X138.393 Y76.359 E2.72051
M73 P1 R169
G1 X188.404 Y76.359 E2.71725
M204 S1000
G1 X187.979 Y76.845 F10800.000
M204 S800
;TYPE:External perimeter
;WIDTH:0.6
G1 F2100.000
G1 X187.979 Y89.195 E0.82505
G1 X179.979 Y89.195 E0.53444
G1 X179.979 Y113.595 E1.63005
G1 X187.979 Y113.595 E0.53444
G1 X187.979 Y125.945 E0.82505
G1 X138.879 Y125.945 E3.28015
G1 X138.879 Y76.845 E3.28015
G1 X187.919 Y76.845 E3.27614
M204 S1000
G1 X188.365 Y76.741 F10800.000
;WIPE_START
G1 F8640.000
G1 X187.935 Y80.136 E-0.76000
;WIPE_END
G1 E-0.04000 F2100.000
G1 Z0.900 F10800.000
G1 X188.893 Y75.930
G1 Z0.500
G1 E0.80000 F2100.000
M204 S800
;TYPE:Perimeter
;WIDTH:0.5
G1 F3000.000
G1 X188.893 Y126.859 E2.76711
G1 X137.964 Y126.859 E2.76711
G1 X137.964 Y75.930 E2.76711
G1 X188.833 Y75.930 E2.76385
M204 S1000
G1 X189.379 Y75.445 F10800.000
M204 S800
;TYPE:External perimeter
;WIDTH:0.6
G1 F2100.000
G1 X189.379 Y127.345 E3.46720
G1 X137.479 Y127.345 E3.46720
G1 X137.479 Y75.445 E3.46720
G1 X189.319 Y75.445 E3.46319
M204 S1000
G1 X189.275 Y75.831 F10800.000
;WIPE_START
G1 F8640.000
G1 X189.323 Y78.736 E-0.76000
;WIPE_END
G1 E-0.04000 F2100.000
G1 Z0.900 F10800.000
G1 X187.882 Y112.978
G1 Z0.500
G1 E0.80000 F2100.000
;TYPE:Solid infill
;WIDTH:0.50004
G1 F4800.000
G1 X188.566 Y112.294 E0.05261
G1 X188.566 Y111.678 E0.03348
G1 X187.462 Y112.782 E0.08489
G1 X186.846 Y112.782 E0.03348
G1 X188.566 Y111.062 E0.13224
